;FLAVOR:Marlin
;TIME:567
;Filament used: 0.250677m
;Layer height: 0.2
;MINX:92.512
;MINY:95.213
;MINZ:0.2
;MAXX:132.486
;MAXY:133.342
;MAXZ:11.2
;POSTPROCESSED
;Generated with Cura_SteamEngine 4.13.1
;
;

M82 ;absolute extrusion mode
; Ender 3 Custom Start G-code
M117 Getting the bed up to temp!
M140 S50 ; Set Heat Bed temperature
M190 S50 ; Wait for Heat Bed temperature
M117 Pre-heating the extruder!
M104 S160; start warming extruder to 160
G28 ; Home all axes
M117 Auto bed-level GO!
G29 ; Auto bed-level (BL-Touch)
G92 E0 ; Reset Extruder
M117 Getting the extruder up to temp!
M104 S210 ; Set Extruder temperature
M109 S210 ; Wait for Extruder temperature
G1 Z2.0 F3000 ; move z up little to prevent scratching of surface
G1 X0.1 Y20 Z0.3 F5000.0 ; move to start-line position
M117 LET THE PURGE BEGIN!
G1 X0.1 Y200.0 Z0.3 F1500.0 E15 ; draw 1st line
G1 X0.4 Y200.0 Z0.3 F5000.0 ; move to side a little
G1 X0.4 Y20 Z0.3 F1500.0 E30 ; draw 2nd line
G92 E0 ; reset extruder
G1 Z1.0 F3000 ; move z up little to prevent scratching of surface
G1 X5 Y20 Z0.3 F5000.0 ; Move over to prevent blob squish
M117 Autobots! Roll Out!
; End of custom start GCode
G92 E0
G92 E0
G1 F2100 E-1.5
;LAYER_COUNT:56
;LAYER:0
M107
G0 F6000 X96.613 Y99.139 Z0.2
;TYPE:SKIRT
G1 F2100 E0
G1 F1200 X97.293 Y98.493 E0.0312
G1 X98.039 Y97.898 E0.06293
G1 X98.15 Y97.817 E0.0675
G1 X98.44 Y97.612 E0.07932
G1 X98.713 Y97.426 E0.0903
G1 X99.51 Y96.932 E0.12149
G1 X100.076 Y96.635 E0.14275
G1 X100.434 Y96.46 E0.156
G1 X100.768 Y96.303 E0.16828
G1 X100.864 Y96.26 E0.17178
G1 X101.736 Y95.914 E0.20298
G1 X102.345 Y95.721 E0.22423
G1 X102.594 Y95.65 E0.23284
G1 X103.506 Y95.431 E0.26404
G1 X104.433 Y95.291 E0.29522
G1 X105.409 Y95.23 E0.32774
G1 X106.284 Y95.214 E0.35685
G1 X106.644 Y95.213 E0.36882
G1 X107.199 Y95.221 E0.38728
G1 X107.506 Y95.23 E0.3975
G1 X108.76 Y95.283 E0.43925
G1 X111.406 Y95.358 E0.52729
G1 X113.884 Y95.358 E0.60971
G1 X117.037 Y95.26 E0.71463
G1 X117.265 Y95.249 E0.72222
G1 X117.609 Y95.238 E0.73367
G1 X118.55 Y95.222 E0.76497
G1 X118.901 Y95.221 E0.77664
G1 X119.504 Y95.23 E0.7967
G1 X120.44 Y95.284 E0.82788
G1 X121.369 Y95.418 E0.8591
G1 X121.986 Y95.552 E0.8801
G1 X122.22 Y95.61 E0.88812
G1 X123.12 Y95.874 E0.91932
G1 X124.071 Y96.248 E0.9533
G1 X124.551 Y96.463 E0.9708
G1 X125.389 Y96.883 E1.00197
G1 X126.235 Y97.403 E1.035
G1 X126.5 Y97.583 E1.04566
G1 X127.343 Y98.216 E1.08072
G1 X127.613 Y98.44 E1.09239
G1 X128.367 Y99.128 E1.12634
G1 X128.424 Y99.185 E1.12902
G1 X129.058 Y99.876 E1.16021
G1 X129.632 Y100.618 E1.19141
G1 X130.069 Y101.287 E1.21799
G1 X130.531 Y102.054 E1.24777
G1 X130.71 Y102.364 E1.25968
G1 X130.971 Y102.831 E1.27747
G1 X131.393 Y103.668 E1.30865
G1 X131.743 Y104.538 E1.33984
G1 X131.931 Y105.123 E1.36027
G1 X131.993 Y105.336 E1.36765
G1 X132.216 Y106.247 E1.39885
G1 X132.373 Y107.278 E1.43353
G1 X132.43 Y107.829 E1.45196
G1 X132.486 Y108.765 E1.48314
G1 X132.461 Y109.734 E1.51538
G1 X132.441 Y110.018 E1.52485
G1 X132.416 Y110.318 E1.53487
G1 X132.396 Y110.522 E1.54168
G1 X132.264 Y111.451 E1.57289
G1 X132.096 Y112.211 E1.59878
G1 X132.034 Y112.45 E1.60699
G1 X131.76 Y113.347 E1.63819
G1 X131.41 Y114.217 E1.66938
G1 X131.018 Y115.001 E1.69853
G1 X130.59 Y115.777 E1.72801
G1 X130.401 Y116.107 E1.74066
G1 X130.107 Y116.599 E1.75972
G1 X129.947 Y116.857 E1.76982
G1 X129.388 Y117.736 E1.80446
G1 X128.036 Y119.929 E1.89015
G1 X126.782 Y122.099 E1.97351
G1 X125.219 Y125.014 E2.08352
G1 X125.095 Y125.254 E2.0925
G1 X124.94 Y125.544 E2.10344
G1 X124.487 Y126.362 E2.13454
G1 X124.317 Y126.659 E2.14592
G1 X123.998 Y127.195 E2.16667
G1 X123.484 Y127.979 E2.19785
G1 X122.905 Y128.718 E2.22907
G1 X122.406 Y129.263 E2.25365
G1 X122.222 Y129.451 E2.2624
G1 X121.538 Y130.093 E2.2936
G1 X121.095 Y130.455 E2.31263
G1 X120.971 Y130.551 E2.31785
G1 X120.382 Y130.977 E2.34202
G1 X120.088 Y131.175 E2.35381
G1 X119.288 Y131.665 E2.38501
G1 X118.749 Y131.946 E2.40523
G1 X118.504 Y132.065 E2.41429
G1 X118.064 Y132.268 E2.43041
G1 X117.194 Y132.618 E2.4616
G1 X116.538 Y132.827 E2.4845
G1 X116.246 Y132.91 E2.49459
G1 X115.333 Y133.128 E2.52581
G1 X114.406 Y133.267 E2.55699
G1 X113.429 Y133.327 E2.58955
G1 X112.624 Y133.341 E2.61633
G1 X112.269 Y133.342 E2.62813
G1 X111.666 Y133.333 E2.64819
G1 X110.73 Y133.279 E2.67937
G1 X109.801 Y133.145 E2.71059
G1 X109.205 Y133.016 E2.73088
G1 X108.973 Y132.959 E2.73882
G1 X108.073 Y132.697 E2.77
G1 X107.089 Y132.31 E2.80517
G1 X106.595 Y132.088 E2.82318
G1 X105.471 Y131.503 E2.86532
G1 X104.59 Y130.977 E2.89945
G1 X103.832 Y130.51 E2.92906
G1 X101.677 Y129.266 E3.01182
G1 X100.322 Y128.535 E3.06303
G1 X99.634 Y128.153 E3.08921
G1 X98.816 Y127.65 E3.12114
G1 X98.52 Y127.45 E3.13303
G1 X97.583 Y126.742 E3.17209
G1 X97.32 Y126.52 E3.18353
G1 X96.637 Y125.892 E3.21439
G1 X96.593 Y125.848 E3.21646
G1 X95.959 Y125.157 E3.24765
G1 X95.385 Y124.415 E3.27886
G1 X94.945 Y123.74 E3.30565
G1 X94.471 Y122.952 E3.33624
G1 X94.286 Y122.633 E3.34851
G1 X94.036 Y122.184 E3.3656
G1 X93.615 Y121.346 E3.39679
G1 X93.267 Y120.475 E3.42799
G1 X93.096 Y119.945 E3.44651
G1 X93.032 Y119.728 E3.45403
G1 X92.806 Y118.818 E3.48522
G1 X92.642 Y117.751 E3.52112
G1 X92.584 Y117.192 E3.53982
G1 X92.526 Y115.899 E3.58287
G1 X92.542 Y114.843 E3.61799
G1 X92.57 Y113.844 E3.65123
G1 X92.568 Y111.33 E3.73485
G1 X92.515 Y109.329 E3.80142
G1 X92.512 Y109.101 E3.80901
G1 X92.535 Y108.235 E3.83782
G1 X92.548 Y108.037 E3.84442
G1 X92.576 Y107.686 E3.85613
G1 X92.6 Y107.441 E3.86432
G1 X92.732 Y106.512 E3.89553
G1 X92.872 Y105.862 E3.91765
G1 X92.946 Y105.564 E3.92786
G1 X93.211 Y104.664 E3.95906
G1 X93.551 Y103.79 E3.99025
G1 X94.004 Y102.878 E4.02412
G1 X94.398 Y102.168 E4.05113
G1 X94.566 Y101.875 E4.06236
G1 X94.871 Y101.363 E4.08219
G1 X95.385 Y100.579 E4.11337
G1 X95.963 Y99.841 E4.14454
G1 X96.411 Y99.348 E4.1667
G1 X96.613 Y99.139 E4.17637
G0 F6000 X96.901 Y99.417
G1 F1200 X97.569 Y98.784 E4.20698
G1 X98.275 Y98.221 E4.23701
G1 X98.386 Y98.14 E4.24158
G1 X98.666 Y97.943 E4.25297
G1 X98.939 Y97.757 E4.26395
G1 X99.721 Y97.272 E4.29456
G1 X100.252 Y96.994 E4.3145
G1 X100.61 Y96.819 E4.32775
G1 X101.028 Y96.625 E4.34308
G1 X101.884 Y96.286 E4.3737
G1 X102.454 Y96.105 E4.39359
G1 X102.703 Y96.034 E4.4022
G1 X103.599 Y95.821 E4.43283
G1 X104.51 Y95.685 E4.46347
G1 X105.416 Y95.63 E4.49366
G1 X106.291 Y95.614 E4.52276
G1 X106.638 Y95.613 E4.53431
G1 X107.193 Y95.621 E4.55277
G1 X107.489 Y95.63 E4.56262
G1 X108.731 Y95.683 E4.60396
G1 X111.395 Y95.758 E4.6926
G1 X113.897 Y95.758 E4.77582
G1 X117.011 Y95.661 E4.87944
G1 X117.285 Y95.648 E4.88857
G1 X117.616 Y95.638 E4.89958
G1 X118.557 Y95.622 E4.93088
G1 X118.895 Y95.621 E4.94212
G1 X119.498 Y95.63 E4.96218
G1 X120.417 Y95.684 E4.9928
G1 X121.328 Y95.817 E5.02342
G1 X121.89 Y95.94 E5.04256
G1 X122.124 Y95.998 E5.05058
G1 X123.007 Y96.258 E5.08119
G1 X123.907 Y96.613 E5.11337
G1 X124.387 Y96.828 E5.13086
G1 X125.21 Y97.241 E5.16149
G1 X126.01 Y97.734 E5.19274
G1 X126.275 Y97.914 E5.2034
G1 X127.087 Y98.524 E5.23718
G1 X127.357 Y98.748 E5.24885
G1 X128.084 Y99.411 E5.28157
G1 X128.141 Y99.468 E5.28425
G1 X128.763 Y100.146 E5.31486
G1 X129.324 Y100.876 E5.34548
G1 X129.726 Y101.494 E5.37
G1 X130.188 Y102.261 E5.39978
G1 X130.361 Y102.559 E5.41124
G1 X130.622 Y103.026 E5.42903
G1 X131.036 Y103.848 E5.45964
G1 X131.377 Y104.703 E5.49026
G1 X131.547 Y105.235 E5.50884
G1 X131.609 Y105.448 E5.51621
G1 X131.827 Y106.342 E5.54682
G1 X131.975 Y107.319 E5.57969
G1 X132.032 Y107.87 E5.59811
G1 X132.087 Y108.789 E5.62873
G1 X132.062 Y109.706 E5.65924
G1 X132.042 Y109.99 E5.66871
G1 X131.997 Y110.483 E5.68518
G1 X131.868 Y111.395 E5.71581
G1 X131.708 Y112.111 E5.74021
G1 X131.646 Y112.35 E5.74843
G1 X131.377 Y113.23 E5.77903
G1 X131.032 Y114.084 E5.80967
G1 X130.668 Y114.807 E5.83659
G1 X130.24 Y115.583 E5.86606
G1 X130.057 Y115.901 E5.87827
G1 X129.763 Y116.393 E5.89733
G1 X129.61 Y116.643 E5.90708
G1 X129.033 Y117.55 E5.94283
G1 X127.677 Y119.75 E6.02879
G1 X126.434 Y121.901 E6.11142
G1 X124.868 Y124.821 E6.22162
G1 X124.739 Y125.071 E6.23098
G1 X124.59 Y125.35 E6.2415
G1 X124.137 Y126.168 E6.2726
G1 X123.973 Y126.454 E6.28356
G1 X123.654 Y126.99 E6.30431
G1 X123.149 Y127.76 E6.33494
G1 X122.579 Y128.483 E6.36556
G1 X122.12 Y128.983 E6.38813
G1 X121.936 Y129.171 E6.39688
G1 X121.265 Y129.801 E6.42749
G1 X120.85 Y130.139 E6.4453
G1 X120.726 Y130.235 E6.45051
G1 X120.158 Y130.645 E6.47381
G1 X119.864 Y130.843 E6.4856
G1 X119.079 Y131.324 E6.51622
G1 X118.574 Y131.586 E6.53514
G1 X118.329 Y131.705 E6.5442
G1 X118.067 Y131.828 E6.55383
G1 X117.899 Y131.904 E6.55996
G1 X117.044 Y132.246 E6.59059
G1 X116.428 Y132.442 E6.61209
G1 X116.136 Y132.525 E6.62219
G1 X115.241 Y132.738 E6.65279
G1 X114.33 Y132.873 E6.68342
G1 X113.422 Y132.927 E6.71367
G1 X112.617 Y132.941 E6.74045
G1 X112.275 Y132.942 E6.75182
G1 X111.672 Y132.933 E6.77188
G1 X110.753 Y132.879 E6.8025
G1 X109.842 Y132.746 E6.83312
G1 X109.301 Y132.628 E6.85154
G1 X109.069 Y132.571 E6.85949
G1 X108.185 Y132.313 E6.89011
G1 X107.253 Y131.946 E6.92343
G1 X106.759 Y131.724 E6.94144
G1 X105.675 Y131.159 E6.9821
G1 X104.799 Y130.636 E7.01603
G1 X104.046 Y130.172 E7.04545
G1 X101.875 Y128.919 E7.12882
G1 X100.516 Y128.185 E7.18019
G1 X99.828 Y127.803 E7.20637
G1 X99.04 Y127.319 E7.23713
G1 X98.744 Y127.119 E7.24901
G1 X97.841 Y126.436 E7.28667
G1 X97.578 Y126.214 E7.29811
G1 X96.92 Y125.609 E7.32784
G1 X96.876 Y125.565 E7.32991
G1 X96.254 Y124.887 E7.36051
G1 X95.693 Y124.157 E7.39114
G1 X95.288 Y123.534 E7.41585
G1 X94.814 Y122.746 E7.44644
G1 X94.636 Y122.439 E7.45824
G1 X94.386 Y121.99 E7.47533
G1 X93.973 Y121.167 E7.50596
G1 X93.634 Y120.311 E7.53658
G1 X93.48 Y119.832 E7.55331
G1 X93.416 Y119.615 E7.56084
G1 X93.194 Y118.721 E7.59148
G1 X93.04 Y117.71 E7.62549
G1 X92.982 Y117.151 E7.64418
G1 X92.926 Y115.905 E7.68567
G1 X92.942 Y114.854 E7.72063
G1 X92.97 Y113.855 E7.75387
G1 X92.968 Y111.319 E7.83822
G1 X92.915 Y109.323 E7.90463
G1 X92.912 Y109.095 E7.91221
G1 X92.934 Y108.262 E7.93993
G1 X92.947 Y108.064 E7.94652
G1 X92.974 Y107.725 E7.95784
G1 X92.998 Y107.48 E7.96602
G1 X93.128 Y106.568 E7.99666
G1 X93.26 Y105.958 E8.01742
G1 X93.334 Y105.66 E8.02763
G1 X93.595 Y104.777 E8.05826
G1 X93.931 Y103.92 E8.08888
G1 X94.353 Y103.072 E8.12038
G1 X94.747 Y102.362 E8.14739
G1 X94.909 Y102.08 E8.1582
G1 X95.214 Y101.568 E8.17802
G1 X95.719 Y100.798 E8.20865
G1 X96.289 Y100.075 E8.23927
G1 X96.699 Y99.626 E8.2595
G1 X96.901 Y99.417 E8.26916
G0 F6000 X97.189 Y99.695
G1 F1200 X97.844 Y99.074 E8.29918
G1 X98.51 Y98.545 E8.32747
G1 X98.621 Y98.464 E8.33204
G1 X98.891 Y98.274 E8.34302
G1 X99.164 Y98.088 E8.35401
G1 X99.932 Y97.613 E8.38405
G1 X100.428 Y97.353 E8.40267
G1 X100.786 Y97.178 E8.41593
G1 X101.095 Y97.033 E8.42728
G1 X101.191 Y96.99 E8.43078
G1 X102.031 Y96.658 E8.46082
G1 X102.564 Y96.49 E8.47941
G1 X102.813 Y96.419 E8.48802
G1 X103.692 Y96.21 E8.51807
G1 X104.585 Y96.08 E8.54808
G1 X105.424 Y96.03 E8.57604
G1 X106.299 Y96.014 E8.60515
G1 X106.632 Y96.013 E8.61622
G1 X107.187 Y96.021 E8.63468
G1 X107.472 Y96.029 E8.64417
G1 X108.773 Y96.084 E8.68748
G1 X111.384 Y96.158 E8.77435
G1 X113.909 Y96.158 E8.85833
G1 X117.043 Y96.061 E8.96262
G1 X117.304 Y96.048 E8.97131
G1 X117.623 Y96.037 E8.98193
G1 X118.564 Y96.021 E9.01323
G1 X118.889 Y96.021 E9.02404
G1 X119.492 Y96.03 E9.0441
G1 X120.394 Y96.084 E9.07415
G1 X121.287 Y96.217 E9.10418
G1 X121.794 Y96.329 E9.12145
G1 X122.028 Y96.387 E9.12947
G1 X122.894 Y96.642 E9.1595
G1 X123.744 Y96.978 E9.1899
G1 X124.224 Y97.193 E9.20739
G1 X125.031 Y97.598 E9.23742
G1 X125.785 Y98.064 E9.2669
G1 X126.05 Y98.244 E9.27756
G1 X126.832 Y98.832 E9.3101
G1 X127.102 Y99.056 E9.32177
G1 X127.801 Y99.694 E9.35324
G1 X127.858 Y99.751 E9.35592
G1 X128.468 Y100.417 E9.38596
G1 X129.017 Y101.134 E9.416
G1 X129.383 Y101.7 E9.43842
G1 X129.845 Y102.467 E9.4682
G1 X130.012 Y102.754 E9.47924
G1 X130.273 Y103.221 E9.49704
G1 X130.678 Y104.028 E9.52707
G1 X131.01 Y104.868 E9.55711
G1 X131.163 Y105.346 E9.5738
G1 X131.225 Y105.559 E9.58118
G1 X131.438 Y106.437 E9.61123
G1 X131.577 Y107.36 E9.64227
G1 X131.634 Y107.911 E9.6607
G1 X131.687 Y108.813 E9.69075
G1 X131.663 Y109.678 E9.71953
G1 X131.643 Y109.962 E9.729
G1 X131.599 Y110.444 E9.7451
G1 X131.472 Y111.338 E9.77513
G1 X131.321 Y112.01 E9.79804
G1 X131.259 Y112.249 E9.80625
G1 X130.994 Y113.113 E9.83631
G1 X130.653 Y113.949 E9.86634
G1 X130.318 Y114.614 E9.89111
G1 X129.89 Y115.39 E9.92058
G1 X129.714 Y115.696 E9.93232
G1 X129.42 Y116.188 E9.95139
G1 X129.272 Y116.428 E9.96076
G1 X128.698 Y117.331 E9.99635
G1 X127.348 Y119.52 E10.08189
G1 X126.086 Y121.704 E10.16579
G1 X124.524 Y124.616 E10.27569
G1 X124.384 Y124.887 E10.28584
G1 X124.24 Y125.157 E10.29602
G1 X123.787 Y125.975 E10.32712
G1 X123.629 Y126.25 E10.33767
G1 X123.31 Y126.786 E10.35841
G1 X122.814 Y127.54 E10.38843
G1 X122.254 Y128.248 E10.41845
G1 X121.835 Y128.704 E10.43905
G1 X121.651 Y128.892 E10.4478
G1 X120.991 Y129.508 E10.47783
G1 X120.605 Y129.822 E10.49438
G1 X120.481 Y129.918 E10.49959
G1 X119.935 Y130.313 E10.52201
G1 X119.641 Y130.511 E10.5338
G1 X118.87 Y130.982 E10.56385
G1 X118.399 Y131.226 E10.58149
G1 X118.154 Y131.345 E10.59055
G1 X117.902 Y131.463 E10.5998
G1 X117.734 Y131.539 E10.60594
G1 X116.896 Y131.875 E10.63596
G1 X116.319 Y132.057 E10.65609
G1 X116.027 Y132.14 E10.66618
G1 X115.148 Y132.349 E10.69624
G1 X114.254 Y132.478 E10.72628
G1 X113.415 Y132.527 E10.75423
G1 X112.61 Y132.541 E10.78101
G1 X112.281 Y132.542 E10.79195
G1 X111.678 Y132.533 E10.81201
G1 X110.776 Y132.479 E10.84206
G1 X109.883 Y132.346 E10.87209
G1 X109.396 Y132.239 E10.88868
G1 X109.164 Y132.182 E10.89662
G1 X108.298 Y131.928 E10.92664
G1 X107.417 Y131.581 E10.95813
G1 X106.923 Y131.359 E10.97615
G1 X105.88 Y130.816 E11.01526
G1 X105.009 Y130.295 E11.04901
G1 X104.25 Y129.828 E11.07865
G1 X102.086 Y128.578 E11.16177
G1 X100.711 Y127.836 E11.21374
G1 X100.023 Y127.454 E11.23991
G1 X99.263 Y126.988 E11.26956
G1 X98.967 Y126.788 E11.28145
G1 X98.099 Y126.13 E11.31767
G1 X97.836 Y125.908 E11.32912
G1 X97.203 Y125.326 E11.35772
G1 X97.159 Y125.282 E11.35979
G1 X96.549 Y124.616 E11.38983
G1 X96 Y123.899 E11.41986
G1 X95.63 Y123.328 E11.44249
G1 X95.156 Y122.54 E11.47308
G1 X94.985 Y122.244 E11.48445
G1 X94.735 Y121.795 E11.50154
G1 X94.331 Y120.987 E11.53159
G1 X93.864 Y119.718 E11.57656
G1 X93.8 Y119.501 E11.58409
G1 X93.583 Y118.625 E11.6141
G1 X93.437 Y117.669 E11.64627
G1 X93.379 Y117.11 E11.66496
G1 X93.326 Y115.911 E11.70488
G1 X93.342 Y114.865 E11.73967
G1 X93.37 Y113.866 E11.77291
G1 X93.368 Y111.308 E11.85799
G1 X93.315 Y109.318 E11.9242
G1 X93.312 Y109.09 E11.93179
G1 X93.333 Y108.288 E11.95847
G1 X93.346 Y108.09 E11.96507
G1 X93.373 Y107.764 E11.97595
G1 X93.397 Y107.519 E11.98414
G1 X93.524 Y106.625 E12.01417
G1 X93.649 Y106.055 E12.03358
G1 X93.723 Y105.757 E12.04379
G1 X93.979 Y104.891 E12.07383
G1 X94.311 Y104.051 E12.10387
G1 X94.703 Y103.266 E12.13305
G1 X95.097 Y102.556 E12.16006
G1 X95.253 Y102.285 E12.17046
G1 X95.558 Y101.773 E12.19028
G1 X96.054 Y101.018 E12.22033
G1 X96.615 Y100.31 E12.25037
G1 X96.987 Y99.904 E12.26869
G1 X97.189 Y99.695 E12.27835
G1 F2100 E10.77835
;MESH:nut_job_20160810-16166-1av44-0.stl(2)
G0 F6000 X103.887 Y106.467
G0 X104.655 Y107.232
G0 X104.304 Y108.601
G0 X104.303 Y109.315
G0 X105.012 Y110.548
G0 X105.577 Y110.875
G0 X106.98 Y111.11
;TYPE:WALL-INNER
G1 F2100 E12.27835
G1 F1200 X105.72 Y111.11 E12.32026
G1 X105.582 Y111.073 E12.32501
G1 X105.231 Y110.909 E12.3379
G1 X104.904 Y110.681 E12.35116
G1 X104.8 Y110.577 E12.35605
G1 X104.175 Y109.494 E12.39764
G1 X104.135 Y109.348 E12.40267
G1 X104.103 Y108.96 E12.41562
G1 X104.136 Y108.568 E12.42871
G1 X104.173 Y108.432 E12.4334
G1 X104.8 Y107.344 E12.47516
G1 X104.925 Y107.225 E12.4809
G1 X105.231 Y107.011 E12.49332
G1 X105.582 Y106.847 E12.50621
G1 X105.72 Y106.81 E12.51096
G1 X106.979 Y106.81 E12.55283
G1 X107.117 Y106.847 E12.55759
G1 X107.473 Y107.013 E12.57065
G1 X107.797 Y107.239 E12.58379
G1 X107.901 Y107.343 E12.58868
G1 X108.526 Y108.427 E12.6303
G1 X108.566 Y108.573 E12.63533
G1 X108.6 Y108.965 E12.64842
