;FLAVOR:Marlin
;TIME:4888
;Filament used: 3.86546m
;Layer height: 0.2
;MINX:75.377
;MINY:93.156
;MINZ:0.2
;MAXX:142.249
;MAXY:131.844
;MAXZ:48
;POSTPROCESSED
;Generated with Cura_SteamEngine 4.13.1
;
;

M82 ;absolute extrusion mode
; Ender 3 Custom Start G-code
M117 Getting the bed up to temp!
M140 S55.0 ; Set Heat Bed temperature
M190 S55.0 ; Wait for Heat Bed temperature
M117 Pre-heating the extruder!
M104 S210; start warming extruder to 160
G28 ; Home all axes
M117 Auto bed-level GO!
G29 ; Auto bed-level (BL-Touch)
G92 E0 ; Reset Extruder
M117 Getting the extruder up to temp!
M104 S210 ; Set Extruder temperature
M109 S210 ; Wait for Extruder temperature
G1 Z2.0 F3000 ; move z up little to prevent scratching of surface
G1 X0.1 Y20 Z0.3 F5000.0 ; move to start-line position
M117 LET THE PURGE BEGIN!
SET_GCODE_OFFSET Z=-.005
G1 X0.1 Y200.0 Z0.3 F1500.0 E15 ; draw 1st line
G1 X0.4 Y200.0 Z0.3 F5000.0 ; move to side a little
G1 X0.4 Y20 Z0.3 F1500.0 E30 ; draw 2nd line
G92 E0 ; reset extruder
G1 Z1.0 F3000 ; move z up little to prevent scratching of surface
G1 X5 Y20 Z0.3 F5000.0 ; Move over to prevent blob squish
; SET_GCODE_OFFSET Z=+.075
M117 Autobots! Roll Out!
; End of custom start GCode
G92 E0
G92 E0
G1 F2700 E-3.5
;LAYER_COUNT:240
;LAYER:0
M107
G0 F9000 X80.481 Y97.266 Z0.2
;TYPE:SKIRT
G1 F2700 E0
G1 F2100 X81.256 Y96.719 E0.03727
G1 X81.715 Y96.438 E0.05841
G1 X81.967 Y96.292 E0.06986
G1 X82.807 Y95.851 E0.10713
G1 X83.454 Y95.571 E0.13483
G1 X83.673 Y95.484 E0.14409
G1 X84.568 Y95.171 E0.18134
G1 X85.045 Y95.038 E0.20079
G1 X85.241 Y94.988 E0.20874
G1 X86.403 Y94.756 E0.25529
G1 X86.568 Y94.732 E0.26185
G1 X87.349 Y94.646 E0.29272
G1 X88.255 Y94.58 E0.3284
G1 X110.615 Y93.222 E1.20852
G1 X111.367 Y93.186 E1.23809
G1 X111.648 Y93.176 E1.24914
G1 X112.436 Y93.158 E1.28011
G1 X112.869 Y93.156 E1.29712
G1 X113.297 Y93.167 E1.31394
G1 X113.793 Y93.188 E1.33345
G1 X114.122 Y93.207 E1.34639
G1 X114.735 Y93.251 E1.37054
G1 X115.148 Y93.288 E1.38683
G1 X115.607 Y93.338 E1.40497
G1 X115.934 Y93.379 E1.41792
G1 X116.345 Y93.436 E1.43422
G1 X116.687 Y93.488 E1.44781
G1 X117.304 Y93.593 E1.4724
G1 X117.727 Y93.674 E1.48932
G1 X118.032 Y93.738 E1.50157
G1 X118.362 Y93.812 E1.51485
G1 X118.594 Y93.868 E1.52423
G1 X118.893 Y93.945 E1.53636
G1 X119.887 Y94.214 E1.57682
G1 X120.356 Y94.351 E1.59601
G1 X120.743 Y94.474 E1.61197
G1 X121.016 Y94.565 E1.62328
G1 X121.299 Y94.663 E1.63504
G1 X121.747 Y94.827 E1.65379
G1 X121.922 Y94.893 E1.66113
G1 X122.321 Y95.049 E1.67796
G1 X122.827 Y95.262 E1.69953
G1 X123.476 Y95.553 E1.72748
G1 X123.753 Y95.682 E1.73948
G1 X124.358 Y95.975 E1.76589
G1 X124.522 Y96.058 E1.77312
G1 X124.812 Y96.21 E1.78598
G1 X125.136 Y96.386 E1.80047
G1 X125.451 Y96.564 E1.81468
G1 X126.076 Y96.93 E1.84314
G1 X126.431 Y97.147 E1.85948
G1 X126.64 Y97.28 E1.86922
G1 X127.026 Y97.533 E1.88735
G1 X127.508 Y97.863 E1.9103
G1 X128.278 Y98.42 E1.94764
G1 X128.637 Y98.691 E1.96531
G1 X128.796 Y98.816 E1.97326
G1 X129.114 Y99.076 E1.98939
G1 X129.642 Y99.526 E2.01665
G1 X130.123 Y99.952 E2.04189
G1 X130.39 Y100.196 E2.0561
G1 X130.788 Y100.572 E2.07762
G1 X131.261 Y101.047 E2.10395
G1 X131.743 Y101.56 E2.13161
G1 X132.005 Y101.849 E2.14693
G1 X132.43 Y102.334 E2.17227
G1 X132.623 Y102.56 E2.18395
G1 X132.883 Y102.873 E2.19993
G1 X133.213 Y103.29 E2.22083
G1 X133.571 Y103.765 E2.24419
G1 X133.762 Y104.026 E2.2569
G1 X133.933 Y104.267 E2.26851
G1 X134.123 Y104.543 E2.28168
G1 X134.34 Y104.869 E2.29706
G1 X134.536 Y105.175 E2.31134
G1 X134.957 Y105.854 E2.34273
G1 X135.275 Y106.4 E2.36755
G1 X135.354 Y106.545 E2.37404
G1 X135.772 Y107.396 E2.41129
G1 X136.189 Y108.496 E2.45751
G1 X136.254 Y108.699 E2.46588
G1 X136.527 Y109.71 E2.50703
G1 X136.59 Y109.996 E2.51853
G1 X136.754 Y110.93 E2.55579
G1 X136.84 Y111.875 E2.59307
G1 X136.844 Y112.858 E2.63169
G1 X136.833 Y113.138 E2.6427
G1 X136.699 Y114.481 E2.69573
G1 X136.69 Y114.537 E2.69795
G1 X136.501 Y115.466 E2.7352
G1 X136.366 Y115.96 E2.75532
G1 X136.294 Y116.202 E2.76524
G1 X135.985 Y117.099 E2.80252
G1 X135.694 Y117.777 E2.8315
G1 X135.601 Y117.975 E2.8401
G1 X135.023 Y119.049 E2.88802
G1 X134.684 Y119.605 E2.9136
G1 X134.424 Y120.012 E2.93258
G1 X134.227 Y120.304 E2.94641
G1 X133.891 Y120.793 E2.96972
G1 X133.688 Y121.079 E2.9835
G1 X133.373 Y121.506 E3.00435
G1 X133.269 Y121.643 E3.01111
G1 X133.048 Y121.925 E3.02519
G1 X132.71 Y122.342 E3.04627
G1 X132.324 Y122.8 E3.06981
G1 X132.09 Y123.069 E3.08381
G1 X131.901 Y123.277 E3.09486
G1 X131.663 Y123.533 E3.10859
G1 X131.258 Y123.955 E3.13157
G1 X130.849 Y124.369 E3.15443
G1 X130.414 Y124.787 E3.17814
G1 X129.864 Y125.287 E3.20734
G1 X129.57 Y125.545 E3.22271
G1 X129.242 Y125.823 E3.2396
G1 X128.836 Y126.151 E3.26011
G1 X128.33 Y126.541 E3.28521
G1 X128.077 Y126.73 E3.29761
G1 X127.707 Y126.999 E3.31559
G1 X127.406 Y127.211 E3.33005
G1 X126.856 Y127.584 E3.35616
G1 X126.363 Y127.9 E3.37917
G1 X125.885 Y128.189 E3.40111
G1 X125.646 Y128.33 E3.41201
G1 X125.318 Y128.515 E3.42681
G1 X124.81 Y128.793 E3.44956
G1 X124.508 Y128.953 E3.46299
G1 X124.172 Y129.122 E3.47776
G1 X123.722 Y129.339 E3.49739
G1 X123.359 Y129.506 E3.51309
G1 X122.89 Y129.712 E3.53322
G1 X122.555 Y129.853 E3.5475
G1 X122.074 Y130.046 E3.56786
G1 X121.78 Y130.159 E3.58023
G1 X121.238 Y130.359 E3.60293
G1 X120.783 Y130.516 E3.62184
G1 X120.263 Y130.683 E3.6433
G1 X119.815 Y130.817 E3.66167
G1 X119.38 Y130.937 E3.6794
G1 X118.986 Y131.038 E3.69538
G1 X118.354 Y131.188 E3.7209
G1 X118.049 Y131.256 E3.73318
G1 X117.612 Y131.347 E3.75072
G1 X117.215 Y131.422 E3.76659
G1 X116.49 Y131.544 E3.79547
G1 X116.02 Y131.612 E3.81413
G1 X115.661 Y131.658 E3.82835
G1 X115.38 Y131.69 E3.83946
G1 X114.893 Y131.74 E3.8587
G1 X114.385 Y131.781 E3.87872
G1 X113.912 Y131.808 E3.89733
G1 X113.484 Y131.826 E3.91416
G1 X113.225 Y131.834 E3.92434
G1 X112.611 Y131.844 E3.94847
G1 X112.077 Y131.84 E3.96945
G1 X111.276 Y131.815 E4.00094
G1 X110.958 Y131.8 E4.01345
G1 X88.053 Y130.407 E4.91501
G1 X87.618 Y130.374 E4.93215
G1 X87.242 Y130.339 E4.94699
G1 X86.777 Y130.288 E4.96537
G1 X85.84 Y130.145 E5.00261
G1 X84.919 Y129.924 E5.03982
G1 X84.649 Y129.847 E5.05085
G1 X83.748 Y129.548 E5.08815
G1 X83.122 Y129.289 E5.11476
G1 X82.924 Y129.2 E5.12329
G1 X82.076 Y128.775 E5.16056
G1 X81.651 Y128.527 E5.17989
G1 X81.462 Y128.411 E5.1886
G1 X80.676 Y127.881 E5.22585
G1 X80.15 Y127.47 E5.25207
G1 X79.983 Y127.331 E5.26061
G1 X79.28 Y126.694 E5.29788
G1 X78.694 Y126.07 E5.33152
G1 X78.479 Y125.823 E5.34438
G1 X77.887 Y125.082 E5.38164
G1 X77.301 Y124.196 E5.42338
G1 X77.183 Y123.998 E5.43243
G1 X76.732 Y123.164 E5.46968
G1 X76.402 Y122.417 E5.50177
G1 X76.27 Y122.087 E5.51573
G1 X75.955 Y121.192 E5.55301
G1 X75.654 Y119.96 E5.60284
G1 X75.598 Y119.658 E5.61491
G1 X75.464 Y118.719 E5.65217
G1 X75.421 Y118.123 E5.67565
G1 X75.402 Y117.642 E5.69456
G1 X75.379 Y116.52 E5.73865
G1 X75.377 Y116.288 E5.74777
G1 X75.379 Y108.116 E6.06883
G1 X75.387 Y107.551 E6.09103
G1 X75.398 Y107.201 E6.10479
G1 X75.41 Y106.936 E6.11521
G1 X75.526 Y105.754 E6.16188
G1 X75.559 Y105.537 E6.1705
G1 X75.801 Y104.365 E6.21752
G1 X75.856 Y104.156 E6.22601
G1 X76.229 Y102.998 E6.27381
G1 X76.291 Y102.836 E6.28062
G1 X76.878 Y101.55 E6.33616
G1 X76.985 Y101.35 E6.34507
G1 X77.468 Y100.533 E6.38236
G1 X77.842 Y99.992 E6.4082
G1 X78.006 Y99.769 E6.41908
G1 X78.6 Y99.029 E6.45636
G1 X79.47 Y98.139 E6.50525
G1 X79.756 Y97.877 E6.52049
G1 X80.481 Y97.266 E6.55774
G0 F9000 X80.803 Y97.649
G1 F2100 X81.562 Y97.116 E6.59418
G1 X81.966 Y96.87 E6.61277
G1 X82.218 Y96.724 E6.62421
G1 X83.039 Y96.295 E6.6606
G1 X83.638 Y96.035 E6.68626
G1 X83.857 Y95.948 E6.69552
G1 X85.169 Y95.523 E6.7497
G1 X85.365 Y95.473 E6.75765
G1 X86.475 Y95.251 E6.80212
G1 X86.64 Y95.227 E6.80867
G1 X87.387 Y95.145 E6.8382
G1 X88.285 Y95.079 E6.87357
G1 X110.639 Y93.721 E7.75345
G1 X111.391 Y93.685 E7.78303
G1 X111.66 Y93.676 E7.7936
G1 X112.448 Y93.658 E7.82457
G1 X112.861 Y93.656 E7.84079
G1 X113.276 Y93.667 E7.8571
G1 X113.772 Y93.688 E7.87661
G1 X114.087 Y93.706 E7.88901
G1 X114.7 Y93.75 E7.91315
G1 X115.094 Y93.785 E7.92869
G1 X115.553 Y93.835 E7.94683
G1 X115.866 Y93.874 E7.95922
G1 X116.277 Y93.931 E7.97553
G1 X116.603 Y93.981 E7.98848
G1 X117.22 Y94.086 E8.01307
G1 X117.625 Y94.163 E8.02927
G1 X117.93 Y94.227 E8.04151
G1 X118.244 Y94.298 E8.05416
G1 X118.476 Y94.354 E8.06354
G1 X118.762 Y94.427 E8.07514
G1 X119.756 Y94.696 E8.11559
G1 X120.204 Y94.828 E8.13394
G1 X120.591 Y94.951 E8.1499
G1 X120.853 Y95.038 E8.16074
G1 X121.366 Y95.218 E8.1821
G1 X121.739 Y95.359 E8.19777
G1 X122.138 Y95.515 E8.2146
G1 X122.622 Y95.718 E8.23522
G1 X123.271 Y96.009 E8.26317
G1 X123.537 Y96.132 E8.27468
G1 X123.942 Y96.327 E8.29234
G1 X124.296 Y96.504 E8.30789
G1 X124.573 Y96.65 E8.32019
G1 X124.897 Y96.826 E8.33468
G1 X125.198 Y96.996 E8.34826
G1 X125.823 Y97.362 E8.37672
G1 X126.162 Y97.569 E8.39232
G1 X126.606 Y97.855 E8.41307
G1 X126.754 Y97.953 E8.42005
G1 X127.215 Y98.268 E8.44198
G1 X127.985 Y98.825 E8.47932
G1 X128.328 Y99.084 E8.49621
G1 X128.487 Y99.209 E8.50415
G1 X128.791 Y99.457 E8.51957
G1 X129.131 Y99.745 E8.53707
G1 X129.31 Y99.9 E8.54638
G1 X129.791 Y100.326 E8.57162
G1 X130.046 Y100.56 E8.58522
G1 X130.444 Y100.936 E8.60673
G1 X130.896 Y101.389 E8.63187
G1 X131.378 Y101.902 E8.65953
G1 X131.629 Y102.178 E8.67418
G1 X132.054 Y102.663 E8.69952
G1 X132.238 Y102.879 E8.71067
G1 X132.498 Y103.192 E8.72665
G1 X132.814 Y103.591 E8.74665
G1 X133.172 Y104.066 E8.77002
G1 X133.354 Y104.315 E8.78214
G1 X133.525 Y104.556 E8.79375
G1 X133.707 Y104.82 E8.80634
G1 X133.924 Y105.146 E8.82173
G1 X134.111 Y105.438 E8.83535
G1 X134.532 Y106.117 E8.86674
G1 X134.836 Y106.639 E8.89048
G1 X134.915 Y106.784 E8.89696
G1 X135.323 Y107.616 E8.93337
G1 X135.713 Y108.649 E8.97675
G1 X135.778 Y108.852 E8.98513
G1 X136.038 Y109.817 E9.02439
G1 X136.101 Y110.103 E9.0359
G1 X136.262 Y111.017 E9.07236
G1 X136.342 Y111.94 E9.10876
G1 X136.345 Y112.838 E9.14404
G1 X136.334 Y113.118 E9.15505
G1 X136.206 Y114.402 E9.20575
G1 X136.197 Y114.458 E9.20797
G1 X136.01 Y115.366 E9.2444
G1 X135.887 Y115.818 E9.2628
G1 X135.815 Y116.06 E9.27272
G1 X135.512 Y116.936 E9.30914
G1 X135.241 Y117.564 E9.33601
G1 X135.148 Y117.762 E9.3446
G1 X134.596 Y118.788 E9.39038
G1 X134.257 Y119.344 E9.41596
G1 X134.009 Y119.733 E9.43409
G1 X133.815 Y120.021 E9.44773
G1 X133.479 Y120.51 E9.47104
G1 X133.285 Y120.783 E9.4842
G1 X132.974 Y121.204 E9.50476
G1 X132.87 Y121.341 E9.51152
G1 X132.659 Y121.61 E9.52495
G1 X132.321 Y122.027 E9.54604
G1 X132.167 Y122.213 E9.55553
G1 X131.943 Y122.477 E9.56913
G1 X131.715 Y122.738 E9.58275
G1 X131.535 Y122.937 E9.59329
G1 X131.297 Y123.193 E9.60702
G1 X130.902 Y123.604 E9.62942
G1 X130.493 Y124.018 E9.65228
G1 X130.077 Y124.417 E9.67493
G1 X129.527 Y124.917 E9.70413
G1 X129.247 Y125.164 E9.7188
G1 X128.919 Y125.442 E9.7357
G1 X128.531 Y125.755 E9.75528
G1 X128.025 Y126.145 E9.78038
G1 X127.783 Y126.326 E9.79225
G1 X127.413 Y126.595 E9.81023
G1 X127.126 Y126.797 E9.82402
G1 X126.576 Y127.17 E9.85013
G1 X126.104 Y127.472 E9.87214
G1 X125.626 Y127.761 E9.89409
G1 X125.25 Y127.98 E9.91118
G1 X124.57 Y128.354 E9.94167
G1 X124.276 Y128.51 E9.95475
G1 X123.954 Y128.672 E9.96891
G1 X123.504 Y128.889 E9.98854
G1 X123.158 Y129.048 E10.0035
G1 X122.689 Y129.254 E10.02362
G1 X122.369 Y129.389 E10.03727
G1 X121.888 Y129.582 E10.05763
G1 X121.607 Y129.69 E10.06946
G1 X121.065 Y129.89 E10.09216
G1 X120.63 Y130.04 E10.11023
G1 X120.11 Y130.207 E10.13169
G1 X119.682 Y130.335 E10.14924
G1 X119.247 Y130.455 E10.16697
G1 X118.87 Y130.551 E10.18226
G1 X118.238 Y130.701 E10.20778
G1 X117.948 Y130.766 E10.21945
G1 X117.511 Y130.857 E10.23699
G1 X117.131 Y130.929 E10.25219
G1 X116.628 Y131.015 E10.27224
G1 X116.189 Y131.083 E10.28969
G1 X115.956 Y131.116 E10.29893
G1 X115.597 Y131.162 E10.31315
G1 X115.329 Y131.193 E10.32375
G1 X114.842 Y131.243 E10.34299
G1 X114.357 Y131.282 E10.3621
G1 X113.693 Y131.318 E10.38823
G1 X113.217 Y131.334 E10.40694
G1 X112.603 Y131.344 E10.43107
G1 X112.093 Y131.34 E10.45111
G1 X111.292 Y131.315 E10.48259
G1 X110.988 Y131.301 E10.49455
G1 X88.091 Y129.908 E11.3958
G1 X87.656 Y129.875 E11.41294
G1 X87.297 Y129.842 E11.4271
G1 X86.832 Y129.791 E11.44548
G1 X85.916 Y129.65 E11.4819
G1 X85.056 Y129.443 E11.51665
G1 X84.786 Y129.366 E11.52768
G1 X83.906 Y129.073 E11.56412
G1 X83.327 Y128.833 E11.58874
G1 X83.129 Y128.744 E11.59727
G1 X81.913 Y128.101 E11.65132
G1 X81.724 Y127.985 E11.66003
G1 X80.955 Y127.466 E11.69648
G1 X80.47 Y127.085 E11.72071
G1 X80.303 Y126.946 E11.72925
G1 X79.617 Y126.323 E11.76565
G1 X79.072 Y125.742 E11.79695
G1 X78.857 Y125.495 E11.80982
G1 X78.279 Y124.77 E11.84625
G1 X77.731 Y123.94 E11.88532
G1 X77.613 Y123.742 E11.89438
G1 X77.173 Y122.926 E11.9308
G1 X76.866 Y122.231 E11.96065
G1 X76.734 Y121.901 E11.97462
G1 X76.427 Y121.027 E12.01101
G1 X76.145 Y119.869 E12.05784
G1 X76.089 Y119.567 E12.0699
G1 X75.96 Y118.649 E12.10632
G1 X75.92 Y118.1 E12.12795
G1 X75.911 Y117.904 E12.13566
G1 X75.902 Y117.631 E12.14639
G1 X75.879 Y116.509 E12.19048
G1 X75.877 Y116.288 E12.19917
G1 X75.879 Y108.123 E12.51996
G1 X75.887 Y107.558 E12.54216
G1 X75.897 Y107.224 E12.55529
G1 X75.909 Y106.959 E12.56571
G1 X76.02 Y105.829 E12.61032
G1 X76.053 Y105.612 E12.61894
G1 X76.285 Y104.492 E12.66388
G1 X76.34 Y104.283 E12.67237
G1 X76.696 Y103.177 E12.71802
G1 X76.758 Y103.015 E12.72483
G1 X77.319 Y101.786 E12.77791
G1 X77.426 Y101.586 E12.78682
G1 X77.898 Y100.788 E12.82325
G1 X78.245 Y100.288 E12.84716
G1 X78.409 Y100.065 E12.85804
G1 X78.99 Y99.343 E12.89445
G1 X79.807 Y98.507 E12.94037
G1 X80.093 Y98.245 E12.95561
G1 X80.803 Y97.649 E12.99203
G0 F9000 X81.125 Y98.033
G1 F2100 X82.217 Y97.303 E13.04364
G1 X82.469 Y97.157 E13.05508
G1 X83.271 Y96.738 E13.09063
G1 X83.823 Y96.5 E13.11425
G1 X84.042 Y96.413 E13.1235
G1 X85.292 Y96.007 E13.17514
G1 X85.488 Y95.957 E13.18309
G1 X86.547 Y95.746 E13.22551
G1 X86.712 Y95.722 E13.23206
G1 X87.424 Y95.643 E13.26021
G1 X88.315 Y95.578 E13.29531
G1 X110.663 Y94.221 E14.17494
G1 X111.415 Y94.185 E14.20452
G1 X111.671 Y94.176 E14.21459
G1 X112.459 Y94.158 E14.24556
G1 X112.853 Y94.156 E14.26104
G1 X113.255 Y94.166 E14.27683
G1 X113.751 Y94.187 E14.29634
G1 X114.051 Y94.204 E14.30814
G1 X114.664 Y94.248 E14.33229
G1 X115.04 Y94.282 E14.34712
G1 X115.499 Y94.332 E14.36526
G1 X115.797 Y94.369 E14.37706
G1 X116.208 Y94.426 E14.39336
G1 X116.52 Y94.474 E14.40577
G1 X117.137 Y94.579 E14.43035
G1 X117.522 Y94.652 E14.44575
G1 X117.827 Y94.716 E14.45799
G1 X118.127 Y94.784 E14.47008
G1 X118.359 Y94.84 E14.47946
G1 X118.632 Y94.91 E14.49053
G1 X119.626 Y95.179 E14.53099
G1 X120.053 Y95.305 E14.54848
G1 X120.44 Y95.428 E14.56443
G1 X120.689 Y95.51 E14.57473
G1 X120.972 Y95.608 E14.5865
G1 X121.399 Y95.764 E14.60436
G1 X121.956 Y95.981 E14.62784
G1 X122.418 Y96.174 E14.64752
G1 X123.067 Y96.465 E14.67546
G1 X123.32 Y96.583 E14.68643
G1 X123.725 Y96.778 E14.70409
G1 X124.07 Y96.951 E14.71925
G1 X124.335 Y97.089 E14.73099
G1 X124.659 Y97.265 E14.74548
G1 X124.946 Y97.427 E14.75842
G1 X125.571 Y97.793 E14.78688
G1 X125.894 Y97.99 E14.80175
G1 X126.103 Y98.123 E14.81148
G1 X126.482 Y98.372 E14.82929
G1 X126.922 Y98.673 E14.85024
G1 X127.692 Y99.23 E14.88758
G1 X128.019 Y99.477 E14.90368
G1 X128.178 Y99.602 E14.91162
G1 X128.468 Y99.839 E14.92634
G1 X128.808 Y100.127 E14.94384
G1 X128.979 Y100.275 E14.95273
G1 X129.46 Y100.701 E14.97797
G1 X129.703 Y100.923 E14.9909
G1 X130.101 Y101.299 E15.01242
G1 X130.532 Y101.731 E15.03639
G1 X131.014 Y102.244 E15.06405
G1 X131.253 Y102.508 E15.07804
G1 X131.678 Y102.993 E15.10337
G1 X131.854 Y103.199 E15.11402
G1 X132.114 Y103.512 E15.13001
G1 X132.415 Y103.892 E15.14905
G1 X132.773 Y104.367 E15.17242
G1 X132.946 Y104.605 E15.18398
G1 X133.117 Y104.846 E15.19559
G1 X133.291 Y105.097 E15.20759
G1 X133.508 Y105.423 E15.22298
G1 X133.686 Y105.702 E15.23598
G1 X134.107 Y106.381 E15.26737
G1 X134.397 Y106.878 E15.28997
G1 X134.476 Y107.023 E15.29646
G1 X134.873 Y107.836 E15.33201
G1 X135.237 Y108.801 E15.37253
G1 X135.302 Y109.004 E15.3809
G1 X135.55 Y109.925 E15.41838
