;FLAVOR:Marlin
;TIME:280
;Filament used: 0.0932836m
;Layer height: 0.2
;MINX:92.649
;MINY:95.352
;MINZ:0.2
;MAXX:120.066
;MAXY:129.669
;MAXZ:10.6
;POSTPROCESSED
;Generated with Cura_SteamEngine 4.13.1
;
;

M82 ;absolute extrusion mode
; Ender 3 Custom Start G-code
M117 Getting the bed up to temp!
M140 S50 ; Set Heat Bed temperature
M190 S50 ; Wait for Heat Bed temperature
M117 Pre-heating the extruder!
M104 S160; start warming extruder to 160
G28 ; Home all axes
M117 Auto bed-level GO!
G29 ; Auto bed-level (BL-Touch)
G92 E0 ; Reset Extruder
M117 Getting the extruder up to temp!
M104 S210 ; Set Extruder temperature
M109 S210 ; Wait for Extruder temperature
G1 Z2.0 F3000 ; move z up little to prevent scratching of surface
G1 X0.1 Y20 Z0.3 F5000.0 ; move to start-line position
M117 LET THE PURGE BEGIN!
G1 X0.1 Y200.0 Z0.3 F1500.0 E15 ; draw 1st line
G1 X0.4 Y200.0 Z0.3 F5000.0 ; move to side a little
G1 X0.4 Y20 Z0.3 F1500.0 E30 ; draw 2nd line
G92 E0 ; reset extruder
G1 Z1.0 F3000 ; move z up little to prevent scratching of surface
G1 X5 Y20 Z0.3 F5000.0 ; Move over to prevent blob squish
M117 Autobots! Roll Out!
; End of custom start GCode
G92 E0
G92 E0
G1 F2100 E-1.5
;LAYER_COUNT:53
;LAYER:0
M107
G0 F6000 X96.644 Y99.303 Z0.2
;TYPE:SKIRT
G1 F2100 E0
G1 F1200 X97.323 Y98.657 E0.03117
G1 X98.086 Y98.049 E0.06362
G1 X98.537 Y97.721 E0.08217
G1 X99.318 Y97.202 E0.11336
G1 X100.088 Y96.778 E0.14259
G1 X100.298 Y96.673 E0.1504
G1 X100.787 Y96.444 E0.16836
G1 X100.912 Y96.389 E0.1729
G1 X101.786 Y96.048 E0.20411
G1 X102.266 Y95.896 E0.22085
G1 X102.575 Y95.806 E0.23156
G1 X103.486 Y95.582 E0.26276
G1 X104.412 Y95.437 E0.29394
G1 X105.446 Y95.369 E0.3284
G1 X106.306 Y95.353 E0.35701
G1 X106.68 Y95.352 E0.36945
G1 X107.201 Y95.36 E0.38678
G1 X108.137 Y95.415 E0.41796
G1 X109.065 Y95.549 E0.44915
G1 X109.825 Y95.719 E0.47505
G1 X110.065 Y95.782 E0.4833
G1 X110.961 Y96.059 E0.5145
G1 X112.087 Y96.532 E0.55512
G1 X112.582 Y96.773 E0.57343
G1 X113.597 Y97.335 E0.61202
G1 X113.645 Y97.365 E0.6139
G1 X114.25 Y97.772 E0.63815
G1 X114.512 Y97.961 E0.6489
G1 X115.249 Y98.542 E0.68011
G1 X115.855 Y99.104 E0.7076
G1 X116.103 Y99.351 E0.71924
G1 X116.732 Y100.048 E0.75047
G1 X117.298 Y100.795 E0.78164
G1 X117.704 Y101.424 E0.80654
G1 X118.067 Y102.032 E0.83009
G1 X118.213 Y102.285 E0.83981
G1 X118.532 Y102.853 E0.86148
G1 X118.956 Y103.689 E0.89265
G1 X119.307 Y104.559 E0.92386
G1 X119.525 Y105.243 E0.94773
G1 X119.587 Y105.462 E0.9553
G1 X119.804 Y106.374 E0.98648
G1 X119.946 Y107.339 E1.01892
G1 X119.996 Y107.828 E1.03527
G1 X120.052 Y109.082 E1.07702
G1 X120.041 Y109.891 E1.10393
G1 X120.006 Y111.197 E1.14739
G1 X120.01 Y113.732 E1.2317
G1 X120.062 Y115.569 E1.29282
G1 X120.066 Y115.906 E1.30403
G1 X120.04 Y116.81 E1.33411
G1 X120.019 Y117.108 E1.34405
G1 X119.987 Y117.471 E1.35617
G1 X119.968 Y117.654 E1.36229
G1 X119.832 Y118.582 E1.39348
G1 X119.684 Y119.245 E1.41608
G1 X119.63 Y119.456 E1.42332
G1 X119.358 Y120.354 E1.45453
G1 X119.012 Y121.226 E1.48573
G1 X118.608 Y122.036 E1.51584
G1 X118.185 Y122.804 E1.545
G1 X117.997 Y123.132 E1.55758
G1 X117.722 Y123.593 E1.57543
G1 X117.207 Y124.378 E1.60666
G1 X116.628 Y125.115 E1.63783
G1 X116.1 Y125.689 E1.66377
G1 X115.934 Y125.857 E1.67162
G1 X115.247 Y126.496 E1.70283
G1 X114.639 Y126.978 E1.72864
G1 X114.456 Y127.113 E1.7362
G1 X113.978 Y127.446 E1.75557
G1 X113.764 Y127.587 E1.7641
G1 X112.631 Y128.241 E1.80761
G1 X112.415 Y128.349 E1.81564
G1 X111.918 Y128.582 E1.8339
G1 X111.795 Y128.636 E1.83837
G1 X110.921 Y128.976 E1.86956
G1 X110.449 Y129.125 E1.88602
G1 X110.14 Y129.215 E1.89672
G1 X109.229 Y129.439 E1.92793
G1 X108.303 Y129.584 E1.9591
G1 X107.269 Y129.652 E1.99357
G1 X106.409 Y129.668 E2.02218
G1 X106.055 Y129.669 E2.03395
G1 X105.539 Y129.662 E2.05111
G1 X104.602 Y129.609 E2.08233
G1 X103.674 Y129.477 E2.1135
G1 X103.008 Y129.331 E2.13618
G1 X102.805 Y129.28 E2.14314
G1 X101.906 Y129.013 E2.17433
G1 X101.161 Y128.727 E2.20088
G1 X101.03 Y128.671 E2.20561
G1 X100.523 Y128.438 E2.22417
G1 X100.118 Y128.24 E2.23917
G1 X99.009 Y127.617 E2.28147
G1 X98.956 Y127.583 E2.28357
G1 X98.457 Y127.243 E2.30365
G1 X98.234 Y127.082 E2.3128
G1 X97.498 Y126.501 E2.34399
G1 X97.019 Y126.064 E2.36555
G1 X96.795 Y125.847 E2.37593
G1 X96.15 Y125.166 E2.40712
G1 X95.565 Y124.433 E2.43832
G1 X94.998 Y123.575 E2.47252
G1 X94.621 Y122.942 E2.49703
G1 X94.477 Y122.692 E2.50662
G1 X94.172 Y122.148 E2.52736
G1 X93.749 Y121.312 E2.55853
G1 X93.398 Y120.442 E2.58973
G1 X93.166 Y119.704 E2.61546
G1 X93.117 Y119.527 E2.62157
G1 X92.905 Y118.613 E2.65277
G1 X92.778 Y117.739 E2.68215
G1 X92.722 Y117.205 E2.70001
G1 X92.663 Y115.922 E2.74273
G1 X92.674 Y115.118 E2.76947
G1 X92.708 Y113.848 E2.81172
G1 X92.704 Y111.334 E2.89534
G1 X92.659 Y109.822 E2.94565
G1 X92.649 Y109.195 E2.96651
G1 X92.676 Y108.231 E2.99858
G1 X92.707 Y107.8 E3.01296
G1 X92.814 Y106.868 E3.04416
G1 X92.9 Y106.395 E3.06015
G1 X92.957 Y106.115 E3.06965
G1 X93.183 Y105.205 E3.10084
G1 X93.486 Y104.317 E3.13205
G1 X93.863 Y103.458 E3.16325
G1 X94.104 Y102.996 E3.18058
G1 X94.569 Y102.153 E3.2126
G1 X94.764 Y101.813 E3.22564
G1 X95.006 Y101.409 E3.2413
G1 X95.522 Y100.626 E3.27249
G1 X96.103 Y99.89 E3.30368
G1 X96.531 Y99.42 E3.32482
G1 X96.644 Y99.303 E3.33023
G0 F6000 X96.931 Y99.581
G1 F1200 X97.599 Y98.947 E3.36086
G1 X98.321 Y98.372 E3.39156
G1 X98.772 Y98.044 E3.41011
G1 X99.54 Y97.536 E3.44073
G1 X100.267 Y97.136 E3.46833
G1 X100.477 Y97.031 E3.47614
G1 X100.948 Y96.81 E3.49344
G1 X101.073 Y96.755 E3.49799
G1 X101.931 Y96.421 E3.52861
G1 X102.378 Y96.28 E3.5442
G1 X102.687 Y96.19 E3.5549
G1 X103.581 Y95.971 E3.58552
G1 X104.491 Y95.831 E3.61614
G1 X105.454 Y95.769 E3.64824
G1 X106.314 Y95.753 E3.67684
G1 X106.674 Y95.752 E3.68882
G1 X107.195 Y95.76 E3.70615
G1 X108.114 Y95.814 E3.73677
G1 X109.025 Y95.948 E3.76739
G1 X109.723 Y96.106 E3.7912
G1 X109.963 Y96.169 E3.79945
G1 X110.843 Y96.442 E3.83009
G1 X111.912 Y96.892 E3.86867
G1 X112.407 Y97.133 E3.88698
G1 X113.385 Y97.674 E3.92416
G1 X113.433 Y97.704 E3.92604
G1 X114.016 Y98.096 E3.94941
G1 X114.278 Y98.285 E3.96015
G1 X115.001 Y98.856 E3.99079
G1 X115.572 Y99.387 E4.01673
G1 X115.83 Y99.644 E4.02884
G1 X116.445 Y100.329 E4.05946
G1 X116.998 Y101.064 E4.09005
G1 X117.36 Y101.629 E4.11237
G1 X117.723 Y102.237 E4.13592
G1 X117.864 Y102.48 E4.14526
G1 X118.183 Y103.048 E4.16693
G1 X118.599 Y103.87 E4.19757
G1 X118.941 Y104.724 E4.22817
G1 X119.14 Y105.352 E4.25008
G1 X119.202 Y105.571 E4.25765
G1 X119.414 Y106.466 E4.28824
G1 X119.548 Y107.38 E4.31897
G1 X119.598 Y107.869 E4.33532
G1 X119.652 Y109.077 E4.37554
G1 X119.641 Y109.88 E4.40225
G1 X119.606 Y111.186 E4.4457
G1 X119.61 Y113.744 E4.53078
G1 X119.662 Y115.574 E4.59167
G1 X119.666 Y115.911 E4.60288
G1 X119.641 Y116.782 E4.63186
G1 X119.62 Y117.08 E4.6418
G1 X119.589 Y117.43 E4.65348
G1 X119.57 Y117.613 E4.6596
G1 X119.436 Y118.523 E4.6902
G1 X119.296 Y119.146 E4.71143
G1 X119.242 Y119.357 E4.71868
G1 X118.975 Y120.238 E4.7493
G1 X118.633 Y121.093 E4.77992
G1 X118.258 Y121.843 E4.80781
G1 X117.835 Y122.611 E4.83697
G1 X117.653 Y122.927 E4.8491
G1 X117.378 Y123.388 E4.86696
G1 X116.873 Y124.158 E4.89758
G1 X116.302 Y124.881 E4.92823
G1 X115.815 Y125.408 E4.95209
G1 X115.649 Y125.576 E4.95995
G1 X114.974 Y126.202 E4.99057
G1 X114.402 Y126.656 E5.01486
G1 X114.219 Y126.791 E5.02242
G1 X113.758 Y127.112 E5.0411
G1 X113.544 Y127.253 E5.04963
G1 X112.452 Y127.883 E5.09156
G1 X112.236 Y127.991 E5.09959
G1 X111.757 Y128.216 E5.11719
G1 X111.634 Y128.27 E5.12166
G1 X110.337 Y128.741 E5.16755
G1 X110.028 Y128.831 E5.17826
G1 X109.134 Y129.05 E5.20887
G1 X108.224 Y129.19 E5.2395
G1 X107.261 Y129.252 E5.27159
G1 X106.401 Y129.268 E5.3002
G1 X106.06 Y129.269 E5.31154
G1 X105.544 Y129.262 E5.32871
G1 X104.625 Y129.21 E5.35932
G1 X103.714 Y129.078 E5.38994
G1 X103.105 Y128.944 E5.41068
G1 X102.902 Y128.893 E5.41764
G1 X102.02 Y128.63 E5.44825
G1 X101.318 Y128.359 E5.47328
G1 X101.187 Y128.303 E5.47802
G1 X100.698 Y128.079 E5.49591
G1 X100.293 Y127.881 E5.5109
G1 X99.225 Y127.28 E5.55166
G1 X99.172 Y127.246 E5.55375
G1 X98.691 Y126.918 E5.57312
G1 X98.468 Y126.757 E5.58227
G1 X97.746 Y126.186 E5.61288
G1 X97.298 Y125.776 E5.63308
G1 X97.074 Y125.559 E5.64345
G1 X96.441 Y124.891 E5.67406
G1 X95.868 Y124.17 E5.70469
G1 X95.342 Y123.37 E5.73654
G1 X94.965 Y122.737 E5.76104
G1 X94.826 Y122.497 E5.77027
G1 X94.521 Y121.953 E5.79101
G1 X94.106 Y121.131 E5.82164
G1 X93.764 Y120.276 E5.85227
G1 X93.551 Y119.597 E5.87593
G1 X93.502 Y119.42 E5.88204
G1 X93.295 Y118.523 E5.91266
G1 X93.176 Y117.698 E5.94038
G1 X93.12 Y117.164 E5.95824
G1 X93.063 Y115.927 E5.99943
G1 X93.074 Y115.129 E6.02597
G1 X93.108 Y113.859 E6.06823
G1 X93.104 Y111.321 E6.15264
G1 X93.059 Y109.816 E6.20272
G1 X93.049 Y109.189 E6.22358
G1 X93.075 Y108.26 E6.25449
G1 X93.106 Y107.829 E6.26886
G1 X93.292 Y106.475 E6.31432
G1 X93.349 Y106.195 E6.32382
G1 X93.572 Y105.301 E6.35447
G1 X93.871 Y104.431 E6.38507
G1 X94.454 Y103.189 E6.4307
G1 X94.919 Y102.346 E6.46272
G1 X95.108 Y102.019 E6.47528
G1 X95.35 Y101.615 E6.49095
G1 X95.857 Y100.846 E6.52158
G1 X96.428 Y100.125 E6.55217
G1 X96.818 Y99.698 E6.57141
G1 X96.931 Y99.581 E6.57682
G0 F6000 X97.219 Y99.859
G1 F1200 X97.875 Y99.238 E6.60686
G1 X98.557 Y98.696 E6.63584
G1 X99.008 Y98.368 E6.65438
G1 X99.761 Y97.87 E6.68441
G1 X100.445 Y97.494 E6.71037
G1 X100.655 Y97.389 E6.71818
G1 X101.109 Y97.176 E6.73486
G1 X101.234 Y97.121 E6.7394
G1 X102.49 Y96.664 E6.78385
G1 X102.799 Y96.574 E6.79456
G1 X103.676 Y96.36 E6.82458
G1 X104.569 Y96.225 E6.85462
G1 X105.461 Y96.169 E6.88435
G1 X106.321 Y96.153 E6.91296
G1 X106.668 Y96.152 E6.9245
G1 X107.189 Y96.16 E6.94183
G1 X108.09 Y96.214 E6.97185
G1 X108.983 Y96.347 E7.00188
G1 X109.622 Y96.493 E7.02368
G1 X109.862 Y96.556 E7.03193
G1 X110.724 Y96.824 E7.06196
G1 X111.737 Y97.251 E7.09852
G1 X112.232 Y97.492 E7.11683
G1 X113.173 Y98.013 E7.15261
G1 X113.221 Y98.043 E7.15449
G1 X113.782 Y98.421 E7.17699
G1 X114.044 Y98.61 E7.18773
G1 X114.753 Y99.17 E7.21778
G1 X115.289 Y99.67 E7.24216
G1 X115.556 Y99.936 E7.2547
G1 X116.158 Y100.609 E7.28473
G1 X116.698 Y101.333 E7.31477
G1 X117.017 Y101.834 E7.33453
G1 X117.38 Y102.442 E7.35808
G1 X117.515 Y102.676 E7.36706
G1 X117.834 Y103.244 E7.38873
G1 X118.241 Y104.051 E7.41879
G1 X118.575 Y104.89 E7.44883
G1 X118.755 Y105.461 E7.46874
G1 X118.817 Y105.68 E7.47631
G1 X119.025 Y106.559 E7.50635
G1 X119.15 Y107.42 E7.53529
G1 X119.2 Y107.909 E7.55164
G1 X119.252 Y109.072 E7.59036
G1 X119.241 Y109.87 E7.6169
G1 X119.206 Y111.169 E7.66013
G1 X119.21 Y113.712 E7.74471
G1 X119.259 Y115.401 E7.80091
G1 X119.266 Y115.916 E7.81804
G1 X119.242 Y116.754 E7.84592
G1 X119.221 Y117.052 E7.85586
G1 X119.191 Y117.388 E7.86708
G1 X119.172 Y117.571 E7.8732
G1 X119.04 Y118.465 E7.90325
G1 X118.909 Y119.047 E7.92309
G1 X118.855 Y119.258 E7.93034
G1 X118.592 Y120.122 E7.96038
G1 X118.254 Y120.96 E7.99043
G1 X117.907 Y121.65 E8.01612
G1 X117.484 Y122.418 E8.04528
G1 X117.31 Y122.722 E8.05693
G1 X117.035 Y123.183 E8.07478
G1 X116.538 Y123.938 E8.10485
G1 X115.977 Y124.645 E8.13487
G1 X115.531 Y125.127 E8.15671
G1 X115.365 Y125.295 E8.16456
G1 X114.702 Y125.909 E8.19462
G1 X114.164 Y126.334 E8.21742
G1 X113.981 Y126.469 E8.22499
G1 X113.538 Y126.778 E8.24295
G1 X113.324 Y126.919 E8.25147
G1 X112.274 Y127.525 E8.2918
G1 X112.058 Y127.633 E8.29983
G1 X111.596 Y127.85 E8.31681
G1 X111.473 Y127.904 E8.32127
G1 X110.225 Y128.357 E8.36543
G1 X109.916 Y128.447 E8.37614
G1 X109.039 Y128.661 E8.40616
G1 X108.146 Y128.796 E8.4362
G1 X107.254 Y128.852 E8.46593
G1 X106.394 Y128.868 E8.49454
G1 X106.066 Y128.869 E8.50544
G1 X105.55 Y128.862 E8.52261
G1 X104.648 Y128.81 E8.55266
G1 X103.755 Y128.678 E8.58268
G1 X103.203 Y128.556 E8.60149
G1 X103 Y128.505 E8.60845
G1 X102.134 Y128.246 E8.63851
G1 X101.476 Y127.991 E8.66198
G1 X101.345 Y127.935 E8.66672
G1 X100.874 Y127.72 E8.68394
G1 X100.469 Y127.522 E8.69893
G1 X99.441 Y126.943 E8.73818
G1 X99.388 Y126.909 E8.74027
G1 X98.925 Y126.594 E8.7589
G1 X98.702 Y126.433 E8.76804
G1 X97.994 Y125.872 E8.79809
G1 X97.576 Y125.489 E8.81695
G1 X97.352 Y125.272 E8.82732
G1 X96.732 Y124.616 E8.85734
G1 X96.172 Y123.907 E8.88739
G1 X95.686 Y123.165 E8.91689
G1 X95.309 Y122.532 E8.9414
G1 X95.175 Y122.301 E8.95028
G1 X94.87 Y121.757 E8.97102
G1 X94.464 Y120.951 E9.00104
G1 X94.13 Y120.111 E9.0311
G1 X93.937 Y119.49 E9.05273
G1 X93.888 Y119.313 E9.05884
G1 X93.686 Y118.433 E9.08887
G1 X93.574 Y117.656 E9.11498
G1 X93.518 Y117.122 E9.13284
G1 X93.463 Y115.932 E9.17246
G1 X93.474 Y115.14 E9.19881
G1 X93.508 Y113.869 E9.2411
G1 X93.504 Y111.309 E9.32624
G1 X93.459 Y109.81 E9.37612
G1 X93.449 Y109.183 E9.39698
G1 X93.474 Y108.288 E9.42676
G1 X93.505 Y107.857 E9.44113
G1 X93.684 Y106.554 E9.48487
G1 X93.741 Y106.274 E9.49438
G1 X93.96 Y105.398 E9.52441
G1 X94.256 Y104.545 E9.55444
G1 X94.805 Y103.382 E9.59722
G1 X95.27 Y102.539 E9.62924
G1 X95.451 Y102.225 E9.64129
G1 X95.693 Y101.821 E9.65695
G1 X96.191 Y101.067 E9.68701
G1 X96.753 Y100.361 E9.71702
G1 X97.106 Y99.976 E9.7344
G1 X97.219 Y99.859 E9.73981
G1 F2100 E8.23981
;MESH:nut_job_20160810-16166-1av44-0.stl(2)
G0 F6000 X104.017 Y106.533
G0 X104.788 Y107.295
G0 X104.442 Y108.62
G0 X104.44 Y109.299
G0 X105.119 Y110.458
G0 X105.696 Y110.767
G0 X106.964 Y110.973
;TYPE:WALL-INNER
G1 F2100 E9.73981
G1 F1200 X105.737 Y110.973 E9.78062
G1 X105.63 Y110.944 E9.7843
G1 X105.295 Y110.787 E9.79661
G1 X105.01 Y110.59 E9.80813
G1 X104.913 Y110.496 E9.81262
G1 X104.301 Y109.438 E9.85328
G1 X104.272 Y109.33 E9.857
G1 X104.241 Y108.957 E9.86944
G1 X104.273 Y108.592 E9.88163
G1 X104.301 Y108.483 E9.88537
G1 X104.913 Y107.425 E9.92603
G1 X104.997 Y107.341 E9.92998
G1 X105.291 Y107.135 E9.94192
G1 X105.633 Y106.976 E9.95446
G1 X105.737 Y106.948 E9.95804
G1 X106.962 Y106.948 E9.99879
G1 X107.07 Y106.978 E10.00252
G1 X107.408 Y107.135 E10.01491
G1 X107.698 Y107.336 E10.02665
G1 X107.792 Y107.431 E10.03109
G1 X108.4 Y108.483 E10.0715
G1 X108.429 Y108.591 E10.07522
G1 X108.46 Y108.964 E10.08767
G1 X108.428 Y109.329 E10.09986
G1 X108.4 Y109.438 E10.1036
G1 X107.788 Y110.496 E10.14425
G1 X107.705 Y110.579 E10.14816
G1 X107.406 Y110.787 E10.16027
G1 X107.07 Y110.944 E10.17261
G1 X106.964 Y110.973 E10.17626
G0 F6000 X107.016 Y111.373
;TYPE:WALL-OUTER
G1 F1200 X105.684 Y111.373 E10.22057
G1 X105.492 Y111.321 E10.22718
G1 X105.093 Y111.134 E10.24184
G1 X104.759 Y110.903 E10.25535
G1 X104.595 Y110.744 E10.26294
G1 X103.929 Y109.592 E10.3072
G1 X103.876 Y109.396 E10.31395
G1 X103.839 Y108.961 E10.32847
G1 X103.878 Y108.523 E10.3431
G1 X103.928 Y108.33 E10.34973
G1 X104.594 Y107.179 E10.39396
G1 X104.737 Y107.034 E10.40073
G1 X105.093 Y106.786 E10.41516
G1 X105.492 Y106.6 E10.42981
G1 X105.685 Y106.548 E10.43645
G1 X107.017 Y106.548 E10.48076
G1 X107.206 Y106.6 E10.48728
G1 X107.605 Y106.785 E10.5019
G1 X107.96 Y107.032 E10.51629
G1 X108.111 Y107.185 E10.52344
G1 X108.772 Y108.329 E10.56738
G1 X108.825 Y108.525 E10.57414
G1 X108.862 Y108.959 E10.58862
G1 X108.823 Y109.398 E10.60328
G1 X108.773 Y109.591 E10.60991
G1 X108.107 Y110.742 E10.65414
G1 X107.964 Y110.887 E10.66092
G1 X107.608 Y111.134 E10.67533
G1 X107.209 Y111.321 E10.68998
G1 X107.016 Y111.373 E10.69663
G0 F6000 X106.959 Y110.937
G0 X106.911 Y110.583
;TYPE:SKIN
G1 F1200 X105.786 Y110.583 E10.73405
G1 X105.767 Y110.578 E10.7347
G1 X105.493 Y110.45 E10.74476
G1 X105.255 Y110.285 E10.75439
G1 X105.221 Y110.253 E10.75595
G1 X104.664 Y109.288 E10.793
G1 X104.657 Y109.262 E10.7939
G1 X104.631 Y108.958 E10.80405
G1 X104.657 Y108.665 E10.81383
G1 X104.667 Y108.629 E10.81507
G1 X105.226 Y107.662 E10.85222
G1 X105.241 Y107.647 E10.85293
G1 X105.493 Y107.47 E10.86317
G1 X105.767 Y107.343 E10.87322
G1 X105.786 Y107.338 E10.87387
G1 X106.909 Y107.338 E10.91122
G1 X106.941 Y107.347 E10.91233
G1 X107.212 Y107.473 E10.92227
G1 X107.445 Y107.635 E10.93171
G1 X107.48 Y107.67 E10.93335
G1 X108.036 Y108.63 E10.97025
G1 X108.044 Y108.659 E10.97125
G1 X108.07 Y108.963 E10.9814
G1 X108.044 Y109.256 E10.99118
G1 X108.034 Y109.292 E10.99243
G1 X107.475 Y110.259 E11.02957
