;FLAVOR:Marlin
;TIME:10033
;Filament used: 6.26698m
;Layer height: 0.2
;MINX:82.006
;MINY:87.44
;MINZ:0.2
;MAXX:146.826
;MAXY:137.561
;MAXZ:101.4
;POSTPROCESSED
;Generated with Cura_SteamEngine 4.12.1
;
;
M82 ;absolute extrusion mode
; Ender 3 Custom Start G-code
M117 Getting the bed up to temp!
M140 S60 ; Set Heat Bed temperature
M190 S60 ; Wait for Heat Bed temperature
M117 Pre-heating the extruder!
M104 S225; start warming extruder to 160
G28 ; Home all axes
M117 Auto bed-level GO!
G29 ; Auto bed-level (BL-Touch)
G92 E0 ; Reset Extruder
M117 Getting the extruder up to temp!
M104 S225 ; Set Extruder temperature
M109 S225 ; Wait for Extruder temperature
G1 Z2.0 F3000 ; move z up little to prevent scratching of surface
G1 X0.1 Y20 Z0.3 F5000.0 ; move to start-line position
M117 LET THE PURGE BEGIN!
G1 X0.1 Y200.0 Z0.3 F1500.0 E15 ; draw 1st line
G1 X0.4 Y200.0 Z0.3 F5000.0 ; move to side a little
G1 X0.4 Y20 Z0.3 F1500.0 E30 ; draw 2nd line
G92 E0 ; reset extruder
G1 Z1.0 F3000 ; move z up little to prevent scratching of surface
G1 X5 Y20 Z0.3 F5000.0 ; Move over to prevent blob squish
; SET_GCODE_OFFSET Z=+.075
M117 Autobots! Roll Out!
; End of custom start GCode
G92 E0
G92 E0
G1 F2700 E-5
;LAYER_COUNT:507
;LAYER:0
M107
G0 F9000 X85.159 Y91.056 Z0.2
;TYPE:SKIRT
G1 F2700 E0
G1 F2100 X86.057 Y90.228 E0.04063
G1 X86.239 Y90.078 E0.04847
G1 X86.987 Y89.513 E0.07965
G1 X87.781 Y89.014 E0.11084
G1 X88.615 Y88.584 E0.14205
G1 X89.66 Y88.164 E0.17951
G1 X89.887 Y88.086 E0.18749
G1 X90.787 Y87.819 E0.21871
G1 X91.705 Y87.63 E0.24989
G1 X92.317 Y87.549 E0.27042
G1 X92.594 Y87.52 E0.27968
G1 X93.792 Y87.46 E0.31958
G1 X93.998 Y87.461 E0.32643
G1 X94.957 Y87.508 E0.35837
G1 X95.206 Y87.531 E0.36668
G1 X95.982 Y87.63 E0.3927
G1 X96.51 Y87.717 E0.4105
G1 X96.834 Y87.776 E0.42145
G1 X96.997 Y87.808 E0.42698
G1 X99.55 Y88.275 E0.5133
G1 X102.058 Y88.661 E0.5977
G1 X104.532 Y88.969 E0.68062
G1 X107.046 Y89.212 E0.76463
G1 X109.578 Y89.384 E0.84903
G1 X112.076 Y89.483 E0.93218
G1 X114.595 Y89.511 E1.01597
G1 X117.087 Y89.468 E1.09887
G1 X119.644 Y89.352 E1.184
G1 X122.122 Y89.169 E1.26664
G1 X124.648 Y88.911 E1.3511
G1 X127.129 Y88.586 E1.43432
G1 X129.629 Y88.186 E1.51853
G1 X131.73 Y87.796 E1.5896
G1 X131.868 Y87.768 E1.59428
G1 X132.247 Y87.699 E1.6071
G1 X132.717 Y87.622 E1.62294
G1 X133.494 Y87.523 E1.64899
G1 X133.855 Y87.49 E1.66105
G1 X134.614 Y87.447 E1.68633
G1 X134.932 Y87.44 E1.69691
G1 X135.87 Y87.459 E1.72812
G1 X137.04 Y87.596 E1.7673
G1 X137.313 Y87.643 E1.77651
G1 X138.23 Y87.842 E1.80772
G1 X139.126 Y88.118 E1.8389
G1 X139.945 Y88.446 E1.86824
G1 X140.157 Y88.541 E1.87597
G1 X140.996 Y88.96 E1.90716
G1 X141.796 Y89.45 E1.93837
G1 X142.551 Y90.006 E1.96955
G1 X143.256 Y90.624 E2.00073
G1 X143.906 Y91.3 E2.03193
G1 X144.497 Y92.029 E2.06314
G1 X145.222 Y93.144 E2.10737
G1 X145.38 Y93.422 E2.11801
G1 X145.809 Y94.256 E2.1492
G1 X146.164 Y95.124 E2.18039
G1 X146.445 Y96.019 E2.21159
G1 X146.648 Y96.935 E2.2428
G1 X146.772 Y97.864 E2.27397
G1 X146.809 Y98.45 E2.2935
G1 X146.812 Y98.531 E2.2962
G1 X146.807 Y99.469 E2.3274
G1 X146.747 Y100.201 E2.35182
G1 X146.598 Y101.485 E2.39482
G1 X146.511 Y102.148 E2.41706
G1 X146.259 Y104.604 E2.49917
G1 X146.073 Y107.117 E2.58298
G1 X145.956 Y109.674 E2.66812
G1 X145.913 Y112.166 E2.75102
G1 X145.939 Y114.651 E2.83367
G1 X146.039 Y117.207 E2.91875
G1 X146.208 Y119.702 E3.00192
G1 X146.45 Y122.226 E3.08626
G1 X146.736 Y124.533 E3.16358
G1 X146.765 Y124.8 E3.17251
G1 X146.826 Y125.736 E3.20371
G1 X146.816 Y126.516 E3.22965
G1 X146.806 Y126.724 E3.23658
G1 X146.721 Y127.658 E3.26777
G1 X146.557 Y128.582 E3.29898
G1 X146.315 Y129.488 E3.33017
G1 X145.996 Y130.37 E3.36137
G1 X145.604 Y131.222 E3.39256
G1 X145.313 Y131.752 E3.41267
G1 X145.21 Y131.928 E3.41946
G1 X144.702 Y132.717 E3.45067
G1 X144.129 Y133.459 E3.48185
G1 X143.495 Y134.15 E3.51304
G1 X142.804 Y134.784 E3.54423
G1 X142.061 Y135.357 E3.57544
G1 X141.273 Y135.865 E3.60662
G1 X140.462 Y136.295 E3.63715
G1 X140.163 Y136.438 E3.64817
G1 X139.3 Y136.807 E3.67939
G1 X138.41 Y137.1 E3.71056
G1 X137.068 Y137.39 E3.75622
G1 X136.844 Y137.424 E3.76376
G1 X135.925 Y137.525 E3.79451
G1 X135.88 Y137.528 E3.79601
G1 X134.653 Y137.541 E3.83682
G1 X134.098 Y137.516 E3.8553
G1 X132.804 Y137.38 E3.89857
G1 X132.525 Y137.334 E3.90798
G1 X132.214 Y137.279 E3.91848
G1 X131.545 Y137.149 E3.94115
G1 X128.992 Y136.689 E4.02743
G1 X126.537 Y136.318 E4.11001
G1 X124.018 Y136.011 E4.19441
G1 X121.52 Y135.776 E4.27786
G1 X119.008 Y135.613 E4.36159
G1 X116.485 Y135.52 E4.44556
G1 X113.956 Y135.498 E4.52968
G1 X111.439 Y135.547 E4.61341
G1 X108.954 Y135.667 E4.69616
G1 X106.426 Y135.86 E4.78049
G1 X103.925 Y136.123 E4.86413
G1 X101.418 Y136.458 E4.94825
G1 X98.98 Y136.855 E5.03041
G1 X97.497 Y137.142 E5.08065
G1 X96.522 Y137.319 E5.11361
G1 X96.078 Y137.386 E5.12854
G1 X95.504 Y137.461 E5.14779
G1 X94.33 Y137.551 E5.18696
G1 X93.891 Y137.561 E5.20156
G1 X92.953 Y137.543 E5.23277
G1 X91.839 Y137.416 E5.27006
G1 X91.592 Y137.375 E5.27838
G1 X90.674 Y137.182 E5.30959
G1 X89.776 Y136.911 E5.34078
G1 X88.904 Y136.565 E5.37199
G1 X88.442 Y136.346 E5.38899
G1 X88.196 Y136.222 E5.39815
G1 X87.377 Y135.764 E5.42936
G1 X86.6 Y135.239 E5.46055
G1 X85.871 Y134.649 E5.49175
G1 X85.195 Y133.999 E5.52294
G1 X84.576 Y133.294 E5.55414
G1 X84.189 Y132.783 E5.57546
G1 X84.065 Y132.609 E5.58257
G1 X83.554 Y131.823 E5.61375
G1 X83.111 Y130.996 E5.64495
G1 X82.741 Y130.134 E5.67615
G1 X82.445 Y129.244 E5.70735
G1 X82.256 Y128.475 E5.73369
G1 X82.242 Y128.408 E5.73596
G1 X82.089 Y127.483 E5.76715
G1 X82.016 Y126.548 E5.79834
G1 X82.039 Y125.345 E5.83836
G1 X82.065 Y124.994 E5.85007
G1 X82.116 Y124.478 E5.86731
G1 X82.404 Y122.11 E5.94665
G1 X82.642 Y119.553 E6.03207
G1 X82.801 Y117.081 E6.11445
G1 X82.892 Y114.559 E6.19839
G1 X82.912 Y112.035 E6.28234
G1 X82.86 Y109.512 E6.36628
G1 X82.738 Y107.014 E6.44946
G1 X82.544 Y104.49 E6.53365
G1 X82.214 Y101.447 E6.63546
G1 X82.083 Y100.397 E6.67065
G1 X82.006 Y99.462 E6.70186
G1 X82.01 Y98.524 E6.73305
G1 X82.163 Y97.133 E6.7796
G1 X82.218 Y96.819 E6.7902
G1 X82.419 Y95.903 E6.82139
G1 X82.697 Y95.007 E6.85259
G1 X83.051 Y94.139 E6.88377
G1 X83.477 Y93.303 E6.91498
G1 X83.973 Y92.507 E6.94617
G1 X84.535 Y91.757 E6.97735
G1 X85.159 Y91.056 E7.00856
G0 F9000 X85.529 Y91.25
G1 F2100 X86.311 Y90.537 E7.04376
G1 X86.493 Y90.387 E7.0516
G1 X87.229 Y89.833 E7.08224
G1 X88.009 Y89.345 E7.11284
G1 X88.829 Y88.926 E7.14347
G1 X89.79 Y88.542 E7.17789
G1 X90.017 Y88.464 E7.18587
G1 X90.9 Y88.203 E7.2165
G1 X91.802 Y88.02 E7.24711
G1 X92.358 Y87.947 E7.26576
G1 X92.635 Y87.918 E7.27503
G1 X93.79 Y87.86 E7.31349
G1 X93.996 Y87.861 E7.32034
G1 X94.92 Y87.906 E7.35111
G1 X95.169 Y87.929 E7.35943
G1 X95.917 Y88.025 E7.38451
G1 X96.445 Y88.112 E7.40231
G1 X96.757 Y88.168 E7.41285
G1 X96.927 Y88.201 E7.41861
G1 X99.489 Y88.67 E7.50524
G1 X102.018 Y89.059 E7.59034
G1 X104.479 Y89.366 E7.67283
G1 X107.014 Y89.611 E7.75754
G1 X109.536 Y89.782 E7.84161
G1 X112.091 Y89.883 E7.92666
G1 X114.598 Y89.911 E8.01005
G1 X117.113 Y89.868 E8.09371
G1 X119.653 Y89.753 E8.17828
G1 X122.159 Y89.568 E8.26185
G1 X124.704 Y89.307 E8.34694
G1 X127.172 Y88.984 E8.42973
G1 X129.732 Y88.575 E8.51596
G1 X131.719 Y88.205 E8.58318
G1 X131.946 Y88.16 E8.59088
G1 X132.311 Y88.093 E8.60322
G1 X132.781 Y88.016 E8.61906
G1 X133.53 Y87.921 E8.64417
G1 X133.891 Y87.888 E8.65623
G1 X134.623 Y87.847 E8.68061
G1 X134.941 Y87.84 E8.69119
G1 X135.861 Y87.859 E8.7218
G1 X136.972 Y87.991 E8.75901
G1 X137.245 Y88.038 E8.76822
G1 X138.145 Y88.233 E8.79885
G1 X139.024 Y88.506 E8.82947
G1 X139.782 Y88.811 E8.85664
G1 X139.994 Y88.906 E8.86437
G1 X140.817 Y89.318 E8.89498
G1 X141.601 Y89.801 E8.92561
G1 X142.34 Y90.35 E8.95623
G1 X143.029 Y90.96 E8.98683
G1 X143.662 Y91.629 E9.01747
G1 X144.235 Y92.349 E9.04807
G1 X144.875 Y93.341 E9.08734
G1 X145.033 Y93.619 E9.09797
G1 X145.452 Y94.439 E9.1286
G1 X145.799 Y95.292 E9.15923
G1 X146.071 Y96.171 E9.18983
G1 X146.265 Y97.071 E9.22045
G1 X146.381 Y97.984 E9.25106
G1 X146.41 Y98.465 E9.26709
G1 X146.413 Y98.546 E9.26979
G1 X146.407 Y99.466 E9.30039
G1 X146.35 Y100.155 E9.32338
G1 X146.201 Y101.433 E9.36617
G1 X146.119 Y102.057 E9.38711
G1 X145.858 Y104.604 E9.47226
G1 X145.672 Y107.105 E9.55568
G1 X145.556 Y109.647 E9.64031
G1 X145.513 Y112.164 E9.72404
G1 X145.539 Y114.671 E9.80743
G1 X145.639 Y117.214 E9.89207
G1 X145.809 Y119.731 E9.97598
G1 X146.054 Y122.282 E10.06122
G1 X146.338 Y124.576 E10.1381
G1 X146.367 Y124.843 E10.14703
G1 X146.427 Y125.762 E10.17766
G1 X146.417 Y126.497 E10.20211
G1 X146.407 Y126.705 E10.20904
G1 X146.323 Y127.622 E10.23967
G1 X146.159 Y128.528 E10.27029
G1 X145.918 Y129.416 E10.30089
G1 X145.6 Y130.28 E10.33151
G1 X145.209 Y131.114 E10.36215
G1 X144.968 Y131.55 E10.37872
G1 X144.865 Y131.726 E10.3855
G1 X144.365 Y132.5 E10.41615
G1 X143.801 Y133.227 E10.44675
G1 X143.176 Y133.903 E10.47737
G1 X142.494 Y134.522 E10.50801
G1 X141.761 Y135.079 E10.53863
G1 X140.983 Y135.571 E10.56924
G1 X140.289 Y135.935 E10.59531
G1 X139.99 Y136.078 E10.60633
G1 X139.143 Y136.438 E10.63694
G1 X138.268 Y136.724 E10.66756
G1 X137.008 Y136.995 E10.71043
G1 X136.784 Y137.029 E10.71796
G1 X135.898 Y137.126 E10.74761
G1 X135.853 Y137.129 E10.74911
G1 X134.671 Y137.141 E10.78842
G1 X134.116 Y137.116 E10.8069
G1 X132.869 Y136.986 E10.8486
G1 X132.59 Y136.94 E10.858
G1 X132.29 Y136.886 E10.86814
G1 X131.615 Y136.755 E10.89101
G1 X129.086 Y136.299 E10.97648
G1 X126.578 Y135.92 E11.06085
G1 X124.067 Y135.614 E11.14498
G1 X121.547 Y135.377 E11.22917
G1 X119.013 Y135.212 E11.31363
G1 X116.503 Y135.12 E11.39717
G1 X113.952 Y135.098 E11.48202
G1 X111.448 Y135.147 E11.56531
G1 X108.903 Y135.269 E11.65006
G1 X106.39 Y135.462 E11.73389
G1 X103.866 Y135.726 E11.81829
G1 X101.372 Y136.06 E11.90199
G1 X98.899 Y136.462 E11.98532
G1 X97.425 Y136.748 E12.03526
G1 X96.454 Y136.925 E12.06809
G1 X96.026 Y136.99 E12.08248
G1 X95.452 Y137.065 E12.10174
G1 X94.32 Y137.151 E12.1395
G1 X93.881 Y137.161 E12.1541
G1 X92.961 Y137.142 E12.18471
G1 X91.904 Y137.021 E12.22009
G1 X91.657 Y136.98 E12.22842
G1 X90.756 Y136.79 E12.25905
G1 X89.875 Y136.522 E12.28967
G1 X88.622 Y135.988 E12.33498
G1 X88.376 Y135.864 E12.34414
G1 X87.572 Y135.415 E12.37477
G1 X86.811 Y134.897 E12.40539
G1 X86.098 Y134.315 E12.436
G1 X85.437 Y133.674 E12.46662
G1 X84.835 Y132.977 E12.49725
G1 X84.515 Y132.551 E12.51498
G1 X84.391 Y132.377 E12.52208
G1 X83.889 Y131.604 E12.55274
G1 X83.457 Y130.792 E12.58333
G1 X83.097 Y129.944 E12.61397
G1 X82.812 Y129.069 E12.64458
G1 X82.647 Y128.393 E12.66772
G1 X82.633 Y128.326 E12.67
G1 X82.484 Y127.418 E12.7006
G1 X82.415 Y126.5 E12.73122
G1 X82.438 Y125.375 E12.76865
G1 X82.464 Y125.024 E12.78035
G1 X82.513 Y124.527 E12.79696
G1 X82.805 Y122.128 E12.87734
G1 X83.038 Y119.624 E12.96099
G1 X83.202 Y117.086 E13.04558
G1 X83.292 Y114.577 E13.12908
G1 X83.312 Y112.016 E13.21426
G1 X83.26 Y109.483 E13.29853
G1 X83.138 Y107 E13.38121
G1 X82.941 Y104.436 E13.46674
G1 X82.613 Y101.412 E13.56791
G1 X82.48 Y100.347 E13.60361
G1 X82.405 Y99.429 E13.63424
G1 X82.411 Y98.509 E13.66484
G1 X82.557 Y97.202 E13.70858
G1 X82.612 Y96.888 E13.71919
G1 X82.81 Y95.989 E13.7498
G1 X83.085 Y95.111 E13.78041
G1 X83.436 Y94.259 E13.81105
G1 X83.859 Y93.442 E13.84165
G1 X84.351 Y92.664 E13.87227
G1 X84.91 Y91.931 E13.90293
G1 X85.529 Y91.25 E13.93354
G0 F9000 X85.898 Y91.447
G1 F2100 X86.566 Y90.846 E13.96343
G1 X86.748 Y90.696 E13.97127
G1 X87.469 Y90.153 E14.00129
G1 X88.236 Y89.676 E14.03133
G1 X89.042 Y89.269 E14.06136
G1 X89.92 Y88.921 E14.09278
G1 X90.147 Y88.843 E14.10076
G1 X91.014 Y88.587 E14.13083
G1 X91.899 Y88.409 E14.16085
G1 X92.4 Y88.344 E14.17765
G1 X92.677 Y88.315 E14.18692
G1 X93.789 Y88.26 E14.22395
G1 X93.995 Y88.261 E14.2308
G1 X94.883 Y88.304 E14.26037
G1 X95.132 Y88.327 E14.26869
G1 X95.852 Y88.42 E14.29283
G1 X96.38 Y88.507 E14.31063
G1 X96.681 Y88.561 E14.3208
G1 X96.872 Y88.598 E14.32727
G1 X99.427 Y89.066 E14.41367
G1 X101.906 Y89.447 E14.49709
G1 X104.464 Y89.766 E14.58282
G1 X106.984 Y90.01 E14.66703
G1 X109.529 Y90.182 E14.75187
G1 X112.07 Y90.283 E14.83645
G1 X114.6 Y90.311 E14.92061
G1 X117.102 Y90.268 E15.00384
G1 X119.703 Y90.15 E15.09043
G1 X122.193 Y89.967 E15.17348
G1 X124.725 Y89.707 E15.25813
G1 X127.25 Y89.377 E15.34283
G1 X129.79 Y88.971 E15.42838
G1 X131.806 Y88.596 E15.49658
G1 X132.025 Y88.552 E15.50401
G1 X132.376 Y88.488 E15.51588
G1 X132.846 Y88.411 E15.53172
G1 X133.566 Y88.319 E15.55586
G1 X133.927 Y88.286 E15.56792
G1 X134.632 Y88.246 E15.59141
G1 X134.95 Y88.239 E15.60199
G1 X135.852 Y88.26 E15.63199
G1 X136.905 Y88.385 E15.66726
G1 X137.178 Y88.432 E15.67648
G1 X138.06 Y88.624 E15.7065
G1 X138.922 Y88.894 E15.73654
G1 X139.618 Y89.176 E15.76152
G1 X139.83 Y89.271 E15.76925
G1 X140.637 Y89.676 E15.79928
G1 X141.405 Y90.151 E15.82931
G1 X142.128 Y90.693 E15.85937
G1 X142.8 Y91.296 E15.8894
G1 X143.416 Y91.956 E15.91942
G1 X143.972 Y92.668 E15.94947
G1 X144.527 Y93.539 E15.98382
G1 X144.685 Y93.817 E15.99446
G1 X145.096 Y94.621 E16.02449
G1 X145.434 Y95.458 E16.05451
G1 X145.697 Y96.322 E16.08455
G1 X145.883 Y97.206 E16.1146
G1 X146.01 Y98.479 E16.15715
G1 X146.013 Y98.56 E16.15984
G1 X146.006 Y99.464 E16.18991
G1 X145.953 Y100.109 E16.21144
G1 X145.824 Y101.225 E16.2488
G1 X145.723 Y102 E16.2748
G1 X145.459 Y104.567 E16.36063
G1 X145.272 Y107.093 E16.44487
G1 X145.156 Y109.622 E16.52907
G1 X145.112 Y112.161 E16.61353
G1 X145.139 Y114.691 E16.69769
G1 X145.239 Y117.221 E16.7819
G1 X145.412 Y119.787 E16.86744
G1 X145.653 Y122.297 E16.95131
G1 X145.94 Y124.62 E17.02916
G1 X145.969 Y124.887 E17.03809
G1 X146.027 Y125.788 E17.06812
G1 X146.017 Y126.478 E17.09107
G1 X146.007 Y126.686 E17.098
G1 X145.924 Y127.585 E17.12803
G1 X145.761 Y128.473 E17.15805
G1 X145.521 Y129.344 E17.1881
G1 X145.205 Y130.19 E17.21814
G1 X144.622 Y131.348 E17.26126
G1 X144.519 Y131.524 E17.26804
G1 X144.029 Y132.282 E17.29806
G1 X143.474 Y132.995 E17.32812
G1 X142.858 Y133.655 E17.35814
G1 X142.185 Y134.258 E17.3882
G1 X141.462 Y134.799 E17.41823
G1 X140.694 Y135.275 E17.44828
G1 X140.117 Y135.574 E17.4699
G1 X139.818 Y135.717 E17.48092
G1 X138.987 Y136.07 E17.51095
G1 X138.128 Y136.348 E17.54098
G1 X136.948 Y136.599 E17.58111
G1 X136.724 Y136.633 E17.58864
G1 X135.871 Y136.726 E17.61718
G1 X135.826 Y136.729 E17.61868
G1 X134.689 Y136.742 E17.6565
G1 X134.134 Y136.717 E17.67498
G1 X132.934 Y136.591 E17.71511
G1 X132.655 Y136.545 E17.72451
G1 X132.367 Y136.493 E17.73425
G1 X131.766 Y136.376 E17.75461
G1 X129.116 Y135.899 E17.84417
G1 X126.645 Y135.525 E17.92729
G1 X124.082 Y135.213 E18.01317
G1 X121.578 Y134.978 E18.09682
G1 X119.053 Y134.813 E18.18098
G1 X116.522 Y134.72 E18.26521
G1 X113.947 Y134.698 E18.35086
G1 X111.421 Y134.747 E18.43489
G1 X108.887 Y134.869 E18.51927
G1 X106.353 Y135.063 E18.6038
G1 X103.843 Y135.327 E18.68774
G1 X101.326 Y135.663 E18.7722
G1 X98.793 Y136.075 E18.85756
G1 X97.353 Y136.355 E18.90635
G1 X96.386 Y136.531 E18.93904
G1 X95.975 Y136.593 E18.95286
G1 X95.401 Y136.668 E18.97212
G1 X94.311 Y136.751 E19.00848
G1 X93.872 Y136.761 E19.02308
G1 X92.969 Y136.742 E19.05312
G1 X91.97 Y136.626 E19.08657
G1 X91.723 Y136.585 E19.0949
G1 X90.839 Y136.398 E19.12495
G1 X89.976 Y136.134 E19.15497
G1 X88.802 Y135.631 E19.19745
G1 X88.556 Y135.507 E19.20661
G1 X87.768 Y135.065 E19.23666
G1 X87.023 Y134.556 E19.26667
G1 X86.325 Y133.982 E19.29673
G1 X85.681 Y133.349 E19.32676
G1 X84.84 Y132.319 E19.37099
G1 X84.716 Y132.145 E19.3781
G1 X84.225 Y131.387 E19.40813
G1 X83.803 Y130.588 E19.43819
G1 X83.454 Y129.756 E19.4682
G1 X83.179 Y128.895 E19.49826
G1 X83.039 Y128.311 E19.51823
G1 X83.025 Y128.244 E19.52051
G1 X82.879 Y127.353 E19.55054
G1 X82.813 Y126.452 E19.58059
G1 X82.837 Y125.405 E19.61542
G1 X82.863 Y125.054 E19.62713
G1 X82.91 Y124.575 E19.64313
G1 X83.202 Y122.177 E19.72348
G1 X83.437 Y119.651 E19.80786
G1 X83.602 Y117.092 E19.89315
G1 X83.692 Y114.594 E19.97629
G1 X83.712 Y112.02 E20.0619
G1 X83.66 Y109.492 E20.146
G1 X83.535 Y106.938 E20.23105
G1 X83.343 Y104.44 E20.31438
G1 X83.005 Y101.317 E20.41886
