;FLAVOR:Marlin
;TIME:2304
;Filament used: 8.26135m
;Layer height: 0.3
;MINX:68.515
;MINY:68.533
;MINZ:0.3
;MAXX:156.485
;MAXY:156.467
;MAXZ:50.1
;POSTPROCESSED
;Generated with Cura_SteamEngine 4.13.1
;
;

M82 ;absolute extrusion mode
; Ender 3 Custom Start G-code
M117 Getting the bed up to temp!
M140 S50 ; Set Heat Bed temperature
M190 S50 ; Wait for Heat Bed temperature
M117 Pre-heating the extruder!
M104 S160; start warming extruder to 160
G28 ; Home all axes
M117 Auto bed-level GO!
G29 ; Auto bed-level (BL-Touch)
G92 E0 ; Reset Extruder
M117 Getting the extruder up to temp!
M104 S210 ; Set Extruder temperature
M109 S210 ; Wait for Extruder temperature
G1 Z2.0 F3000 ; move z up little to prevent scratching of surface
G1 X0.1 Y20 Z0.3 F5000.0 ; move to start-line position
M117 LET THE PURGE BEGIN!
G1 X0.1 Y200.0 Z0.3 F1500.0 E15 ; draw 1st line
G1 X0.4 Y200.0 Z0.3 F5000.0 ; move to side a little
G1 X0.4 Y20 Z0.3 F1500.0 E30 ; draw 2nd line
G92 E0 ; reset extruder
G1 Z1.0 F3000 ; move z up little to prevent scratching of surface
G1 X5 Y20 Z0.3 F5000.0 ; Move over to prevent blob squish
M117 Autobots! Roll Out!
; End of custom start GCode
G92 E0
G92 E0
G1 F2100 E-1.5
;LAYER_COUNT:167
;LAYER:0
M107
G0 F9000 X73.028 Y73.383 Z0.3
;TYPE:SKIRT
G1 F2100 E0
G1 F6000 X73.692 Y72.721 E0.04678
G1 X74.475 Y72.069 E0.09761
G1 X75.121 Y71.58 E0.13803
G1 X75.443 Y71.346 E0.15789
G1 X75.644 Y71.205 E0.17014
G1 X76.434 Y70.699 E0.21695
G1 X77.298 Y70.247 E0.26559
G1 X78.003 Y69.917 E0.30443
G1 X78.303 Y69.782 E0.32084
G1 X78.546 Y69.677 E0.33405
G1 X79.422 Y69.342 E0.38084
G1 X80.407 Y69.063 E0.43191
G1 X81.152 Y68.889 E0.47008
G1 X81.489 Y68.816 E0.48729
G1 X81.753 Y68.763 E0.50072
G1 X82.679 Y68.618 E0.54748
G1 X83.693 Y68.55 E0.59818
G1 X84.475 Y68.534 E0.6372
G1 X84.872 Y68.533 E0.65701
G1 X85.128 Y68.537 E0.66978
G1 X86.064 Y68.592 E0.71656
G1 X87.03 Y68.733 E0.76527
G1 X87.827 Y68.886 E0.80576
G1 X88.197 Y68.964 E0.82462
G1 X89.458 Y69.251 E0.88914
G1 X92.035 Y69.8 E1.02059
G1 X94.48 Y70.25 E1.14462
G1 X96.981 Y70.636 E1.27088
G1 X99.487 Y70.952 E1.39689
G1 X101.98 Y71.195 E1.52186
G1 X104.492 Y71.367 E1.64747
G1 X107.014 Y71.469 E1.7734
G1 X109.406 Y71.5 E1.89275
G1 X115.634 Y71.5 E2.20346
G1 X118.242 Y71.463 E2.33359
G1 X120.764 Y71.356 E2.45953
G1 X123.258 Y71.179 E2.58427
G1 X125.758 Y70.931 E2.7096
G1 X128.251 Y70.612 E2.83499
G1 X130.744 Y70.221 E2.96089
G1 X133.236 Y69.757 E3.08735
G1 X136.043 Y69.149 E3.23064
G1 X137.149 Y68.89 E3.28732
G1 X137.528 Y68.808 E3.30666
G1 X137.797 Y68.755 E3.32034
G1 X138.724 Y68.614 E3.36712
G1 X139.697 Y68.55 E3.41577
G1 X140.474 Y68.534 E3.45454
G1 X140.872 Y68.533 E3.4744
G1 X141.128 Y68.537 E3.48717
G1 X142.064 Y68.592 E3.53395
G1 X143.027 Y68.733 E3.5825
G1 X143.825 Y68.886 E3.62304
G1 X144.201 Y68.965 E3.64221
G1 X144.442 Y69.02 E3.65454
G1 X145.347 Y69.267 E3.70135
G1 X146.281 Y69.613 E3.75104
G1 X146.957 Y69.899 E3.78766
G1 X147.239 Y70.023 E3.80303
G1 X147.515 Y70.149 E3.81816
G1 X148.351 Y70.575 E3.86497
G1 X149.249 Y71.141 E3.91793
G1 X149.897 Y71.594 E3.95738
G1 X150.188 Y71.803 E3.97525
G1 X150.379 Y71.946 E3.98716
G1 X151.105 Y72.54 E4.03395
G1 X151.798 Y73.215 E4.08222
G1 X152.354 Y73.806 E4.1227
G1 X152.659 Y74.144 E4.14541
G1 X152.82 Y74.33 E4.15769
G1 X153.403 Y75.065 E4.20449
G1 X153.914 Y75.834 E4.25056
G1 X154.314 Y76.495 E4.2891
G1 X154.503 Y76.819 E4.30781
G1 X154.63 Y77.046 E4.32079
G1 X155.052 Y77.883 E4.36756
G1 X155.422 Y78.812 E4.41745
G1 X155.677 Y79.547 E4.45626
G1 X155.788 Y79.883 E4.47391
G1 X155.868 Y80.14 E4.48734
G1 X156.108 Y81.046 E4.5341
G1 X156.281 Y82.052 E4.58503
G1 X156.375 Y82.808 E4.62303
G1 X156.412 Y83.152 E4.6403
G1 X156.438 Y83.433 E4.65438
G1 X156.485 Y84.369 E4.70113
G1 X156.445 Y85.384 E4.75181
G1 X156.379 Y86.155 E4.79042
G1 X156.343 Y86.51 E4.80822
G1 X156.305 Y86.831 E4.82434
G1 X156.087 Y88.064 E4.88681
G1 X155.894 Y88.882 E4.92874
G1 X155.343 Y91.371 E5.05593
G1 X154.858 Y93.899 E5.18435
G1 X154.457 Y96.373 E5.30939
G1 X154.131 Y98.818 E5.43245
G1 X153.862 Y101.373 E5.56062
G1 X153.672 Y103.865 E5.68531
G1 X153.552 Y106.367 E5.81028
G1 X153.5 Y109.453 E5.96426
G1 X153.5 Y115.544 E6.26814
G1 X153.537 Y118.152 E6.39827
G1 X153.644 Y120.674 E6.52421
G1 X153.821 Y123.168 E6.64895
G1 X154.069 Y125.666 E6.77418
G1 X154.387 Y128.155 E6.89937
G1 X154.781 Y130.664 E7.02608
G1 X155.239 Y133.127 E7.15106
G1 X155.775 Y135.621 E7.27833
G1 X156.054 Y136.785 E7.33805
G1 X156.272 Y137.986 E7.39895
G1 X156.374 Y138.803 E7.44002
G1 X156.412 Y139.149 E7.45739
G1 X156.438 Y139.429 E7.47142
G1 X156.485 Y140.366 E7.51822
G1 X156.446 Y141.375 E7.5686
G1 X156.382 Y142.13 E7.6064
G1 X156.345 Y142.489 E7.62441
G1 X156.312 Y142.769 E7.63847
G1 X156.163 Y143.694 E7.68522
G1 X155.916 Y144.667 E7.7353
G1 X155.686 Y145.427 E7.77491
G1 X155.566 Y145.801 E7.79451
G1 X155.487 Y146.032 E7.80669
G1 X155.146 Y146.905 E7.85345
G1 X154.716 Y147.775 E7.90187
G1 X154.349 Y148.442 E7.93985
G1 X154.161 Y148.771 E7.95875
G1 X154.012 Y149.021 E7.97327
G1 X153.498 Y149.805 E8.02004
G1 X152.884 Y150.584 E8.06953
G1 X152.379 Y151.168 E8.10805
G1 X152.154 Y151.42 E8.1249
G1 X151.982 Y151.607 E8.13758
G1 X151.318 Y152.269 E8.18435
G1 X150.525 Y152.931 E8.23589
G1 X149.879 Y153.42 E8.27631
G1 X149.578 Y153.639 E8.29488
G1 X149.378 Y153.78 E8.30709
G1 X148.589 Y154.288 E8.35391
G1 X147.703 Y154.753 E8.40383
G1 X147 Y155.082 E8.44255
G1 X146.705 Y155.215 E8.4587
G1 X146.46 Y155.321 E8.47202
G1 X145.584 Y155.656 E8.51881
G1 X144.591 Y155.937 E8.57029
G1 X143.845 Y156.111 E8.60851
G1 X143.511 Y156.184 E8.62557
G1 X143.247 Y156.237 E8.639
G1 X142.321 Y156.382 E8.68576
G1 X141.307 Y156.45 E8.73646
G1 X140.525 Y156.466 E8.77549
G1 X140.128 Y156.467 E8.79529
G1 X139.872 Y156.463 E8.80807
G1 X138.936 Y156.408 E8.85484
G1 X137.97 Y156.267 E8.90355
G1 X137.173 Y156.114 E8.94404
G1 X136.803 Y156.036 E8.9629
G1 X135.542 Y155.749 E9.02742
G1 X132.965 Y155.2 E9.15887
G1 X130.52 Y154.75 E9.2829
G1 X128.019 Y154.364 E9.40916
G1 X125.513 Y154.048 E9.53517
G1 X123.02 Y153.805 E9.66014
G1 X120.508 Y153.633 E9.78576
G1 X117.986 Y153.531 E9.91168
G1 X115.594 Y153.5 E10.03103
G1 X109.366 Y153.5 E10.34175
G1 X106.758 Y153.537 E10.47187
G1 X104.236 Y153.644 E10.59781
G1 X101.742 Y153.821 E10.72255
G1 X99.242 Y154.069 E10.84789
G1 X96.749 Y154.388 E10.97328
G1 X94.256 Y154.779 E11.09917
G1 X91.764 Y155.243 E11.22564
G1 X88.957 Y155.851 E11.36892
G1 X87.851 Y156.11 E11.4256
G1 X87.472 Y156.192 E11.44494
G1 X87.203 Y156.245 E11.45862
G1 X86.276 Y156.386 E11.5054
G1 X85.303 Y156.45 E11.55405
G1 X84.526 Y156.466 E11.59282
G1 X84.128 Y156.467 E11.61268
G1 X83.872 Y156.463 E11.62545
G1 X82.936 Y156.408 E11.67223
G1 X81.973 Y156.267 E11.72079
G1 X81.175 Y156.114 E11.76132
G1 X80.799 Y156.035 E11.78049
G1 X80.558 Y155.98 E11.79282
G1 X79.653 Y155.733 E11.83963
G1 X78.719 Y155.387 E11.88932
G1 X78.043 Y155.101 E11.92594
G1 X77.761 Y154.977 E11.94131
G1 X77.485 Y154.851 E11.95644
G1 X76.649 Y154.425 E12.00326
G1 X75.751 Y153.859 E12.05621
G1 X75.103 Y153.406 E12.09566
G1 X74.812 Y153.197 E12.11353
G1 X74.621 Y153.054 E12.12544
G1 X73.895 Y152.46 E12.17224
G1 X73.202 Y151.785 E12.2205
G1 X72.646 Y151.194 E12.26098
G1 X72.341 Y150.856 E12.2837
G1 X72.18 Y150.67 E12.29597
G1 X71.597 Y149.935 E12.34277
G1 X71.086 Y149.166 E12.38884
G1 X70.686 Y148.505 E12.42738
G1 X70.497 Y148.181 E12.4461
G1 X70.37 Y147.954 E12.45907
G1 X69.948 Y147.117 E12.50584
G1 X69.578 Y146.188 E12.55573
G1 X69.323 Y145.453 E12.59454
G1 X69.212 Y145.117 E12.61219
G1 X69.132 Y144.86 E12.62562
G1 X68.892 Y143.954 E12.67238
G1 X68.718 Y142.941 E12.72366
G1 X68.623 Y142.173 E12.76227
G1 X68.587 Y141.841 E12.77893
G1 X68.562 Y141.572 E12.79241
G1 X68.515 Y140.635 E12.83921
G1 X68.555 Y139.616 E12.89009
G1 X68.621 Y138.845 E12.9287
G1 X68.656 Y138.502 E12.9459
G1 X68.694 Y138.178 E12.96217
G1 X68.915 Y136.924 E13.0257
G1 X69.108 Y136.107 E13.06758
G1 X69.657 Y133.629 E13.19421
G1 X70.142 Y131.101 E13.32263
G1 X70.543 Y128.627 E13.44767
G1 X70.869 Y126.182 E13.57073
G1 X71.138 Y123.627 E13.6989
G1 X71.328 Y121.135 E13.82359
G1 X71.448 Y118.633 E13.94856
G1 X71.5 Y115.547 E14.10254
G1 X71.5 Y109.456 E14.40642
G1 X71.463 Y106.848 E14.53655
G1 X71.356 Y104.326 E14.66249
G1 X71.179 Y101.832 E14.78723
G1 X70.932 Y99.337 E14.91231
G1 X70.612 Y96.836 E15.0381
G1 X70.221 Y94.347 E15.1638
G1 X69.76 Y91.867 E15.28965
G1 X69.225 Y89.379 E15.41661
G1 X68.946 Y88.215 E15.47633
G1 X68.727 Y87.011 E15.53739
G1 X68.623 Y86.176 E15.57937
G1 X68.585 Y85.819 E15.59728
G1 X68.561 Y85.557 E15.6104
G1 X68.515 Y84.621 E15.65716
G1 X68.555 Y83.616 E15.70734
G1 X68.621 Y82.845 E15.74594
G1 X68.656 Y82.505 E15.76299
G1 X68.687 Y82.24 E15.77631
G1 X68.835 Y81.314 E15.82309
G1 X69.085 Y80.327 E15.87389
G1 X69.316 Y79.565 E15.91361
G1 X69.435 Y79.195 E15.933
G1 X69.513 Y78.967 E15.94502
G1 X69.854 Y78.094 E15.99178
G1 X70.286 Y77.222 E16.04033
G1 X70.666 Y76.532 E16.07963
G1 X70.865 Y76.185 E16.09959
G1 X71.001 Y75.958 E16.11279
G1 X71.517 Y75.174 E16.15962
G1 X72.116 Y74.416 E16.20782
G1 X72.627 Y73.825 E16.24679
G1 X72.862 Y73.563 E16.26435
G1 X73.028 Y73.383 E16.27657
G0 F9000 X73.322 Y73.654
G1 F6000 X73.975 Y73.005 E16.3225
G1 X74.716 Y72.388 E16.37061
G1 X75.362 Y71.899 E16.41103
G1 X75.673 Y71.673 E16.43021
G1 X75.874 Y71.532 E16.44246
G1 X76.65 Y71.037 E16.48838
G1 X77.467 Y70.61 E16.53437
G1 X78.172 Y70.28 E16.57321
G1 X78.461 Y70.15 E16.58902
G1 X78.704 Y70.045 E16.60222
G1 X79.565 Y69.716 E16.64821
G1 X80.498 Y69.453 E16.69657
G1 X81.243 Y69.279 E16.73474
G1 X81.568 Y69.208 E16.75133
G1 X81.832 Y69.155 E16.76477
G1 X82.741 Y69.014 E16.81066
G1 X83.701 Y68.95 E16.85866
G1 X84.483 Y68.934 E16.89768
G1 X84.866 Y68.933 E16.91679
G1 X85.122 Y68.937 E16.92956
G1 X86.041 Y68.992 E16.9755
G1 X86.954 Y69.126 E17.02153
G1 X87.751 Y69.279 E17.06202
G1 X88.108 Y69.354 E17.08022
G1 X89.35 Y69.637 E17.14377
G1 X91.951 Y70.191 E17.27645
G1 X94.419 Y70.645 E17.40164
G1 X96.937 Y71.034 E17.52876
G1 X99.439 Y71.349 E17.65457
G1 X101.947 Y71.593 E17.78028
G1 X104.485 Y71.768 E17.90721
G1 X106.993 Y71.869 E18.03243
G1 X109.401 Y71.9 E18.15258
G1 X115.64 Y71.9 E18.46384
G1 X118.264 Y71.863 E18.59477
G1 X120.773 Y71.756 E18.72006
G1 X123.293 Y71.578 E18.84609
G1 X125.808 Y71.329 E18.97218
G1 X128.297 Y71.01 E19.09737
G1 X130.849 Y70.609 E19.22625
G1 X133.29 Y70.155 E19.35012
G1 X136.152 Y69.534 E19.49623
G1 X137.24 Y69.28 E19.55197
G1 X137.605 Y69.201 E19.5706
G1 X137.874 Y69.148 E19.58428
G1 X138.784 Y69.009 E19.63021
G1 X139.705 Y68.95 E19.67625
G1 X140.482 Y68.934 E19.71503
G1 X140.866 Y68.933 E19.73418
G1 X141.122 Y68.937 E19.74696
G1 X142.041 Y68.992 E19.79289
G1 X142.952 Y69.126 E19.83883
G1 X143.75 Y69.279 E19.87936
G1 X144.112 Y69.355 E19.89782
G1 X144.353 Y69.41 E19.91015
G1 X145.241 Y69.653 E19.95608
G1 X146.125 Y69.982 E20.00314
G1 X146.801 Y70.268 E20.03976
G1 X147.073 Y70.387 E20.05457
G1 X147.349 Y70.513 E20.06971
G1 X148.169 Y70.932 E20.11565
G1 X149.02 Y71.468 E20.16583
G1 X149.668 Y71.921 E20.20527
G1 X149.948 Y72.124 E20.22253
G1 X150.139 Y72.267 E20.23443
G1 X150.851 Y72.85 E20.28034
G1 X151.506 Y73.489 E20.32599
G1 X152.062 Y74.08 E20.36648
G1 X152.357 Y74.406 E20.38841
G1 X152.518 Y74.592 E20.40068
G1 X153.089 Y75.313 E20.44657
G1 X153.572 Y76.041 E20.49016
G1 X153.972 Y76.702 E20.5287
G1 X154.154 Y77.015 E20.54676
G1 X154.281 Y77.242 E20.55974
G1 X154.695 Y78.064 E20.60566
G1 X155.044 Y78.943 E20.65284
G1 X155.299 Y79.678 E20.69166
G1 X155.406 Y80.001 E20.70863
G1 X155.486 Y80.258 E20.72206
G1 X155.721 Y81.149 E20.76803
G1 X155.884 Y82.101 E20.81622
G1 X155.978 Y82.857 E20.85423
G1 X156.014 Y83.188 E20.87084
G1 X156.04 Y83.469 E20.88492
G1 X156.085 Y84.389 E20.93087
G1 X156.046 Y85.35 E20.97885
G1 X155.98 Y86.121 E21.01746
G1 X155.945 Y86.463 E21.03461
G1 X155.907 Y86.784 E21.05074
G1 X155.698 Y87.972 E21.11092
G1 X155.51 Y88.767 E21.15168
G1 X154.945 Y91.322 E21.28222
G1 X154.465 Y93.82 E21.40913
G1 X154.064 Y96.298 E21.53437
G1 X153.731 Y98.795 E21.66004
G1 X153.464 Y101.333 E21.78736
G1 X153.275 Y103.816 E21.9116
G1 X153.152 Y106.373 E22.03932
G1 X153.1 Y109.447 E22.1927
G1 X153.1 Y115.55 E22.49718
G1 X153.137 Y118.174 E22.62811
G1 X153.244 Y120.683 E22.75339
G1 X153.422 Y123.199 E22.87923
G1 X153.672 Y125.723 E23.00577
G1 X153.993 Y128.231 E23.13192
G1 X154.38 Y130.693 E23.25625
G1 X154.855 Y133.247 E23.38586
G1 X155.376 Y135.672 E23.5096
G1 X155.665 Y136.878 E23.57147
G1 X155.875 Y138.036 E23.63019
G1 X155.977 Y138.853 E23.67127
G1 X156.014 Y139.186 E23.68798
G1 X156.04 Y139.466 E23.70201
G1 X156.085 Y140.385 E23.74792
G1 X156.047 Y141.341 E23.79565
G1 X155.983 Y142.096 E23.83345
G1 X155.948 Y142.442 E23.8508
G1 X155.915 Y142.722 E23.86487
G1 X155.768 Y143.63 E23.91076
G1 X155.534 Y144.551 E23.95817
G1 X155.304 Y145.311 E23.99778
G1 X155.188 Y145.671 E24.01665
G1 X155.109 Y145.902 E24.02883
G1 X154.773 Y146.759 E24.07475
G1 X154.366 Y147.582 E24.12056
G1 X153.999 Y148.249 E24.15854
G1 X153.817 Y148.566 E24.17678
G1 X153.668 Y148.816 E24.1913
G1 X153.163 Y149.585 E24.2372
G1 X152.581 Y150.322 E24.28405
G1 X152.076 Y150.906 E24.32257
G1 X151.86 Y151.149 E24.33879
G1 X151.688 Y151.336 E24.35146
G1 X151.036 Y151.986 E24.39739
G1 X150.284 Y152.612 E24.44621
G1 X149.638 Y153.101 E24.48663
G1 X149.348 Y153.312 E24.50452
G1 X149.148 Y153.453 E24.51673
G1 X148.373 Y153.951 E24.56269
G1 X147.533 Y154.391 E24.61
G1 X146.83 Y154.72 E24.64872
G1 X146.546 Y154.848 E24.66427
G1 X146.301 Y154.954 E24.67758
G1 X145.441 Y155.282 E24.7235
G1 X144.5 Y155.548 E24.77229
G1 X143.754 Y155.722 E24.81051
G1 X143.432 Y155.792 E24.82695
G1 X143.168 Y155.845 E24.84038
G1 X142.259 Y155.986 E24.88627
G1 X141.299 Y156.05 E24.93427
G1 X140.517 Y156.066 E24.9733
G1 X140.134 Y156.067 E24.99241
G1 X139.878 Y156.063 E25.00518
G1 X138.959 Y156.008 E25.05111
G1 X138.046 Y155.874 E25.09715
G1 X137.249 Y155.721 E25.13764
G1 X136.892 Y155.646 E25.15584
G1 X135.65 Y155.363 E25.21939
G1 X133.049 Y154.809 E25.35206
G1 X130.581 Y154.355 E25.47726
G1 X128.063 Y153.966 E25.60437
G1 X125.561 Y153.651 E25.73018
G1 X123.053 Y153.407 E25.8559
G1 X120.515 Y153.232 E25.98282
G1 X118.007 Y153.131 E26.10805
G1 X115.599 Y153.1 E26.22819
G1 X109.36 Y153.1 E26.53946
G1 X106.736 Y153.137 E26.67038
G1 X104.227 Y153.244 E26.79567
G1 X101.707 Y153.422 E26.92171
G1 X99.192 Y153.671 E27.04779
G1 X96.703 Y153.99 E27.17299
G1 X94.151 Y154.391 E27.30187
G1 X91.71 Y154.845 E27.42574
G1 X88.848 Y155.466 E27.57185
G1 X87.76 Y155.72 E27.62759
G1 X87.395 Y155.799 E27.64622
G1 X87.126 Y155.852 E27.6599
G1 X86.216 Y155.991 E27.70582
G1 X85.295 Y156.05 E27.75187
G1 X84.518 Y156.066 E27.79064
G1 X84.134 Y156.067 E27.8098
G1 X83.878 Y156.063 E27.82257
G1 X82.959 Y156.008 E27.8685
G1 X82.048 Y155.874 E27.91444
G1 X81.25 Y155.721 E27.95498
G1 X80.888 Y155.645 E27.97343
G1 X80.647 Y155.59 E27.98576
G1 X79.759 Y155.347 E28.0317
G1 X78.875 Y155.018 E28.07875
G1 X78.199 Y154.732 E28.11537
G1 X77.927 Y154.613 E28.13019
G1 X77.651 Y154.487 E28.14532
G1 X76.831 Y154.068 E28.19126
G1 X75.98 Y153.532 E28.24144
G1 X75.332 Y153.079 E28.28089
G1 X75.052 Y152.876 E28.29814
G1 X74.861 Y152.733 E28.31004
G1 X74.149 Y152.15 E28.35595
G1 X73.494 Y151.511 E28.40161
G1 X72.938 Y150.92 E28.44209
G1 X72.643 Y150.594 E28.46402
G1 X72.482 Y150.408 E28.4763
G1 X71.911 Y149.687 E28.52218
G1 X71.428 Y148.959 E28.56577
G1 X71.028 Y148.298 E28.60431
G1 X70.846 Y147.985 E28.62238
G1 X70.719 Y147.758 E28.63536
G1 X70.305 Y146.936 E28.68127
G1 X69.956 Y146.057 E28.72846
G1 X69.701 Y145.322 E28.76727
G1 X69.594 Y144.999 E28.78425
G1 X69.514 Y144.742 E28.79767
G1 X69.279 Y143.851 E28.84365
G1 X69.115 Y142.892 E28.89219
G1 X69.02 Y142.124 E28.93079
G1 X68.985 Y141.804 E28.94685
G1 X68.96 Y141.535 E28.96033
G1 X68.915 Y140.615 E29.00629
G1 X68.954 Y139.65 E29.05447
G1 X69.02 Y138.879 E29.09308
G1 X69.053 Y138.548 E29.10967
G1 X69.091 Y138.224 E29.12595
G1 X69.304 Y137.017 E29.18709
G1 X69.489 Y136.235 E29.22718
G1 X70.055 Y133.678 E29.35784
G1 X70.535 Y131.18 E29.48475
G1 X70.936 Y128.702 E29.60998
G1 X71.269 Y126.205 E29.73566
G1 X71.536 Y123.667 E29.86298
