;FLAVOR:Marlin
;TIME:3328
;Filament used: 2.51751m
;Layer height: 0.2
;MINX:74.501
;MINY:61.152
;MINZ:0.2
;MAXX:150.499
;MAXY:114.451
;MAXZ:14
;POSTPROCESSED
;Generated with Cura_SteamEngine 4.13.1
;
;

M82 ;absolute extrusion mode
; Ender 3 Custom Start G-code
M117 Getting the bed up to temp!
M140 S60 ; Set Heat Bed temperature
M190 S60 ; Wait for Heat Bed temperature
M117 Pre-heating the extruder!
M104 S210; start warming extruder to 160
G28 ; Home all axes
M117 Auto bed-level GO!
G29 ; Auto bed-level (BL-Touch)
G92 E0 ; Reset Extruder
M117 Getting the extruder up to temp!
M104 S210 ; Set Extruder temperature
M109 S210 ; Wait for Extruder temperature
G1 Z2.0 F3000 ; move z up little to prevent scratching of surface
G1 X0.1 Y20 Z0.3 F5000.0 ; move to start-line position
M117 LET THE PURGE BEGIN!
SET_GCODE_OFFSET Z=-.005
G1 X0.1 Y200.0 Z0.3 F1500.0 E15 ; draw 1st line
G1 X0.4 Y200.0 Z0.3 F5000.0 ; move to side a little
G1 X0.4 Y20 Z0.3 F1500.0 E30 ; draw 2nd line
G92 E0 ; reset extruder
G1 Z1.0 F3000 ; move z up little to prevent scratching of surface
G1 X5 Y20 Z0.3 F5000.0 ; Move over to prevent blob squish
; SET_GCODE_OFFSET Z=+.075
M117 Autobots! Roll Out!
; End of custom start GCode
G92 E0
G92 E0
G1 F2700 E-3.5
;LAYER_COUNT:70
;LAYER:0
M107
G0 F9000 X77.067 Y65.11 Z0.2
;TYPE:SKIRT
G1 F2700 E0
G1 F2100 X77.699 Y64.416 E0.03122
G1 X78.387 Y63.779 E0.0624
G1 X79.127 Y63.203 E0.09359
G1 X79.913 Y62.691 E0.12479
G1 X80.74 Y62.249 E0.15598
G1 X81.602 Y61.879 E0.18718
G1 X82.492 Y61.583 E0.21838
G1 X83.404 Y61.365 E0.24957
G1 X84.331 Y61.224 E0.28075
G1 X85.202 Y61.165 E0.30979
G1 X85.523 Y61.156 E0.32047
G1 X85.831 Y61.152 E0.33071
G1 X138.792 Y61.152 E2.0922
G1 X139.648 Y61.163 E2.12068
G1 X140.584 Y61.217 E2.15186
G1 X141.512 Y61.349 E2.18304
G1 X142.426 Y61.561 E2.21424
G1 X143.318 Y61.85 E2.24543
G1 X144.183 Y62.213 E2.27663
G1 X145.013 Y62.649 E2.30781
G1 X145.804 Y63.154 E2.33903
G1 X146.548 Y63.725 E2.37022
G1 X147.241 Y64.357 E2.40141
G1 X147.878 Y65.045 E2.4326
G1 X148.453 Y65.786 E2.4638
G1 X148.964 Y66.572 E2.49498
G1 X149.406 Y67.4 E2.52619
G1 X149.775 Y68.262 E2.55738
G1 X150.07 Y69.152 E2.58857
G1 X150.288 Y70.064 E2.61975
G1 X150.428 Y70.992 E2.65097
G1 X150.486 Y71.853 E2.67967
G1 X150.495 Y72.173 E2.69032
G1 X150.499 Y72.482 E2.7006
G1 X150.498 Y102.851 E3.71067
G1 X150.489 Y103.578 E3.73486
G1 X150.438 Y104.515 E3.76607
G1 X150.306 Y105.443 E3.79724
G1 X150.097 Y106.357 E3.82843
G1 X149.81 Y107.25 E3.85962
G1 X149.448 Y108.116 E3.89084
G1 X149.014 Y108.947 E3.92202
G1 X148.51 Y109.738 E3.95322
G1 X147.941 Y110.483 E3.9844
G1 X147.31 Y111.178 E4.01562
G1 X146.623 Y111.816 E4.0468
G1 X145.884 Y112.393 E4.07799
G1 X145.098 Y112.905 E4.10919
G1 X144.272 Y113.348 E4.14036
G1 X143.41 Y113.72 E4.17159
G1 X142.521 Y114.016 E4.20275
G1 X141.609 Y114.236 E4.23396
G1 X140.682 Y114.377 E4.26514
G1 X139.798 Y114.438 E4.29461
G1 X139.477 Y114.447 E4.3053
G1 X139.169 Y114.451 E4.31554
G1 X86.066 Y114.45 E6.08175
G1 X85.368 Y114.441 E6.10497
G1 X84.432 Y114.389 E6.13615
G1 X83.503 Y114.257 E6.16736
G1 X82.589 Y114.047 E6.19855
G1 X81.696 Y113.76 E6.22975
G1 X80.831 Y113.397 E6.26095
G1 X80 Y112.963 E6.29213
G1 X79.209 Y112.459 E6.32333
G1 X78.464 Y111.889 E6.35453
G1 X77.77 Y111.258 E6.38572
G1 X77.133 Y110.571 E6.41688
G1 X76.556 Y109.831 E6.44809
G1 X76.044 Y109.045 E6.47929
G1 X75.601 Y108.218 E6.5105
G1 X75.23 Y107.357 E6.54168
G1 X74.934 Y106.467 E6.57288
G1 X74.715 Y105.555 E6.60407
G1 X74.574 Y104.628 E6.63526
G1 X74.514 Y103.739 E6.66489
G1 X74.505 Y103.406 E6.67597
G1 X74.501 Y103.109 E6.68585
G1 X74.502 Y72.677 E7.69802
G1 X74.511 Y72.012 E7.72014
G1 X74.564 Y71.076 E7.75133
G1 X74.696 Y70.147 E7.78253
G1 X74.907 Y69.233 E7.81373
G1 X75.195 Y68.341 E7.84491
G1 X75.558 Y67.476 E7.87611
G1 X75.993 Y66.645 E7.90731
G1 X76.497 Y65.855 E7.93848
G1 X77.067 Y65.11 E7.96967
G0 F9000 X77.462 Y65.263
G1 F2100 X78.09 Y64.591 E8.00027
G1 X78.775 Y63.975 E8.03091
G1 X79.511 Y63.422 E8.06153
G1 X80.292 Y62.934 E8.09216
G1 X81.112 Y62.516 E8.12277
G1 X81.966 Y62.171 E8.1534
G1 X82.846 Y61.901 E8.18402
G1 X83.746 Y61.709 E8.21463
G1 X84.66 Y61.595 E8.24526
G1 X85.213 Y61.565 E8.26368
G1 X85.534 Y61.556 E8.27436
G1 X85.831 Y61.552 E8.28424
G1 X138.792 Y61.552 E10.04573
G1 X139.642 Y61.563 E10.074
G1 X140.561 Y61.616 E10.10462
G1 X141.472 Y61.749 E10.13524
G1 X142.368 Y61.96 E10.16586
G1 X143.242 Y62.248 E10.19647
G1 X144.089 Y62.611 E10.22712
G1 X144.9 Y63.046 E10.25772
G1 X145.67 Y63.55 E10.28833
G1 X146.394 Y64.119 E10.31896
G1 X147.066 Y64.749 E10.3496
G1 X147.681 Y65.434 E10.38022
G1 X148.234 Y66.17 E10.41083
G1 X148.721 Y66.951 E10.44145
G1 X149.138 Y67.772 E10.47207
G1 X149.483 Y68.626 E10.50271
G1 X149.752 Y69.506 E10.53331
G1 X149.944 Y70.407 E10.56395
G1 X150.057 Y71.32 E10.59455
G1 X150.086 Y71.864 E10.61267
G1 X150.095 Y72.184 E10.62332
G1 X150.099 Y72.482 E10.63323
G1 X150.098 Y102.846 E11.64314
G1 X150.089 Y103.573 E11.66732
G1 X150.038 Y104.492 E11.69794
G1 X149.907 Y105.404 E11.72858
G1 X149.697 Y106.3 E11.75919
G1 X149.411 Y107.175 E11.78981
G1 X149.05 Y108.022 E11.82043
G1 X148.616 Y108.834 E11.85106
G1 X148.114 Y109.606 E11.88168
G1 X147.546 Y110.331 E11.91232
G1 X146.918 Y111.004 E11.94293
G1 X146.234 Y111.62 E11.97355
G1 X145.499 Y112.174 E12.00416
G1 X144.719 Y112.663 E12.03478
G1 X143.899 Y113.082 E12.06541
G1 X143.046 Y113.428 E12.09602
G1 X142.166 Y113.699 E12.12665
G1 X141.266 Y113.892 E12.15726
G1 X140.352 Y114.007 E12.1879
G1 X139.787 Y114.038 E12.20672
G1 X139.466 Y114.047 E12.2174
G1 X139.169 Y114.051 E12.22728
G1 X86.071 Y114.05 E13.99333
G1 X85.373 Y114.041 E14.01655
G1 X84.454 Y113.989 E14.04716
G1 X83.543 Y113.858 E14.07777
G1 X82.647 Y113.648 E14.10838
G1 X81.772 Y113.361 E14.13901
G1 X80.925 Y112.999 E14.16965
G1 X80.113 Y112.565 E14.20027
G1 X79.342 Y112.063 E14.23087
G1 X78.617 Y111.495 E14.2615
G1 X77.944 Y110.866 E14.29214
G1 X77.329 Y110.182 E14.32273
G1 X76.775 Y109.447 E14.35335
G1 X76.287 Y108.666 E14.38398
G1 X75.868 Y107.846 E14.41461
G1 X75.522 Y106.993 E14.44522
G1 X75.252 Y106.113 E14.47584
G1 X75.059 Y105.212 E14.50648
G1 X74.945 Y104.299 E14.53709
G1 X74.914 Y103.728 E14.55611
G1 X74.905 Y103.395 E14.56719
G1 X74.901 Y103.109 E14.5767
G1 X74.902 Y72.683 E15.58867
G1 X74.911 Y72.018 E15.61079
G1 X74.963 Y71.098 E15.64144
G1 X75.095 Y70.187 E15.67206
G1 X75.306 Y69.291 E15.70267
G1 X75.593 Y68.416 E15.7333
G1 X75.956 Y67.57 E15.76392
G1 X76.39 Y66.758 E15.79454
G1 X76.893 Y65.987 E15.82516
G1 X77.462 Y65.263 E15.85579
G0 F9000 X77.856 Y65.419
G1 F2100 X78.482 Y64.769 E15.8858
G1 X79.163 Y64.176 E15.91584
G1 X79.895 Y63.646 E15.94589
G1 X80.67 Y63.183 E15.97592
G1 X81.483 Y62.79 E16.00595
G1 X82.328 Y62.47 E16.03601
G1 X83.197 Y62.227 E16.06602
G1 X84.085 Y62.061 E16.09607
G1 X85.224 Y61.965 E16.13408
G1 X85.545 Y61.956 E16.14476
G1 X85.831 Y61.952 E16.15428
G1 X138.792 Y61.952 E17.91577
G1 X139.636 Y61.963 E17.94384
G1 X140.538 Y62.016 E17.97389
G1 X141.431 Y62.148 E18.00392
G1 X142.309 Y62.359 E18.03395
G1 X143.165 Y62.647 E18.06399
G1 X143.992 Y63.009 E18.09402
G1 X144.784 Y63.444 E18.12407
G1 X145.535 Y63.946 E18.15412
G1 X146.238 Y64.513 E18.18415
G1 X146.888 Y65.14 E18.21419
G1 X147.48 Y65.822 E18.24423
G1 X148.01 Y66.553 E18.27426
G1 X148.472 Y67.329 E18.3043
G1 X148.865 Y68.142 E18.33433
G1 X149.183 Y68.987 E18.36436
G1 X149.426 Y69.857 E18.39441
G1 X149.591 Y70.745 E18.42445
G1 X149.686 Y71.875 E18.46216
G1 X149.695 Y72.195 E18.47281
G1 X149.699 Y72.482 E18.48236
G1 X149.698 Y102.841 E19.4921
G1 X149.689 Y103.568 E19.51628
G1 X149.638 Y104.47 E19.54633
G1 X149.507 Y105.364 E19.57638
G1 X149.298 Y106.242 E19.6064
G1 X149.012 Y107.099 E19.63645
G1 X148.651 Y107.927 E19.66649
G1 X148.219 Y108.719 E19.6965
G1 X147.718 Y109.471 E19.72655
G1 X147.152 Y110.175 E19.7566
G1 X146.527 Y110.826 E19.78661
G1 X145.846 Y111.42 E19.81667
G1 X145.115 Y111.951 E19.84672
G1 X144.341 Y112.415 E19.87674
G1 X143.528 Y112.809 E19.90678
G1 X142.684 Y113.129 E19.93681
G1 X141.814 Y113.374 E19.96687
G1 X140.927 Y113.54 E19.99688
G1 X139.776 Y113.638 E20.0353
G1 X139.455 Y113.647 E20.04598
G1 X139.169 Y113.651 E20.0555
G1 X86.076 Y113.65 E21.82138
G1 X85.378 Y113.641 E21.84459
G1 X84.477 Y113.59 E21.87461
G1 X83.583 Y113.458 E21.90467
G1 X82.705 Y113.249 E21.93468
G1 X81.848 Y112.962 E21.96474
G1 X81.021 Y112.601 E21.99476
G1 X80.228 Y112.168 E22.02481
G1 X79.477 Y111.667 E22.05483
G1 X78.773 Y111.101 E22.08488
G1 X78.122 Y110.475 E22.11492
G1 X77.529 Y109.794 E22.14495
G1 X76.999 Y109.063 E22.17498
G1 X76.535 Y108.288 E22.20503
G1 X76.141 Y107.475 E22.23507
G1 X75.821 Y106.631 E22.2651
G1 X75.577 Y105.761 E22.29515
G1 X75.411 Y104.873 E22.3252
G1 X75.314 Y103.718 E22.36375
G1 X75.305 Y103.385 E22.37483
G1 X75.301 Y103.109 E22.38401
G1 X75.302 Y72.688 E23.39581
G1 X75.311 Y72.023 E23.41793
G1 X75.363 Y71.121 E23.44798
G1 X75.495 Y70.228 E23.47801
G1 X75.705 Y69.35 E23.50803
G1 X75.992 Y68.493 E23.53809
G1 X76.354 Y67.666 E23.56812
G1 X76.787 Y66.874 E23.59814
G1 X77.289 Y66.123 E23.62819
G1 X77.856 Y65.419 E23.65825
G1 F2700 E20.15825
;MESH:Base-v2.stl
G0 F9000 X103.405 Y77.867
G0 X101.953 Y77.028
G0 X105.633 Y75.433
G0 X108.854 Y77.293
G0 X109.27 Y81.011
G0 X112.49 Y82.872
G0 X115.993 Y81.26
G0 X119.481 Y83.114
;TYPE:WALL-INNER
G1 F2700 E23.65825
G1 F2100 X122.854 Y81.166 E23.7878
G1 X122.854 Y77.14 E23.92171
G1 X119.367 Y75.126 E24.05564
G1 X115.929 Y77.112 E24.1877
G1 X112.875 Y75.348 E24.305
G1 X112.487 Y75.128 E24.31984
G1 X109.062 Y77.106 E24.45138
G1 X105.633 Y75.126 E24.58308
G1 X102.146 Y77.14 E24.71701
G1 X102.146 Y81.165 E24.85089
G1 X105.63 Y83.178 E24.98472
G1 X105.63 Y86.643 E25.09996
G1 X102.146 Y88.654 E25.23376
G1 X102.146 Y92.68 E25.36766
G1 X105.63 Y94.692 E25.50148
G1 X105.63 Y98.56 E25.63013
G1 X109.118 Y100.574 E25.76409
G1 X112.556 Y98.589 E25.89613
G1 X115.993 Y100.575 E26.02816
G1 X119.481 Y98.561 E26.16212
G1 X119.481 Y94.628 E26.29293
G1 X122.854 Y92.681 E26.42246
G1 X122.854 Y88.655 E26.55637
G1 X119.481 Y86.707 E26.68592
G1 X119.481 Y83.114 E26.80543
G0 F9000 X119.367 Y82.718
;TYPE:WALL-OUTER
G1 F2100 X122.454 Y80.935 E26.92399
G1 X122.454 Y77.371 E27.04253
G1 X119.367 Y75.588 E27.1611
G1 X116.28 Y77.371 E27.27967
G1 X116.28 Y80.934 E27.39818
G1 X119.367 Y82.718 E27.51677
G1 F2700 E24.01677
G0 F9000 X119.267 Y82.89
G0 X119.215 Y86.84
G0 X116.146 Y88.807
G0 X116.146 Y92.527
G0 X119.215 Y94.688
G0 X119.215 Y98.408
G0 X118.302 Y98.935
G0 X115.893 Y100.285
G1 F2700 E27.51677
G0 F9000 X115.993 Y100.113
G1 F2100 X119.081 Y98.33 E27.63536
G1 X119.081 Y94.766 E27.7539
G1 X115.993 Y92.983 E27.8725
G1 X112.906 Y94.766 E27.99107
G1 X112.906 Y98.329 E28.10958
G1 X115.993 Y100.113 E28.22816
G1 F2700 E24.72816
G0 F9000 X115.893 Y100.285
G0 X119.215 Y98.408
G0 X119.267 Y94.404
G1 F2700 E28.22816
G0 F9000 X119.367 Y94.232
G1 F2100 X122.454 Y92.45 E28.34672
G1 X122.454 Y88.886 E28.46526
G1 X119.367 Y87.103 E28.58383
G1 X116.28 Y88.885 E28.70238
G1 X116.28 Y92.449 E28.82092
G1 X119.367 Y94.232 E28.93949
G1 F2700 E25.43949
G0 F9000 X119.267 Y94.404
G0 X116.146 Y92.527
G0 X115.893 Y88.717
G1 F2700 E28.93949
G0 F9000 X115.993 Y88.545
G1 F2100 X119.081 Y86.762 E29.05809
G1 X119.081 Y83.198 E29.17663
G1 X115.993 Y81.415 E29.29522
G1 X112.906 Y83.198 E29.41379
G1 X112.906 Y86.761 E29.5323
G1 X115.993 Y88.545 E29.65089
G1 F2700 E26.15089
G0 F9000 X115.893 Y88.717
G0 X112.772 Y86.838
G0 X112.39 Y82.889
G1 F2700 E29.65089
G0 F9000 X112.49 Y82.717
G1 F2100 X115.578 Y80.936 E29.76945
G1 X115.578 Y77.371 E29.88802
G1 X112.677 Y75.695 E29.99946
G1 X112.489 Y75.589 E30.00663
G1 X109.404 Y77.371 E30.12513
G1 X109.404 Y80.934 E30.24364
G1 X112.49 Y82.717 E30.36218
G1 F2700 E26.86218
G0 F9000 X112.39 Y82.889
G0 X109.118 Y81.26
G0 X105.533 Y82.89
G1 F2700 E30.36218
G0 F9000 X105.633 Y82.718
G1 F2100 X108.72 Y80.935 E30.48075
G1 X108.72 Y77.371 E30.59929
G1 X105.633 Y75.588 E30.71786
G1 X102.546 Y77.371 E30.83643
G1 X102.546 Y80.934 E30.95493
G1 X105.633 Y82.718 E31.07352
G1 F2700 E27.57352
G0 F9000 X105.533 Y82.89
G0 X105.533 Y87.005
G0 X102.412 Y88.807
G0 X102.412 Y92.527
G0 X105.533 Y94.404
G1 F2700 E31.07352
G0 F9000 X105.633 Y94.232
G1 F2100 X108.72 Y92.45 E31.19207
G1 X108.72 Y88.886 E31.31061
G1 X105.633 Y87.103 E31.42918
G1 X102.546 Y88.885 E31.54773
G1 X102.546 Y92.449 E31.66627
G1 X105.633 Y94.232 E31.78484
G1 F2700 E28.28484
G0 F9000 X105.533 Y94.404
G0 X108.854 Y92.528
G0 X109.018 Y88.717
G1 F2700 E31.78484
G0 F9000 X109.118 Y88.545
G1 F2100 X112.204 Y86.762 E31.90338
G1 X112.204 Y83.197 E32.02195
G1 X109.118 Y81.415 E32.14048
G1 X106.03 Y83.195 E32.25903
G1 X106.03 Y86.761 E32.37763
G1 X109.118 Y88.545 E32.49625
G1 F2700 E28.99625
G0 F9000 X109.018 Y88.717
G0 X109.27 Y92.526
G0 X112.39 Y94.404
G1 F2700 E32.49625
G0 F9000 X112.49 Y94.232
G1 F2100 X115.578 Y92.451 E32.61481
G1 X115.578 Y88.886 E32.73339
G1 X112.49 Y87.103 E32.85198
G1 X109.404 Y88.885 E32.97051
G1 X109.404 Y92.449 E33.08905
G1 X112.49 Y94.232 E33.20759
G1 F2700 E29.70759
G0 F9000 X112.39 Y94.404
G0 X112.338 Y98.408
G0 X109.018 Y100.284
G1 F2700 E33.20759
G0 F9000 X109.118 Y100.112
G1 F2100 X112.204 Y98.33 E33.32611
G1 X112.204 Y94.766 E33.44465
G1 X109.118 Y92.983 E33.56319
G1 X106.03 Y94.764 E33.68176
G1 X106.03 Y98.329 E33.80033
G1 X109.118 Y100.112 E33.91893
G1 F2700 E30.41893
G0 F9000 X109.017 Y100.283
G0 X112.556 Y98.792
G0 X115.993 Y100.268
G0 X119.674 Y98.673
G0 X118.222 Y97.835
G0 X119.674 Y104.116
G0 X119.674 Y102.641
G0 X138.899 Y102.851
;TYPE:WALL-INNER
G1 F2700 E33.91893
G1 F2100 X86.101 Y102.851 E35.675
G1 X86.101 Y72.752 E36.6761
G1 X138.899 Y72.752 E38.43216
G1 X138.899 Y102.851 E39.43326
G0 F9000 X139.299 Y103.251
;TYPE:WALL-OUTER
G1 F2100 X85.701 Y103.251 E41.21594
G1 X85.701 Y72.352 E42.24364
G1 X139.299 Y72.352 E44.02632
G1 X139.299 Y103.251 E45.05402
G0 F9000 X139.129 Y103.081
G0 X138.789 Y102.461
G0 X138.509 Y102.461
;TYPE:SKIN
G1 F2100 X86.491 Y102.461 E46.78415
G1 X86.491 Y73.142 E47.7593
G1 X138.509 Y73.142 E49.48943
G1 X138.509 Y102.461 E50.46458
G1 F2700 E46.96458
G0 F9000 X138.789 Y102.461
G0 X122.964 Y102.641
G0 X122.964 Y104.116
G0 X118.222 Y95.261
G0 X119.674 Y94.739
G0 X122.964 Y92.752
G1 F2700 E50.46458
G0 F9000 X123.244 Y92.906
G1 F2100 X123.244 Y88.43 E50.61346
G1 X119.871 Y86.482 E50.74301
G1 X119.871 Y83.339 E50.84754
G1 X123.244 Y81.391 E50.9771
G1 X123.244 Y76.915 E51.12597
G1 X119.367 Y74.676 E51.27488
G1 X115.929 Y76.661 E51.40692
G1 X113.068 Y75.009 E51.5168
G1 X112.485 Y74.679 E51.53908
G1 X109.062 Y76.655 E51.67054
G1 X105.633 Y74.676 E51.80222
G1 X101.756 Y76.915 E51.95112
G1 X101.756 Y81.39 E52.09996
G1 X105.24 Y83.403 E52.23379
G1 X105.24 Y86.418 E52.33407
G1 X101.756 Y88.429 E52.46787
G1 X101.756 Y92.905 E52.61674
G1 X105.24 Y94.917 E52.75055
G1 X105.24 Y98.785 E52.87921
G1 X109.118 Y101.024 E53.02814
G1 X112.556 Y99.04 E53.16016
G1 X115.993 Y101.025 E53.29218
G1 X119.871 Y98.786 E53.44111
G1 X119.871 Y94.853 E53.57192
G1 X123.244 Y92.906 E53.70146
G1 F2700 E50.20146
G0 F9000 X122.964 Y92.752
G0 X123.047 Y88.543
G0 X121.595 Y89.381
G0 X140.164 Y88.543
G0 X138.689 Y88.543
G0 X138.789 Y73.86
G1 F2700 E53.70146
G0 F9000 X138.348 Y73.86
G1 F2100 X137.789 Y73.301 E53.72775
G0 F9000 X137.223 Y73.301
G1 F2100 X138.348 Y74.425 E53.78065
G0 F9000 X138.348 Y74.991
G1 F2100 X136.658 Y73.301 E53.86014
G0 F9000 X136.092 Y73.301
G1 F2100 X138.348 Y75.557 E53.96625
G0 F9000 X138.348 Y76.122
G1 F2100 X135.526 Y73.301 E54.09897
G0 F9000 X134.961 Y73.301
G1 F2100 X138.348 Y76.688 E54.25828
G0 F9000 X138.348 Y77.254
G1 F2100 X134.395 Y73.301 E54.44422
G0 F9000 X133.829 Y73.301
G1 F2100 X138.348 Y77.819 E54.65676
G0 F9000 X138.348 Y78.385
G1 F2100 X133.264 Y73.301 E54.89589
G0 F9000 X132.698 Y73.301
G1 F2100 X138.348 Y78.951 E55.16165
G0 F9000 X138.348 Y79.516
G1 F2100 X132.132 Y73.301 E55.45401
G0 F9000 X131.567 Y73.301
G1 F2100 X138.348 Y80.082 E55.77297
G0 F9000 X138.348 Y80.648
G1 F2100 X131.001 Y73.301 E56.11855
G0 F9000 X130.435 Y73.301
G1 F2100 X138.348 Y81.214 E56.49075
G0 F9000 X138.348 Y81.779
G1 F2100 X129.87 Y73.301 E56.88953
G0 F9000 X129.304 Y73.301
