;FLAVOR:Marlin
;TIME:7756
;Filament used: 13.2282m
;Layer height: 0.2
;MINX:49.774
;MINY:50.346
;MINZ:0.2
;MAXX:175.225
;MAXY:184.601
;MAXZ:18
;POSTPROCESSED
;Generated with Cura_SteamEngine 4.13.1
;
;

M82 ;absolute extrusion mode
; Ender 3 Custom Start G-code
M117 Getting the bed up to temp!
M140 S50 ; Set Heat Bed temperature
M190 S50 ; Wait for Heat Bed temperature
M117 Pre-heating the extruder!
M104 S210; start warming extruder to 160
G28 ; Home all axes
M117 Auto bed-level GO!
G29 ; Auto bed-level (BL-Touch)
G92 E0 ; Reset Extruder
M117 Getting the extruder up to temp!
M104 S210 ; Set Extruder temperature
M109 S210 ; Wait for Extruder temperature
G1 Z2.0 F3000 ; move z up little to prevent scratching of surface
G1 X0.1 Y20 Z0.3 F5000.0 ; move to start-line position
M117 LET THE PURGE BEGIN!
G1 X0.1 Y200.0 Z0.3 F1500.0 E15 ; draw 1st line
G1 X0.4 Y200.0 Z0.3 F5000.0 ; move to side a little
G1 X0.4 Y20 Z0.3 F1500.0 E30 ; draw 2nd line
G92 E0 ; reset extruder
G1 Z1.0 F3000 ; move z up little to prevent scratching of surface
G1 X5 Y20 Z0.3 F5000.0 ; Move over to prevent blob squish
M117 Autobots! Roll Out!
; End of custom start GCode
G92 E0
G92 E0
G1 F2100 E-1.5
;LAYER_COUNT:90
;LAYER:0
M107
G0 F6000 X52.986 Y55.254 Z0.2
;TYPE:SKIRT
G1 F2100 E0
G1 F1200 X53.675 Y54.618 E0.03119
G1 X54.415 Y54.043 E0.06236
G1 X55.203 Y53.533 E0.09358
G1 X56.03 Y53.092 E0.12475
G1 X56.892 Y52.723 E0.15593
G1 X57.783 Y52.429 E0.18714
G1 X58.695 Y52.211 E0.21833
G1 X59.623 Y52.073 E0.24953
G1 X60.408 Y52.017 E0.27571
G1 X60.729 Y52.006 E0.28639
G1 X61.106 Y52 E0.29893
G1 X88.152 Y52 E1.19849
G1 X91.238 Y51.951 E1.30114
G1 X92.604 Y51.907 E1.3466
G1 X92.954 Y51.901 E1.35824
G1 X116.356 Y51.9 E2.13659
G1 X117.263 Y51.912 E2.16676
G1 X118.557 Y51.947 E2.20982
G1 X119.062 Y51.967 E2.22663
G1 X119.549 Y51.974 E2.24283
G1 X120.008 Y51.987 E2.2581
G1 X120.629 Y51.988 E2.27875
G1 X121.519 Y52 E2.30836
G1 X163.676 Y52.001 E3.71051
G1 X164.374 Y52.011 E3.73372
G1 X165.31 Y52.065 E3.76491
G1 X166.238 Y52.197 E3.79608
G1 X167.152 Y52.409 E3.82729
G1 X168.044 Y52.698 E3.85848
G1 X168.909 Y53.061 E3.88968
G1 X169.739 Y53.497 E3.92086
G1 X170.53 Y54.002 E3.95207
G1 X171.274 Y54.573 E3.98327
G1 X171.967 Y55.205 E4.01446
G1 X172.604 Y55.893 E4.04565
G1 X173.179 Y56.634 E4.07684
G1 X173.69 Y57.42 E4.10802
G1 X174.132 Y58.248 E4.13924
G1 X174.501 Y59.11 E4.17043
G1 X174.796 Y60 E4.20161
G1 X175.014 Y60.912 E4.2328
G1 X175.154 Y61.84 E4.26401
G1 X175.212 Y62.701 E4.29272
G1 X175.221 Y63.021 E4.30336
G1 X175.225 Y63.33 E4.31364
G1 X175.224 Y170.416 E7.87534
G1 X175.214 Y171.142 E7.89949
G1 X175.169 Y171.991 E7.92776
G1 X175.15 Y172.199 E7.93471
G1 X175.08 Y172.789 E7.95447
G1 X175.011 Y173.261 E7.97034
G1 X174.836 Y174.183 E8.00155
G1 X174.583 Y175.086 E8.03274
G1 X174.396 Y175.613 E8.05134
G1 X174.31 Y175.837 E8.05932
G1 X174.15 Y176.23 E8.07343
G1 X173.99 Y176.603 E8.08693
G1 X173.584 Y177.449 E8.11814
G1 X173.107 Y178.256 E8.14932
G1 X172.73 Y178.801 E8.17136
G1 X172.397 Y179.252 E8.19001
G1 X172.165 Y179.555 E8.2027
G1 X172.092 Y179.647 E8.20661
G1 X171.478 Y180.356 E8.2378
G1 X170.806 Y181.011 E8.26902
G1 X170.339 Y181.406 E8.28936
G1 X169.947 Y181.719 E8.30604
G1 X169.64 Y181.955 E8.31892
G1 X169.477 Y182.076 E8.32567
G1 X168.7 Y182.603 E8.3569
G1 X167.882 Y183.061 E8.38808
G1 X167.3 Y183.334 E8.40946
G1 X167.065 Y183.436 E8.41798
G1 X166.8 Y183.547 E8.42754
G1 X166.448 Y183.689 E8.44016
G1 X165.564 Y184.003 E8.47137
G1 X164.657 Y184.24 E8.50255
G1 X163.987 Y184.363 E8.5252
G1 X163.428 Y184.448 E8.54401
G1 X163.019 Y184.502 E8.55773
G1 X162.861 Y184.52 E8.56302
G1 X161.975 Y184.585 E8.59257
G1 X161.497 Y184.598 E8.60847
G1 X161.197 Y184.601 E8.61845
G1 X63.925 Y184.599 E11.85373
G1 X63.226 Y184.589 E11.87698
G1 X62.358 Y184.542 E11.90589
G1 X62.155 Y184.523 E11.91267
G1 X61.589 Y184.455 E11.93163
G1 X61.11 Y184.385 E11.94774
G1 X60.189 Y184.21 E11.97892
G1 X59.286 Y183.957 E12.01011
G1 X58.737 Y183.762 E12.02948
G1 X58.517 Y183.677 E12.03733
G1 X58.145 Y183.525 E12.05069
G1 X57.772 Y183.365 E12.06419
G1 X56.926 Y182.959 E12.0954
G1 X56.119 Y182.482 E12.12658
G1 X55.57 Y182.102 E12.14879
G1 X55.114 Y181.765 E12.16765
G1 X54.792 Y181.518 E12.18115
G1 X54.703 Y181.447 E12.18493
G1 X53.996 Y180.831 E12.21612
G1 X53.343 Y180.158 E12.24731
G1 X52.965 Y179.709 E12.26683
G1 X52.649 Y179.313 E12.28368
G1 X52.407 Y178.998 E12.29689
G1 X52.29 Y178.84 E12.30343
G1 X51.764 Y178.063 E12.33464
G1 X51.307 Y177.245 E12.36581
G1 X51.031 Y176.653 E12.38753
G1 X50.93 Y176.419 E12.39601
G1 X50.828 Y176.175 E12.4048
G1 X50.686 Y175.823 E12.41743
G1 X50.372 Y174.939 E12.44863
G1 X50.135 Y174.032 E12.47981
G1 X50.012 Y173.362 E12.50247
G1 X49.927 Y172.803 E12.52127
G1 X49.873 Y172.394 E12.53499
G1 X49.855 Y172.236 E12.54028
G1 X49.79 Y171.35 E12.56983
G1 X49.777 Y170.872 E12.58574
G1 X49.774 Y170.572 E12.59571
G1 X49.776 Y63.508 E16.15668
G1 X49.786 Y62.845 E16.17873
G1 X49.84 Y61.909 E16.20991
G1 X49.974 Y60.981 E16.2411
G1 X50.186 Y60.067 E16.27231
G1 X50.476 Y59.175 E16.3035
G1 X50.84 Y58.311 E16.33469
G1 X51.276 Y57.481 E16.36587
G1 X51.782 Y56.691 E16.39707
G1 X52.353 Y55.947 E16.42827
G1 X52.986 Y55.254 E16.45948
G0 F6000 X53.377 Y55.429
G1 F1200 X54.063 Y54.815 E16.4901
G1 X54.8 Y54.263 E16.52073
G1 X55.581 Y53.776 E16.55134
G1 X56.402 Y53.359 E16.58197
G1 X57.256 Y53.016 E16.61258
G1 X58.137 Y52.747 E16.64322
G1 X59.038 Y52.556 E16.67385
G1 X59.951 Y52.444 E16.70444
G1 X60.422 Y52.417 E16.72013
G1 X60.743 Y52.406 E16.73082
G1 X61.106 Y52.4 E16.74289
G1 X88.158 Y52.4 E17.64265
G1 X91.193 Y52.351 E17.7436
G1 X92.616 Y52.306 E17.79096
G1 X92.954 Y52.301 E17.8022
G1 X116.356 Y52.3 E18.58055
G1 X117.257 Y52.312 E18.61052
G1 X118.546 Y52.347 E18.65341
G1 X119.041 Y52.367 E18.66989
G1 X119.537 Y52.374 E18.68639
G1 X119.996 Y52.387 E18.70166
G1 X120.624 Y52.388 E18.72255
G1 X121.514 Y52.4 E18.75215
G1 X163.67 Y52.401 E20.15427
G1 X164.368 Y52.411 E20.17748
G1 X165.287 Y52.464 E20.2081
G1 X166.198 Y52.597 E20.23872
G1 X167.094 Y52.808 E20.26934
G1 X167.968 Y53.096 E20.29994
G1 X168.815 Y53.459 E20.33059
G1 X169.626 Y53.894 E20.3612
G1 X170.396 Y54.398 E20.39181
G1 X171.12 Y54.967 E20.42244
G1 X171.792 Y55.597 E20.45308
G1 X172.407 Y56.282 E20.48369
G1 X172.96 Y57.018 E20.51431
G1 X173.447 Y57.799 E20.54493
G1 X173.864 Y58.62 E20.57555
G1 X174.209 Y59.474 E20.60619
G1 X174.478 Y60.354 E20.63679
G1 X174.67 Y61.255 E20.66743
G1 X174.783 Y62.168 E20.69803
G1 X174.812 Y62.712 E20.71615
G1 X174.821 Y63.032 E20.7268
G1 X174.825 Y63.33 E20.73671
G1 X174.824 Y170.41 E24.29821
G1 X174.814 Y171.136 E24.32236
G1 X174.771 Y171.954 E24.3496
G1 X174.752 Y172.162 E24.35655
G1 X174.685 Y172.731 E24.3756
G1 X174.616 Y173.203 E24.39147
G1 X174.443 Y174.108 E24.42211
G1 X174.192 Y174.994 E24.45274
G1 X174.023 Y175.469 E24.46951
G1 X173.937 Y175.693 E24.47749
G1 X173.783 Y176.073 E24.49113
G1 X173.623 Y176.446 E24.50463
G1 X173.223 Y177.275 E24.53524
G1 X172.753 Y178.067 E24.56587
G1 X172.408 Y178.563 E24.58597
G1 X172.075 Y179.014 E24.60461
G1 X171.852 Y179.307 E24.61686
G1 X171.779 Y179.399 E24.62077
G1 X171.176 Y180.094 E24.65137
G1 X170.514 Y180.735 E24.68202
G1 X170.089 Y181.093 E24.7005
G1 X169.697 Y181.406 E24.71719
G1 X169.401 Y181.634 E24.72961
G1 X169.238 Y181.755 E24.73636
G1 X168.476 Y182.271 E24.76697
G1 X167.672 Y182.719 E24.79759
G1 X167.14 Y182.968 E24.81712
G1 X166.905 Y183.07 E24.82564
G1 X166.651 Y183.176 E24.8348
G1 X166.299 Y183.318 E24.84742
G1 X165.431 Y183.625 E24.87804
G1 X164.539 Y183.856 E24.90869
G1 X163.926 Y183.968 E24.92942
G1 X163.367 Y184.053 E24.94822
G1 X162.974 Y184.105 E24.96141
G1 X162.816 Y184.123 E24.9667
G1 X161.962 Y184.185 E24.99518
G1 X161.493 Y184.198 E25.01078
G1 X161.197 Y184.201 E25.02063
G1 X63.93 Y184.199 E28.25574
G1 X63.231 Y184.189 E28.27899
G1 X62.395 Y184.144 E28.30684
G1 X62.192 Y184.125 E28.31362
G1 X61.647 Y184.06 E28.33187
G1 X61.168 Y183.99 E28.34797
G1 X60.264 Y183.817 E28.37859
G1 X59.378 Y183.567 E28.40921
G1 X58.881 Y183.389 E28.42676
G1 X58.661 Y183.304 E28.43461
G1 X58.302 Y183.158 E28.4475
G1 X57.929 Y182.998 E28.461
G1 X57.1 Y182.598 E28.49161
G1 X56.308 Y182.128 E28.52224
G1 X55.808 Y181.781 E28.54249
G1 X55.352 Y181.444 E28.56135
G1 X55.042 Y181.205 E28.57436
G1 X54.953 Y181.134 E28.57815
G1 X54.259 Y180.529 E28.60877
G1 X53.62 Y179.867 E28.63938
G1 X53.278 Y179.46 E28.65706
G1 X52.962 Y179.064 E28.67391
G1 X52.728 Y178.76 E28.68667
G1 X52.611 Y178.602 E28.69321
G1 X52.096 Y177.839 E28.72382
G1 X51.649 Y177.034 E28.75445
G1 X51.398 Y176.495 E28.77422
G1 X51.297 Y176.261 E28.7827
G1 X51.199 Y176.026 E28.79117
G1 X51.057 Y175.674 E28.80379
G1 X50.75 Y174.806 E28.83442
G1 X50.519 Y173.914 E28.86506
G1 X50.407 Y173.301 E28.88579
G1 X50.322 Y172.742 E28.9046
G1 X50.27 Y172.349 E28.91778
G1 X50.252 Y172.191 E28.92307
G1 X50.19 Y171.337 E28.95155
G1 X50.177 Y170.868 E28.96715
G1 X50.174 Y170.572 E28.977
G1 X50.176 Y63.514 E32.53776
G1 X50.186 Y62.851 E32.55982
G1 X50.24 Y61.932 E32.59044
G1 X50.373 Y61.021 E32.62106
G1 X50.585 Y60.125 E32.65168
G1 X50.874 Y59.251 E32.6823
G1 X51.238 Y58.405 E32.71293
G1 X51.674 Y57.594 E32.74355
G1 X52.178 Y56.824 E32.77416
G1 X52.747 Y56.101 E32.80476
G1 X53.377 Y55.429 E32.8354
G0 F6000 X53.768 Y55.608
G1 F1200 X54.451 Y55.016 E32.86546
G1 X55.183 Y54.487 E32.8955
G1 X55.959 Y54.025 E32.92554
G1 X56.772 Y53.633 E32.95556
G1 X57.618 Y53.315 E32.98562
G1 X58.488 Y53.073 E33.01566
G1 X59.376 Y52.909 E33.04569
G1 X60.436 Y52.817 E33.08108
G1 X60.757 Y52.806 E33.09176
G1 X61.106 Y52.8 E33.10337
G1 X88.165 Y52.8 E34.00336
G1 X91.212 Y52.751 E34.10471
G1 X92.629 Y52.706 E34.15187
G1 X92.954 Y52.701 E34.16268
G1 X116.356 Y52.7 E34.94103
G1 X117.252 Y52.712 E34.97083
G1 X118.659 Y52.751 E35.01765
G1 X119.057 Y52.767 E35.0309
G1 X119.526 Y52.774 E35.0465
G1 X119.985 Y52.787 E35.06177
G1 X120.619 Y52.788 E35.08286
G1 X121.509 Y52.8 E35.11246
G1 X163.664 Y52.801 E36.51454
G1 X164.362 Y52.811 E36.53776
G1 X165.264 Y52.864 E36.56781
G1 X166.157 Y52.996 E36.59784
G1 X167.035 Y53.207 E36.62787
G1 X167.891 Y53.495 E36.65791
G1 X168.718 Y53.857 E36.68794
G1 X169.51 Y54.292 E36.71799
G1 X170.261 Y54.794 E36.74803
G1 X170.964 Y55.361 E36.77807
G1 X171.614 Y55.988 E36.80811
G1 X172.206 Y56.67 E36.83815
G1 X172.736 Y57.401 E36.86818
G1 X173.198 Y58.177 E36.89822
G1 X173.591 Y58.99 E36.92825
G1 X173.909 Y59.835 E36.95828
G1 X174.152 Y60.705 E36.98833
G1 X174.317 Y61.593 E37.01837
G1 X174.412 Y62.723 E37.05608
G1 X174.421 Y63.043 E37.06673
G1 X174.425 Y63.33 E37.07628
G1 X174.424 Y170.404 E40.63757
G1 X174.414 Y171.13 E40.66172
G1 X174.373 Y171.918 E40.68797
G1 X174.354 Y172.126 E40.69491
G1 X174.289 Y172.673 E40.71323
G1 X174.22 Y173.145 E40.7291
G1 X174.05 Y174.032 E40.75914
G1 X173.649 Y175.326 E40.8042
G1 X173.563 Y175.55 E40.81218
G1 X173.415 Y175.915 E40.82528
G1 X173.255 Y176.288 E40.83878
G1 X172.863 Y177.101 E40.8688
G1 X172.4 Y177.877 E40.89885
G1 X172.087 Y178.326 E40.91705
G1 X171.754 Y178.777 E40.9357
G1 X171.465 Y179.15 E40.95139
G1 X170.873 Y179.832 E40.98143
G1 X170.223 Y180.459 E41.01147
G1 X169.839 Y180.781 E41.02814
G1 X169.447 Y181.094 E41.04482
G1 X169.163 Y181.313 E41.05675
G1 X169 Y181.434 E41.0635
G1 X168.251 Y181.94 E41.09357
G1 X167.461 Y182.377 E41.12359
G1 X166.981 Y182.601 E41.14121
G1 X166.746 Y182.703 E41.14973
G1 X166.501 Y182.805 E41.15856
G1 X166.149 Y182.947 E41.17118
G1 X165.297 Y183.248 E41.20124
G1 X164.422 Y183.472 E41.23128
G1 X163.866 Y183.572 E41.25007
G1 X163.307 Y183.657 E41.26887
G1 X162.929 Y183.707 E41.28156
G1 X162.771 Y183.725 E41.28684
G1 X161.949 Y183.786 E41.31426
G1 X161.488 Y183.798 E41.3296
G1 X161.197 Y183.801 E41.33928
G1 X63.936 Y183.799 E44.57419
G1 X63.237 Y183.789 E44.59744
G1 X62.432 Y183.746 E44.62425
G1 X62.229 Y183.727 E44.63104
G1 X61.705 Y183.664 E44.64859
G1 X61.226 Y183.594 E44.66469
G1 X60.339 Y183.424 E44.69473
G1 X59.471 Y183.176 E44.72475
G1 X59.025 Y183.016 E44.74051
G1 X58.805 Y182.931 E44.74836
G1 X58.46 Y182.79 E44.76075
G1 X58.087 Y182.63 E44.77425
G1 X57.274 Y182.238 E44.80427
G1 X56.498 Y181.775 E44.83433
G1 X56.046 Y181.459 E44.85267
G1 X55.59 Y181.122 E44.87153
G1 X55.291 Y180.893 E44.88406
G1 X55.202 Y180.822 E44.88784
G1 X54.522 Y180.228 E44.91787
G1 X53.897 Y179.576 E44.94791
G1 X53.59 Y179.21 E44.9638
G1 X53.274 Y178.814 E44.98065
G1 X53.05 Y178.522 E44.99289
G1 X52.933 Y178.364 E44.99943
G1 X52.428 Y177.615 E45.02948
G1 X51.991 Y176.825 E45.05951
G1 X51.765 Y176.336 E45.07742
G1 X51.664 Y176.102 E45.0859
G1 X51.57 Y175.876 E45.09404
G1 X51.428 Y175.524 E45.10666
G1 X51.127 Y174.672 E45.13672
G1 X50.903 Y173.797 E45.16676
G1 X50.803 Y173.241 E45.18555
G1 X50.718 Y172.682 E45.20436
G1 X50.668 Y172.304 E45.21704
G1 X50.65 Y172.146 E45.22233
G1 X50.589 Y171.324 E45.24974
G1 X50.577 Y170.863 E45.26508
G1 X50.574 Y170.572 E45.27476
G1 X50.576 Y63.52 E48.83532
G1 X50.586 Y62.857 E48.85738
G1 X50.64 Y61.956 E48.8874
G1 X50.773 Y61.062 E48.91746
G1 X50.984 Y60.184 E48.94749
G1 X51.273 Y59.329 E48.97751
G1 X51.636 Y58.502 E49.00755
G1 X52.071 Y57.71 E49.0376
G1 X52.574 Y56.96 E49.06764
G1 X53.141 Y56.257 E49.09768
G1 X53.768 Y55.608 E49.12769
G1 F2100 E47.62769
;MESH:New_Top_Drawer.stl
G0 F6000 X61.585 Y62.335
G0 X61.585 Y63.81
G0 X61.545 Y170.95
G0 X61.613 Y171.469
G0 X61.798 Y171.915
G0 X62.084 Y172.287
G0 X62.463 Y172.578
G0 X62.906 Y172.762
G0 X63.199 Y172.799
G0 X161.585 Y173.001
;TYPE:WALL-INNER
G1 F2100 E49.12769
G1 F1200 X63.414 Y173 E52.39287
G1 X62.861 Y172.928 E52.41142
G1 X62.378 Y172.728 E52.42881
G1 X61.963 Y172.409 E52.44622
G1 X61.648 Y172 E52.46339
G1 X61.447 Y171.514 E52.48088
G1 X61.374 Y170.96 E52.49947
G1 X61.375 Y63.6 E56.07028
G1 X92.052 Y63.6 E57.0906
G1 X92.361 Y63.54 E57.10107
G1 X92.709 Y63.5 E57.11272
G1 X117.044 Y63.5 E57.9221
G1 X117.26 Y63.516 E57.92931
G1 X117.697 Y63.6 E57.94411
G1 X163.625 Y63.6 E59.47168
G1 X163.625 Y170.961 E63.04252
G1 X163.553 Y171.514 E63.06107
G1 X163.353 Y171.997 E63.07846
G1 X163.034 Y172.412 E63.09586
G1 X162.625 Y172.727 E63.11303
G1 X162.139 Y172.928 E63.13053
G1 X161.585 Y173.001 E63.14911
G0 F6000 X161.614 Y173.401
;TYPE:WALL-OUTER
G1 F1200 X63.386 Y173.4 E66.41619
G1 X62.754 Y173.318 E66.43739
G1 X62.635 Y173.267 E66.44169
G1 X62.176 Y173.078 E66.4582
G1 X61.679 Y172.696 E66.47905
G1 X61.297 Y172.198 E66.49993
G1 X61.057 Y171.619 E66.52077
G1 X60.974 Y170.989 E66.54191
G1 X60.975 Y63.2 E70.12698
G1 X92.014 Y63.2 E71.15935
G1 X92.292 Y63.146 E71.16876
G1 X92.689 Y63.1 E71.18206
G1 X117.061 Y63.1 E71.99267
G1 X117.314 Y63.119 E72.00111
G1 X117.735 Y63.2 E72.01537
G1 X164.025 Y63.2 E73.55498
G1 X164.025 Y170.989 E77.14006
G1 X163.943 Y171.621 E77.16126
G1 X163.892 Y171.74 E77.16556
G1 X163.703 Y172.199 E77.18207
G1 X163.321 Y172.696 E77.20292
G1 X162.823 Y173.078 E77.2238
G1 X162.244 Y173.318 E77.24464
G1 X161.614 Y173.401 E77.26578
G0 F6000 X161.586 Y172.962
G0 X161.564 Y172.611
;TYPE:SKIN
G1 F1200 X63.434 Y172.61 E80.52959
G1 X62.969 Y172.55 E80.54519
G1 X62.575 Y172.386 E80.55938
G1 X62.239 Y172.128 E80.57347
G1 X61.99 Y171.804 E80.58706
G1 X61.825 Y171.408 E80.60133
G1 X61.764 Y170.939 E80.61706
G1 X61.765 Y63.99 E84.1742
G1 X92.089 Y63.99 E85.18278
G1 X92.406 Y63.928 E85.19353
G1 X92.736 Y63.89 E85.20457
G1 X117.042 Y63.89 E86.01299
G1 X117.2 Y63.902 E86.01826
G1 X117.66 Y63.99 E86.03384
G1 X163.235 Y63.99 E87.54967
G1 X163.235 Y170.941 E91.10688
G1 X163.175 Y171.406 E91.12247
G1 X163.011 Y171.8 E91.13667
G1 X162.753 Y172.136 E91.15076
G1 X162.429 Y172.385 E91.16435
G1 X162.033 Y172.55 E91.17862
G1 X161.564 Y172.611 E91.19435
G1 F2100 E89.69435
G0 F6000 X161.563 Y172.89
G0 X63.424 Y172.829
G0 X62.906 Y172.762
G0 X62.463 Y172.578
G0 X62.084 Y172.287
G0 X61.853 Y171.987
G0 X61.514 Y171.182
G1 F2100 E91.19435
G0 F6000 X61.948 Y171.126
G1 F1200 X63.247 Y172.424 E91.25542
G0 F6000 X63.837 Y172.449
G1 F1200 X61.924 Y170.535 E91.34543
G0 F6000 X61.924 Y169.97
G1 F1200 X64.403 Y172.449 E91.46203
G0 F6000 X64.968 Y172.449
G1 F1200 X61.924 Y169.404 E91.60524
G0 F6000 X61.924 Y168.838
G1 F1200 X65.534 Y172.449 E91.77506
G0 F6000 X66.1 Y172.449
