;FLAVOR:Marlin
;TIME:1053
;Filament used: 1.68209m
;Layer height: 0.2
;MINX:81.5
;MINY:81.501
;MINZ:0.2
;MAXX:143.5
;MAXY:143.499
;MAXZ:8
;POSTPROCESSED
;Generated with Cura_SteamEngine 4.13.1
;
;

M82 ;absolute extrusion mode
; Ender 3 Custom Start G-code
M117 Getting the bed up to temp!
M140 S50 ; Set Heat Bed temperature
M190 S50 ; Wait for Heat Bed temperature
M117 Pre-heating the extruder!
M104 S210; start warming extruder to 160
G28 ; Home all axes
M117 Auto bed-level GO!
G29 ; Auto bed-level (BL-Touch)
G92 E0 ; Reset Extruder
M117 Getting the extruder up to temp!
M104 S210 ; Set Extruder temperature
M109 S210 ; Wait for Extruder temperature
G1 Z2.0 F3000 ; move z up little to prevent scratching of surface
G1 X0.1 Y20 Z0.3 F5000.0 ; move to start-line position
M117 LET THE PURGE BEGIN!
; SET_GCODE_OFFSET Z=-.005
G1 X0.1 Y200.0 Z0.3 F1500.0 E15 ; draw 1st line
G1 X0.4 Y200.0 Z0.3 F5000.0 ; move to side a little
G1 X0.4 Y20 Z0.3 F1500.0 E30 ; draw 2nd line
G92 E0 ; reset extruder
G1 Z1.0 F3000 ; move z up little to prevent scratching of surface
G1 X5 Y20 Z0.3 F5000.0 ; Move over to prevent blob squish
; SET_GCODE_OFFSET Z=+.075
M117 Autobots! Roll Out!
; End of custom start GCode
G92 E0
G92 E0
G1 F2700 E-3.5
;LAYER_COUNT:40
;LAYER:0
M107
G0 F9000 X84.914 Y85.141 Z0.2
;TYPE:SKIRT
G1 F2700 E0
G1 F2100 X85.599 Y84.5 E0.0312
G1 X85.968 Y84.195 E0.04713
G1 X86.194 Y84.017 E0.05669
G1 X86.955 Y83.469 E0.08788
G1 X87.759 Y82.988 E0.11905
G1 X88.451 Y82.643 E0.14476
G1 X88.68 Y82.539 E0.15313
G1 X89.55 Y82.188 E0.18433
G1 X90.447 Y81.913 E0.21554
G1 X91.448 Y81.7 E0.24957
G1 X91.704 Y81.658 E0.2582
G1 X92.635 Y81.546 E0.28939
G1 X93.31 Y81.514 E0.31187
G1 X94.128 Y81.501 E0.33908
G1 X130.967 Y81.502 E1.56435
G1 X131.643 Y81.512 E1.58683
G1 X132.934 Y81.607 E1.62989
G1 X133.234 Y81.647 E1.63996
G1 X134.157 Y81.811 E1.67114
G1 X135.064 Y82.053 E1.70236
G1 X136.316 Y82.53 E1.74692
G1 X136.548 Y82.635 E1.75539
G1 X137.385 Y83.057 E1.78657
G1 X138.183 Y83.55 E1.81776
G1 X138.871 Y84.056 E1.84617
G1 X139.034 Y84.186 E1.8531
G1 X139.741 Y84.802 E1.88429
G1 X140.394 Y85.475 E1.91548
G1 X140.84 Y86.01 E1.93865
G1 X141.005 Y86.221 E1.94756
G1 X141.551 Y86.984 E1.97876
G1 X142.03 Y87.79 E2.00995
G1 X142.354 Y88.445 E2.03425
G1 X142.459 Y88.676 E2.04269
G1 X142.81 Y89.546 E2.07389
G1 X143.086 Y90.442 E2.10508
G1 X143.298 Y91.433 E2.13878
G1 X143.34 Y91.687 E2.14735
G1 X143.453 Y92.618 E2.17854
G1 X143.486 Y93.303 E2.20135
G1 X143.499 Y94.1 E2.22786
G1 X143.5 Y130.764 E3.44731
G1 X143.489 Y131.644 E3.47658
G1 X143.387 Y132.996 E3.52168
G1 X143.351 Y133.257 E3.53044
G1 X143.183 Y134.18 E3.56164
G1 X142.864 Y135.309 E3.60066
G1 X142.836 Y135.391 E3.60355
G1 X142.495 Y136.264 E3.63472
G1 X142.198 Y136.886 E3.65764
G1 X142.075 Y137.124 E3.66655
G1 X141.609 Y137.938 E3.69775
G1 X141.076 Y138.71 E3.72895
G1 X140.722 Y139.154 E3.74784
G1 X140.648 Y139.242 E3.75166
G1 X140.014 Y139.933 E3.78285
G1 X139.022 Y140.814 E3.82698
G1 X138.794 Y140.993 E3.83662
G1 X138.032 Y141.54 E3.86782
G1 X137.226 Y142.021 E3.89904
G1 X136.533 Y142.364 E3.92476
G1 X136.303 Y142.468 E3.93315
G1 X135.433 Y142.818 E3.96434
G1 X134.536 Y143.092 E3.99554
G1 X133.552 Y143.3 E4.02899
G1 X133.296 Y143.342 E4.03762
G1 X132.365 Y143.454 E4.06881
G1 X131.69 Y143.486 E4.09128
G1 X130.872 Y143.499 E4.11849
G1 X94.198 Y143.499 E5.33827
G1 X93.357 Y143.488 E5.36625
G1 X92.382 Y143.43 E5.39873
G1 X92.151 Y143.406 E5.40646
G1 X91.223 Y143.27 E5.43765
G1 X89.873 Y142.921 E5.48403
G1 X89.674 Y142.856 E5.49099
G1 X88.795 Y142.527 E5.52221
G1 X87.948 Y142.125 E5.55339
G1 X86.839 Y141.452 E5.59654
G1 X86.587 Y141.278 E5.60673
G1 X85.839 Y140.713 E5.6379
G1 X85.141 Y140.086 E5.66911
G1 X84.221 Y139.065 E5.71482
G1 X84.017 Y138.808 E5.72574
G1 X83.466 Y138.049 E5.75693
G1 X82.981 Y137.246 E5.78813
G1 X82.567 Y136.405 E5.81931
G1 X82.243 Y135.581 E5.84876
G1 X82.138 Y135.279 E5.85939
G1 X81.868 Y134.381 E5.89058
G1 X81.676 Y133.463 E5.92177
G1 X81.584 Y132.773 E5.94493
G1 X81.565 Y132.585 E5.95121
G1 X81.514 Y131.817 E5.97681
G1 X81.502 Y131.347 E5.99245
G1 X81.5 Y131.021 E6.00329
G1 X81.502 Y93.999 E7.23465
G1 X81.512 Y93.35 E7.25624
G1 X81.565 Y92.435 E7.28672
G1 X81.585 Y92.233 E7.29347
G1 X81.717 Y91.305 E7.32465
G1 X82.003 Y90.131 E7.36484
G1 X82.072 Y89.903 E7.37276
G1 X82.381 Y89.017 E7.40397
G1 X82.765 Y88.162 E7.43514
G1 X83.221 Y87.342 E7.46635
G1 X83.548 Y86.839 E7.48631
G1 X83.722 Y86.587 E7.49649
G1 X84.287 Y85.839 E7.52767
G1 X84.914 Y85.141 E7.55888
G0 F9000 X85.224 Y85.397
G1 F2100 X86.215 Y84.51 E7.60311
G1 X86.441 Y84.332 E7.61268
G1 X87.189 Y83.794 E7.64332
G1 X87.98 Y83.323 E7.67394
G1 X88.617 Y83.008 E7.69758
G1 X88.846 Y82.904 E7.70594
G1 X89.7 Y82.56 E7.73657
G1 X90.58 Y82.291 E7.76717
G1 X91.513 Y82.095 E7.79888
G1 X91.769 Y82.053 E7.80751
G1 X92.683 Y81.943 E7.83813
G1 X93.317 Y81.914 E7.85924
G1 X94.303 Y81.9 E7.89204
G1 X130.961 Y81.902 E9.11129
G1 X131.637 Y81.912 E9.13377
G1 X132.881 Y82.004 E9.17526
G1 X133.181 Y82.044 E9.18533
G1 X134.087 Y82.205 E9.21593
G1 X134.976 Y82.444 E9.24655
G1 X136.151 Y82.894 E9.2884
G1 X136.383 Y82.999 E9.29687
G1 X137.204 Y83.415 E9.32748
G1 X137.986 Y83.9 E9.35809
G1 X138.621 Y84.369 E9.38434
G1 X138.784 Y84.499 E9.39128
G1 X139.479 Y85.104 E9.42193
G1 X140.118 Y85.766 E9.45253
G1 X140.525 Y86.256 E9.47371
G1 X140.69 Y86.467 E9.48262
G1 X141.225 Y87.217 E9.51326
G1 X141.693 Y88.009 E9.54386
G1 X141.99 Y88.611 E9.56619
G1 X142.095 Y88.842 E9.57463
G1 X142.439 Y89.696 E9.60525
G1 X142.708 Y90.576 E9.63586
G1 X142.903 Y91.499 E9.66723
G1 X142.945 Y91.753 E9.67579
G1 X143.056 Y92.667 E9.70642
G1 X143.086 Y93.309 E9.72779
G1 X143.099 Y94.106 E9.75431
G1 X143.1 Y130.764 E10.97356
G1 X143.089 Y131.638 E11.00263
G1 X142.991 Y132.941 E11.04609
G1 X142.955 Y133.202 E11.05485
G1 X142.789 Y134.108 E11.08549
G1 X142.485 Y135.179 E11.12252
G1 X142.457 Y135.261 E11.1254
G1 X142.122 Y136.119 E11.15603
G1 X141.843 Y136.703 E11.17756
G1 X141.72 Y136.941 E11.18647
G1 X141.262 Y137.739 E11.21707
G1 X140.737 Y138.495 E11.24769
G1 X140.416 Y138.896 E11.26477
G1 X140.342 Y138.984 E11.26859
G1 X139.719 Y139.662 E11.29922
G1 X138.775 Y140.5 E11.3412
G1 X138.547 Y140.679 E11.35084
G1 X137.799 Y141.215 E11.38145
G1 X137.007 Y141.685 E11.41208
G1 X136.368 Y141.999 E11.43576
G1 X136.138 Y142.103 E11.44416
G1 X135.284 Y142.446 E11.47477
G1 X134.403 Y142.713 E11.50539
G1 X133.487 Y142.905 E11.53651
G1 X133.231 Y142.947 E11.54514
G1 X132.317 Y143.057 E11.57576
G1 X131.683 Y143.086 E11.59687
G1 X130.697 Y143.1 E11.62967
G1 X94.042 Y143.098 E12.84882
G1 X93.363 Y143.088 E12.8714
G1 X92.424 Y143.032 E12.90269
G1 X92.193 Y143.008 E12.91042
G1 X91.282 Y142.873 E12.94105
G1 X89.997 Y142.541 E12.98519
G1 X89.798 Y142.476 E12.99215
G1 X88.936 Y142.153 E13.02277
G1 X88.105 Y141.755 E13.05341
G1 X87.066 Y141.123 E13.09386
G1 X86.814 Y140.949 E13.10405
G1 X86.08 Y140.393 E13.13467
G1 X85.397 Y139.776 E13.16529
G1 X84.535 Y138.816 E13.2082
G1 X84.331 Y138.559 E13.21911
G1 X83.79 Y137.814 E13.24974
G1 X83.316 Y137.025 E13.28035
G1 X82.913 Y136.197 E13.31098
G1 X82.621 Y135.45 E13.33765
G1 X82.516 Y135.148 E13.34829
G1 X82.252 Y134.266 E13.37891
G1 X82.065 Y133.365 E13.40952
G1 X81.982 Y132.733 E13.43072
G1 X81.963 Y132.545 E13.437
G1 X81.914 Y131.804 E13.4617
G1 X81.902 Y131.343 E13.47704
G1 X81.9 Y131.021 E13.48775
G1 X81.902 Y94.005 E14.71891
G1 X81.912 Y93.356 E14.7405
G1 X81.963 Y92.475 E14.76985
G1 X81.983 Y92.273 E14.7766
G1 X82.113 Y91.361 E14.80724
G1 X82.385 Y90.247 E14.84538
G1 X82.454 Y90.019 E14.8533
G1 X82.759 Y89.15 E14.88393
G1 X83.138 Y88.311 E14.91455
G1 X83.588 Y87.508 E14.94517
G1 X83.877 Y87.066 E14.96273
G1 X84.051 Y86.814 E14.97292
G1 X84.607 Y86.08 E15.00355
G1 X85.224 Y85.397 E15.03416
G0 F9000 X85.533 Y85.653
G1 F2100 X86.463 Y84.824 E15.0756
G1 X86.689 Y84.646 E15.08516
G1 X87.422 Y84.119 E15.11519
G1 X88.2 Y83.659 E15.14525
G1 X88.782 Y83.372 E15.16683
G1 X89.011 Y83.268 E15.1752
G1 X89.849 Y82.931 E15.20524
G1 X90.714 Y82.67 E15.23529
G1 X91.578 Y82.49 E15.26465
G1 X91.834 Y82.448 E15.27327
G1 X92.73 Y82.341 E15.30329
G1 X93.323 Y82.314 E15.32303
G1 X94.303 Y82.3 E15.35563
G1 X130.955 Y82.302 E16.57468
G1 X131.631 Y82.312 E16.59717
G1 X132.828 Y82.4 E16.63709
G1 X133.128 Y82.44 E16.64715
G1 X134.017 Y82.599 E16.67719
G1 X134.889 Y82.836 E16.70724
G1 X135.986 Y83.258 E16.74634
G1 X136.218 Y83.363 E16.75481
G1 X137.023 Y83.772 E16.78484
G1 X137.789 Y84.25 E16.81487
G1 X138.372 Y84.682 E16.839
G1 X138.535 Y84.812 E16.84594
G1 X139.215 Y85.405 E16.87595
G1 X139.841 Y86.057 E16.90601
G1 X140.21 Y86.503 E16.92526
G1 X140.375 Y86.714 E16.93417
G1 X140.899 Y87.449 E16.96419
G1 X141.356 Y88.228 E16.99423
G1 X141.626 Y88.776 E17.01455
G1 X141.731 Y89.007 E17.02299
G1 X142.068 Y89.845 E17.05303
G1 X142.329 Y90.71 E17.08308
G1 X142.508 Y91.564 E17.11211
G1 X142.55 Y91.818 E17.12067
G1 X142.658 Y92.715 E17.15072
G1 X142.686 Y93.316 E17.17073
G1 X142.7 Y94.279 E17.20276
G1 X142.699 Y130.904 E18.42092
G1 X142.689 Y131.633 E18.44516
G1 X142.594 Y132.887 E18.48699
G1 X142.558 Y133.148 E18.49575
G1 X142.395 Y134.036 E18.52578
G1 X142.107 Y135.05 E18.56084
G1 X142.079 Y135.132 E18.56373
G1 X141.749 Y135.973 E18.59377
G1 X141.487 Y136.519 E18.61392
G1 X141.364 Y136.757 E18.62283
G1 X140.915 Y137.54 E18.65285
G1 X140.397 Y138.28 E18.68289
G1 X140.11 Y138.639 E18.69818
G1 X140.036 Y138.727 E18.702
G1 X139.424 Y139.392 E18.73206
G1 X138.528 Y140.185 E18.77186
G1 X138.3 Y140.364 E18.7815
G1 X137.565 Y140.89 E18.81156
G1 X136.787 Y141.348 E18.84159
G1 X136.204 Y141.635 E18.8632
G1 X135.974 Y141.739 E18.8716
G1 X135.135 Y142.074 E18.90164
G1 X134.27 Y142.334 E18.93168
G1 X133.422 Y142.51 E18.96049
G1 X133.166 Y142.552 E18.96912
G1 X132.27 Y142.659 E18.99913
G1 X131.677 Y142.686 E19.01887
G1 X130.697 Y142.7 E19.05147
G1 X94.048 Y142.698 E20.27042
G1 X93.369 Y142.688 E20.29301
G1 X92.465 Y142.634 E20.32313
G1 X92.234 Y142.61 E20.33085
G1 X91.341 Y142.477 E20.36088
G1 X90.121 Y142.161 E20.4028
G1 X89.922 Y142.096 E20.40976
G1 X89.077 Y141.778 E20.43979
G1 X88.263 Y141.386 E20.46984
G1 X87.293 Y140.794 E20.50764
G1 X87.041 Y140.62 E20.51782
G1 X86.322 Y140.074 E20.54785
G1 X85.653 Y139.467 E20.5779
G1 X84.848 Y138.568 E20.61803
G1 X84.644 Y138.311 E20.62895
G1 X84.114 Y137.579 E20.659
G1 X83.651 Y136.804 E20.68903
G1 X83.259 Y135.99 E20.71908
G1 X82.999 Y135.319 E20.74301
G1 X82.894 Y135.017 E20.75365
G1 X82.635 Y134.151 E20.78371
G1 X82.454 Y133.267 E20.81372
G1 X82.38 Y132.693 E20.83297
G1 X82.361 Y132.505 E20.83926
G1 X82.314 Y131.792 E20.86302
G1 X82.302 Y131.34 E20.87806
G1 X82.3 Y131.021 E20.88867
G1 X82.302 Y94.011 E22.11963
G1 X82.312 Y93.362 E22.14122
G1 X82.361 Y92.514 E22.16947
G1 X82.381 Y92.312 E22.17622
G1 X82.509 Y91.418 E22.20626
G1 X82.768 Y90.362 E22.24242
G1 X82.837 Y90.134 E22.25035
G1 X83.137 Y89.283 E22.28036
G1 X83.511 Y88.46 E22.31043
G1 X83.956 Y87.675 E22.34044
G1 X84.206 Y87.293 E22.35562
G1 X84.38 Y87.041 E22.36581
G1 X84.926 Y86.322 E22.39584
G1 X85.533 Y85.653 E22.42588
G1 F2700 E18.92588
;MESH:4040_Endcap_V2.stl
G0 F9000 X92.133 Y92.553
G0 X92.982 Y93.253
G0 X93.271 Y131.454
G0 X93.414 Y131.694
G0 X131.59 Y131.881
;TYPE:WALL-INNER
G1 F2700 E22.42588
G1 F2100 X131.456 Y131.9 E22.43038
G1 X93.549 Y131.899 E23.69117
G1 X93.332 Y131.852 E23.69856
G1 X93.162 Y131.695 E23.70626
G1 X93.1 Y131.479 E23.71373
G1 X93.101 Y93.549 E24.97529
G1 X93.148 Y93.332 E24.98267
G1 X93.213 Y93.24 E24.98642
G1 X93.41 Y93.119 E24.99411
G1 X93.544 Y93.1 E24.99861
G1 X131.463 Y93.101 E26.2598
G1 X131.589 Y93.12 E26.26404
G1 X131.768 Y93.226 E26.27096
G1 X131.881 Y93.41 E26.27814
G1 X131.9 Y93.544 E26.28264
G1 X131.9 Y131.445 E27.54323
G1 X131.853 Y131.668 E27.55081
G1 X131.788 Y131.76 E27.55456
G1 X131.59 Y131.881 E27.56228
G0 F9000 X131.727 Y132.265
;TYPE:WALL-OUTER
G1 F2100 X131.485 Y132.3 E27.57041
G1 X93.507 Y132.299 E28.83356
G1 X93.167 Y132.226 E28.84513
G1 X92.943 Y132.068 E28.85425
G1 X92.804 Y131.884 E28.86192
G1 X92.708 Y131.598 E28.87195
G1 X92.7 Y131.5 E28.87522
G1 X92.701 Y93.507 E30.13887
G1 X92.774 Y93.167 E30.15044
G1 X92.932 Y92.943 E30.15956
G1 X93.273 Y92.735 E30.17284
G1 X93.515 Y92.7 E30.18097
G1 X131.494 Y92.701 E31.44416
G1 X131.725 Y92.735 E31.45193
G1 X132.057 Y92.932 E31.46477
G1 X132.265 Y93.273 E31.47805
G1 X132.3 Y93.515 E31.48619
G1 X132.3 Y131.485 E32.74907
G1 X132.227 Y131.831 E32.76083
G1 X132.068 Y132.057 E32.77002
G1 X131.727 Y132.265 E32.78331
G0 F9000 X131.578 Y131.852
G0 X131.455 Y131.507
;TYPE:SKIN
G1 F2100 X131.43 Y131.51 E32.78415
G1 X93.589 Y131.509 E34.04274
G1 X93.506 Y131.481 E34.04566
G1 X93.49 Y131.423 E34.04766
G1 X93.491 Y93.589 E35.30602
G1 X93.545 Y93.493 E35.30969
G1 X93.57 Y93.49 E35.31052
G1 X131.432 Y93.491 E36.56982
G1 X131.507 Y93.545 E36.57289
G1 X131.51 Y93.568 E36.57366
G1 X131.51 Y131.403 E37.83206
G1 X131.455 Y131.507 E37.83597
G1 F2700 E34.33597
G0 F9000 X131.599 Y131.747
G0 X94.012 Y131.789
G1 F2700 E37.83597
G0 F9000 X94.013 Y131.348
G1 F2100 X93.649 Y130.985 E37.85307
G0 F9000 X93.649 Y130.419
G1 F2100 X94.579 Y131.348 E37.89679
G0 F9000 X95.144 Y131.348
G1 F2100 X93.649 Y129.853 E37.96711
G0 F9000 X93.649 Y129.288
G1 F2100 X95.71 Y131.348 E38.06403
G0 F9000 X96.276 Y131.348
G1 F2100 X93.649 Y128.722 E38.18758
G0 F9000 X93.649 Y128.156
G1 F2100 X96.841 Y131.348 E38.33772
G0 F9000 X97.407 Y131.348
G1 F2100 X93.649 Y127.591 E38.51446
G0 F9000 X93.649 Y127.025
G1 F2100 X97.973 Y131.348 E38.71782
G0 F9000 X98.538 Y131.348
G1 F2100 X93.649 Y126.459 E38.94779
G0 F9000 X93.649 Y125.893
G1 F2100 X99.104 Y131.348 E39.20437
G0 F9000 X99.67 Y131.348
G1 F2100 X93.649 Y125.328 E39.48756
G0 F9000 X93.649 Y124.762
G1 F2100 X100.235 Y131.348 E39.79734
G0 F9000 X100.801 Y131.348
G1 F2100 X93.649 Y124.196 E40.13375
G0 F9000 X93.649 Y123.631
G1 F2100 X101.367 Y131.348 E40.49676
G0 F9000 X101.932 Y131.348
G1 F2100 X93.649 Y123.065 E40.88637
G0 F9000 X93.649 Y122.499
G1 F2100 X102.498 Y131.348 E41.3026
G0 F9000 X103.064 Y131.348
G1 F2100 X93.649 Y121.934 E41.74543
G0 F9000 X93.649 Y121.368
G1 F2100 X103.63 Y131.348 E42.21488
G0 F9000 X104.195 Y131.348
G1 F2100 X93.649 Y120.802 E42.71093
G0 F9000 X93.649 Y120.237
G1 F2100 X104.761 Y131.348 E43.23358
G0 F9000 X105.327 Y131.348
G1 F2100 X93.649 Y119.671 E43.78285
G0 F9000 X93.649 Y119.105
G1 F2100 X105.892 Y131.348 E44.35873
G0 F9000 X106.458 Y131.348
G1 F2100 X93.649 Y118.54 E44.9612
G0 F9000 X93.649 Y117.974
G1 F2100 X107.024 Y131.348 E45.59029
G0 F9000 X107.589 Y131.348
G1 F2100 X93.649 Y117.408 E46.24599
G0 F9000 X93.649 Y116.843
G1 F2100 X108.155 Y131.348 E46.92828
G0 F9000 X108.721 Y131.348
G1 F2100 X93.649 Y116.277 E47.6372
G0 F9000 X93.649 Y115.711
G1 F2100 X109.286 Y131.348 E48.37272
G0 F9000 X109.852 Y131.348
G1 F2100 X93.649 Y115.145 E49.13486
G0 F9000 X93.649 Y114.58
G1 F2100 X110.418 Y131.348 E49.9236
G0 F9000 X110.983 Y131.348
G1 F2100 X93.649 Y114.014 E50.73893
G0 F9000 X93.649 Y113.448
G1 F2100 X111.549 Y131.348 E51.5809
G0 F9000 X112.115 Y131.348
G1 F2100 X93.649 Y112.883 E52.44946
G0 F9000 X93.649 Y112.317
G1 F2100 X112.681 Y131.348 E53.34464
G0 F9000 X113.246 Y131.348
G1 F2100 X93.649 Y111.751 E54.26642
G0 F9000 X93.649 Y111.186
G1 F2100 X113.812 Y131.348 E55.2148
G0 F9000 X114.378 Y131.348
G1 F2100 X93.649 Y110.62 E56.18981
G0 F9000 X93.649 Y110.054
G1 F2100 X114.943 Y131.348 E57.19141
G0 F9000 X115.509 Y131.348
G1 F2100 X93.649 Y109.489 E58.21962
G0 F9000 X93.649 Y108.923
G1 F2100 X116.075 Y131.348 E59.27444
G0 F9000 X116.64 Y131.348
G1 F2100 X93.649 Y108.357 E60.35587
G0 F9000 X93.649 Y107.792
G1 F2100 X117.206 Y131.348 E61.4639
G0 F9000 X117.772 Y131.348
G1 F2100 X93.649 Y107.226 E62.59854
G0 F9000 X93.649 Y106.66
G1 F2100 X118.337 Y131.348 E63.75979
G0 F9000 X118.903 Y131.348
G1 F2100 X93.649 Y106.095 E64.94764
G0 F9000 X93.649 Y105.529
G1 F2100 X119.469 Y131.348 E66.16211
G0 F9000 X120.034 Y131.348
G1 F2100 X93.649 Y104.963 E67.40318
G0 F9000 X93.649 Y104.397
G1 F2100 X120.6 Y131.348 E68.67087
G0 F9000 X121.166 Y131.348
G1 F2100 X93.649 Y103.832 E69.96516
G0 F9000 X93.649 Y103.266
G1 F2100 X121.731 Y131.348 E71.28605
