;FLAVOR:Marlin
;TIME:1642
;Filament used: 1.25157m
;Layer height: 0.2
;MINX:86.5
;MINY:86.5
;MINZ:0.2
;MAXX:138.5
;MAXY:138.5
;MAXZ:30
;POSTPROCESSED
;Generated with Cura_SteamEngine 4.13.1
;
;

M82 ;absolute extrusion mode
; Ender 3 Custom Start G-code
M117 Getting the bed up to temp!
M140 S55.0 ; Set Heat Bed temperature
M190 S55.0 ; Wait for Heat Bed temperature
M117 Pre-heating the extruder!
M104 S210; start warming extruder to 160
G28 ; Home all axes
M117 Auto bed-level GO!
G29 ; Auto bed-level (BL-Touch)
G92 E0 ; Reset Extruder
M117 Getting the extruder up to temp!
M104 S210 ; Set Extruder temperature
M109 S210 ; Wait for Extruder temperature
G1 Z2.0 F3000 ; move z up little to prevent scratching of surface
G1 X0.1 Y20 Z0.3 F5000.0 ; move to start-line position
M117 LET THE PURGE BEGIN!
SET_GCODE_OFFSET Z=-.005
G1 X0.1 Y200.0 Z0.3 F1500.0 E15 ; draw 1st line
G1 X0.4 Y200.0 Z0.3 F5000.0 ; move to side a little
G1 X0.4 Y20 Z0.3 F1500.0 E30 ; draw 2nd line
G92 E0 ; reset extruder
G1 Z1.0 F3000 ; move z up little to prevent scratching of surface
G1 X5 Y20 Z0.3 F5000.0 ; Move over to prevent blob squish
; SET_GCODE_OFFSET Z=+.075
M117 Autobots! Roll Out!
; End of custom start GCode
G92 E0
G92 E0
G1 F2700 E-3.5
;LAYER_COUNT:150
;LAYER:0
M107
G0 F9000 X89.698 Y89.764 Z0.2
;TYPE:SKIRT
G1 F2700 E0
G1 F2100 X90.386 Y89.127 E0.03119
G1 X91.126 Y88.551 E0.06237
G1 X91.912 Y88.039 E0.09357
G1 X92.739 Y87.597 E0.12476
G1 X93.601 Y87.227 E0.15596
G1 X94.491 Y86.931 E0.18716
G1 X95.403 Y86.713 E0.21835
G1 X96.33 Y86.572 E0.24953
G1 X97.201 Y86.513 E0.27857
G1 X97.522 Y86.504 E0.28925
G1 X97.83 Y86.5 E0.29949
G1 X126.793 Y86.5 E1.26281
G1 X127.649 Y86.511 E1.29128
G1 X128.585 Y86.565 E1.32246
G1 X129.513 Y86.697 E1.35364
G1 X130.427 Y86.909 E1.38485
G1 X131.319 Y87.198 E1.41603
G1 X132.184 Y87.561 E1.44723
G1 X133.014 Y87.997 E1.47842
G1 X133.805 Y88.502 E1.50963
G1 X134.549 Y89.073 E1.54082
G1 X135.242 Y89.705 E1.57202
G1 X135.879 Y90.393 E1.6032
G1 X136.454 Y91.134 E1.6344
G1 X136.965 Y91.92 E1.66558
G1 X137.407 Y92.748 E1.6968
G1 X137.776 Y93.61 E1.72798
G1 X138.071 Y94.5 E1.75917
G1 X138.289 Y95.412 E1.79036
G1 X138.429 Y96.34 E1.82157
G1 X138.487 Y97.201 E1.85027
G1 X138.496 Y97.521 E1.86092
G1 X138.5 Y97.83 E1.8712
G1 X138.499 Y126.9 E2.83807
G1 X138.49 Y127.627 E2.86225
G1 X138.439 Y128.564 E2.89347
G1 X138.307 Y129.492 E2.92464
G1 X138.098 Y130.406 E2.95583
G1 X137.811 Y131.299 E2.98702
G1 X137.449 Y132.165 E3.01824
G1 X137.015 Y132.996 E3.04942
G1 X136.511 Y133.787 E3.08062
G1 X135.942 Y134.532 E3.1118
G1 X135.311 Y135.227 E3.14302
G1 X134.624 Y135.865 E3.1742
G1 X133.885 Y136.442 E3.20539
G1 X133.099 Y136.954 E3.23659
G1 X132.273 Y137.397 E3.26776
G1 X131.411 Y137.769 E3.29899
G1 X130.522 Y138.065 E3.33015
G1 X129.61 Y138.285 E3.36135
G1 X128.683 Y138.426 E3.39254
G1 X127.799 Y138.487 E3.42201
G1 X127.478 Y138.496 E3.43269
G1 X127.17 Y138.5 E3.44294
G1 X98.065 Y138.499 E4.41098
G1 X97.367 Y138.49 E4.43419
G1 X96.431 Y138.438 E4.46537
G1 X95.502 Y138.306 E4.49658
G1 X94.588 Y138.096 E4.52777
G1 X93.695 Y137.809 E4.55897
G1 X92.83 Y137.446 E4.59017
G1 X91.999 Y137.012 E4.62135
G1 X91.208 Y136.508 E4.65255
G1 X90.463 Y135.938 E4.68375
G1 X89.769 Y135.307 E4.71494
G1 X89.132 Y134.62 E4.74611
G1 X88.555 Y133.88 E4.77732
G1 X88.043 Y133.094 E4.80852
G1 X87.6 Y132.267 E4.83972
G1 X87.229 Y131.406 E4.8709
G1 X86.933 Y130.516 E4.9021
G1 X86.714 Y129.604 E4.93329
G1 X86.573 Y128.677 E4.96448
G1 X86.513 Y127.788 E4.99412
G1 X86.504 Y127.455 E5.00519
G1 X86.5 Y127.158 E5.01507
G1 X86.501 Y98.025 E5.98404
G1 X86.51 Y97.36 E6.00616
G1 X86.563 Y96.424 E6.03734
G1 X86.695 Y95.495 E6.06855
G1 X86.906 Y94.581 E6.09975
G1 X87.194 Y93.689 E6.13093
G1 X87.557 Y92.824 E6.16213
G1 X87.992 Y91.993 E6.19333
G1 X88.496 Y91.203 E6.22449
G1 X89.066 Y90.458 E6.25569
G1 X89.698 Y89.764 E6.28691
G0 F9000 X90.089 Y89.939
G1 F2100 X90.774 Y89.323 E6.31755
G1 X91.51 Y88.77 E6.34817
G1 X92.291 Y88.282 E6.3788
G1 X93.111 Y87.864 E6.40941
G1 X93.965 Y87.519 E6.44005
G1 X94.845 Y87.249 E6.47066
G1 X95.745 Y87.057 E6.50127
G1 X96.659 Y86.943 E6.53191
G1 X97.212 Y86.913 E6.55033
G1 X97.533 Y86.904 E6.56101
G1 X97.83 Y86.9 E6.57089
G1 X126.793 Y86.9 E7.5342
G1 X127.643 Y86.911 E7.56247
G1 X128.562 Y86.964 E7.59309
G1 X129.473 Y87.097 E7.62371
G1 X130.369 Y87.308 E7.65433
G1 X131.243 Y87.596 E7.68493
G1 X132.09 Y87.959 E7.71558
G1 X132.901 Y88.394 E7.74619
G1 X133.671 Y88.898 E7.7768
G1 X134.395 Y89.467 E7.80743
G1 X135.067 Y90.097 E7.83807
G1 X135.682 Y90.782 E7.86868
G1 X136.235 Y91.518 E7.8993
G1 X136.722 Y92.299 E7.92992
G1 X137.139 Y93.12 E7.96054
G1 X137.484 Y93.974 E7.99118
G1 X137.753 Y94.854 E8.02178
G1 X137.945 Y95.755 E8.05242
G1 X138.058 Y96.668 E8.08302
G1 X138.087 Y97.212 E8.10114
G1 X138.096 Y97.532 E8.11179
G1 X138.1 Y97.83 E8.1217
G1 X138.099 Y126.895 E9.08841
G1 X138.09 Y127.622 E9.11259
G1 X138.039 Y128.541 E9.1432
G1 X137.908 Y129.453 E9.17385
G1 X137.698 Y130.349 E9.20445
G1 X137.412 Y131.224 E9.23507
G1 X137.051 Y132.071 E9.2657
G1 X136.617 Y132.883 E9.29632
G1 X136.115 Y133.655 E9.32695
G1 X135.547 Y134.38 E9.35758
G1 X134.919 Y135.053 E9.3882
G1 X134.235 Y135.669 E9.41881
G1 X133.5 Y136.223 E9.44942
G1 X132.72 Y136.712 E9.48004
G1 X131.9 Y137.131 E9.51067
G1 X131.047 Y137.477 E9.54129
G1 X130.167 Y137.748 E9.57191
G1 X129.267 Y137.941 E9.60253
G1 X128.353 Y138.056 E9.63317
G1 X127.788 Y138.087 E9.65199
G1 X127.467 Y138.096 E9.66267
G1 X127.17 Y138.1 E9.67255
G1 X98.07 Y138.099 E10.64042
G1 X97.372 Y138.09 E10.66363
G1 X96.453 Y138.038 E10.69425
G1 X95.542 Y137.907 E10.72486
G1 X94.646 Y137.697 E10.75547
G1 X93.771 Y137.41 E10.7861
G1 X92.924 Y137.048 E10.81673
G1 X92.112 Y136.614 E10.84736
G1 X91.341 Y136.112 E10.87796
G1 X90.616 Y135.544 E10.90859
G1 X89.943 Y134.915 E10.93923
G1 X89.328 Y134.231 E10.96982
G1 X88.774 Y133.496 E11.00043
G1 X88.286 Y132.715 E11.03106
G1 X87.867 Y131.895 E11.06169
G1 X87.521 Y131.042 E11.09231
G1 X87.251 Y130.162 E11.12292
G1 X87.058 Y129.261 E11.15357
G1 X86.944 Y128.348 E11.18417
G1 X86.913 Y127.777 E11.20319
G1 X86.904 Y127.444 E11.21427
G1 X86.9 Y127.158 E11.22379
G1 X86.901 Y98.031 E12.19255
G1 X86.91 Y97.366 E12.21467
G1 X86.962 Y96.446 E12.24532
G1 X87.094 Y95.535 E12.27594
G1 X87.305 Y94.639 E12.30655
G1 X87.592 Y93.764 E12.33718
G1 X87.955 Y92.918 E12.3678
G1 X88.389 Y92.106 E12.39842
G1 X88.892 Y91.335 E12.42904
G1 X89.461 Y90.611 E12.45967
G1 X90.089 Y89.939 E12.49026
G0 F9000 X90.481 Y90.117
G1 F2100 X91.162 Y89.524 E12.5203
G1 X91.894 Y88.994 E12.55035
G1 X92.669 Y88.531 E12.58038
G1 X93.482 Y88.138 E12.61041
G1 X94.327 Y87.818 E12.64047
G1 X95.196 Y87.575 E12.67048
G1 X96.084 Y87.409 E12.70052
G1 X97.223 Y87.313 E12.73854
G1 X97.544 Y87.304 E12.74922
G1 X97.83 Y87.3 E12.75874
G1 X126.793 Y87.3 E13.72205
G1 X127.637 Y87.311 E13.75012
G1 X128.539 Y87.364 E13.78018
G1 X129.432 Y87.496 E13.8102
G1 X130.31 Y87.707 E13.84023
G1 X131.166 Y87.995 E13.87027
G1 X131.993 Y88.357 E13.9003
G1 X132.785 Y88.792 E13.93035
G1 X133.536 Y89.294 E13.9604
G1 X134.239 Y89.861 E13.99044
G1 X134.889 Y90.488 E14.02047
G1 X135.481 Y91.17 E14.05051
G1 X136.011 Y91.901 E14.08054
G1 X136.473 Y92.677 E14.11058
G1 X136.866 Y93.49 E14.14061
G1 X137.184 Y94.335 E14.17064
G1 X137.427 Y95.205 E14.20069
G1 X137.592 Y96.093 E14.23073
G1 X137.687 Y97.223 E14.26844
G1 X137.696 Y97.543 E14.27909
G1 X137.7 Y97.83 E14.28864
G1 X137.699 Y126.89 E15.25518
G1 X137.69 Y127.617 E15.27936
G1 X137.639 Y128.519 E15.30941
G1 X137.508 Y129.413 E15.33946
G1 X137.299 Y130.291 E15.36948
G1 X137.013 Y131.148 E15.39953
G1 X136.652 Y131.976 E15.42957
G1 X136.22 Y132.768 E15.45958
G1 X135.719 Y133.52 E15.48963
G1 X135.153 Y134.224 E15.51968
G1 X134.528 Y134.875 E15.54969
G1 X133.847 Y135.469 E15.57975
G1 X133.116 Y136 E15.6098
G1 X132.342 Y136.464 E15.63981
G1 X131.529 Y136.858 E15.66986
G1 X130.685 Y137.178 E15.69988
G1 X129.815 Y137.423 E15.72994
G1 X128.928 Y137.589 E15.75996
G1 X127.777 Y137.687 E15.79838
G1 X127.456 Y137.696 E15.80906
G1 X127.17 Y137.7 E15.81857
G1 X98.075 Y137.699 E16.78628
G1 X97.377 Y137.69 E16.80949
G1 X96.476 Y137.639 E16.83951
G1 X95.582 Y137.507 E16.86957
G1 X94.704 Y137.298 E16.89959
G1 X93.847 Y137.011 E16.92965
G1 X93.02 Y136.65 E16.95966
G1 X92.227 Y136.217 E16.98971
G1 X91.476 Y135.716 E17.01973
G1 X90.772 Y135.15 E17.04978
G1 X90.121 Y134.524 E17.07982
G1 X89.528 Y133.843 E17.10985
G1 X88.998 Y133.112 E17.13988
G1 X88.534 Y132.337 E17.16993
G1 X88.14 Y131.524 E17.19998
G1 X87.82 Y130.68 E17.23
G1 X87.576 Y129.81 E17.26005
G1 X87.41 Y128.922 E17.2901
G1 X87.313 Y127.767 E17.32865
G1 X87.304 Y127.434 E17.33973
G1 X87.3 Y127.158 E17.34891
G1 X87.301 Y98.036 E18.31751
G1 X87.31 Y97.371 E18.33963
G1 X87.362 Y96.469 E18.36968
G1 X87.494 Y95.576 E18.3997
G1 X87.704 Y94.698 E18.42973
G1 X87.991 Y93.841 E18.45979
G1 X88.353 Y93.014 E18.48982
G1 X88.786 Y92.222 E18.51984
G1 X89.288 Y91.471 E18.54988
G1 X89.855 Y90.767 E18.57995
G1 X90.481 Y90.117 E18.60996
G1 F2700 E15.10996
;MESH:30 mm cube.stl
G0 F9000 X97.92 Y96.835
G0 X97.92 Y97.92
G0 X126.718 Y98.282
G0 X126.9 Y126.9
;TYPE:WALL-INNER
G1 F2700 E18.60996
G1 F2100 X98.1 Y126.9 E19.56785
G1 X98.1 Y98.1 E20.52575
G1 X126.9 Y98.1 E21.48364
G1 X126.9 Y126.9 E22.44153
G0 F9000 X127.3 Y127.3
;TYPE:WALL-OUTER
G1 F2100 X97.7 Y127.3 E23.42603
G1 X97.7 Y97.7 E24.41053
G1 X127.3 Y97.7 E25.39503
G1 X127.3 Y127.3 E26.37953
G0 F9000 X127.03 Y127.03
G0 X126.79 Y126.51
G0 X126.51 Y126.51
;TYPE:SKIN
G1 F2100 X98.49 Y126.51 E27.31148
G1 X98.49 Y98.49 E28.24343
G1 X126.51 Y98.49 E29.17538
G1 X126.51 Y126.51 E30.10733
G0 F9000 X126.79 Y126.51
G0 X126.79 Y99.196
G0 X126.349 Y99.196
G1 F2100 X125.803 Y98.65 E30.13301
G0 F9000 X125.237 Y98.65
G1 F2100 X126.349 Y99.762 E30.18531
G0 F9000 X126.349 Y100.327
G1 F2100 X124.672 Y98.65 E30.26419
G0 F9000 X124.106 Y98.65
G1 F2100 X126.349 Y100.893 E30.3697
G0 F9000 X126.349 Y101.459
G1 F2100 X123.54 Y98.65 E30.50182
G0 F9000 X122.975 Y98.65
G1 F2100 X126.349 Y102.024 E30.66053
G0 F9000 X126.349 Y102.59
G1 F2100 X122.409 Y98.65 E30.84585
G0 F9000 X121.843 Y98.65
G1 F2100 X126.349 Y103.156 E31.0578
G0 F9000 X126.349 Y103.721
G1 F2100 X121.278 Y98.65 E31.29632
G0 F9000 X120.712 Y98.65
G1 F2100 X126.349 Y104.287 E31.56147
G0 F9000 X126.349 Y104.853
G1 F2100 X120.146 Y98.65 E31.85324
G0 F9000 X119.58 Y98.65
G1 F2100 X126.349 Y105.419 E32.17164
G0 F9000 X126.349 Y105.984
G1 F2100 X119.015 Y98.65 E32.5166
G0 F9000 X118.449 Y98.65
G1 F2100 X126.349 Y106.55 E32.8882
G0 F9000 X126.349 Y107.116
G1 F2100 X117.883 Y98.65 E33.28641
G0 F9000 X117.318 Y98.65
G1 F2100 X126.349 Y107.681 E33.7112
G0 F9000 X126.349 Y108.247
G1 F2100 X116.752 Y98.65 E34.16261
G0 F9000 X116.186 Y98.65
G1 F2100 X126.349 Y108.813 E34.64065
G0 F9000 X126.349 Y109.378
G1 F2100 X115.621 Y98.65 E35.14526
G0 F9000 X115.055 Y98.65
G1 F2100 X126.349 Y109.944 E35.6765
G0 F9000 X126.349 Y110.51
G1 F2100 X114.489 Y98.65 E36.23436
G0 F9000 X113.924 Y98.65
G1 F2100 X126.349 Y111.075 E36.81879
G0 F9000 X126.349 Y111.641
G1 F2100 X113.358 Y98.65 E37.42985
G0 F9000 X112.792 Y98.65
G1 F2100 X126.349 Y112.207 E38.06753
G0 F9000 X126.349 Y112.772
G1 F2100 X112.227 Y98.65 E38.73178
G0 F9000 X111.661 Y98.65
G1 F2100 X126.349 Y113.338 E39.42266
G0 F9000 X126.349 Y113.904
G1 F2100 X111.095 Y98.65 E40.14016
G0 F9000 X110.529 Y98.65
G1 F2100 X126.349 Y114.469 E40.88426
G0 F9000 X126.349 Y115.035
G1 F2100 X109.964 Y98.65 E41.65496
G0 F9000 X109.398 Y98.65
G1 F2100 X126.349 Y115.601 E42.45229
G0 F9000 X126.349 Y116.167
G1 F2100 X108.832 Y98.65 E43.27623
G0 F9000 X108.267 Y98.65
G1 F2100 X126.349 Y116.732 E44.12675
G0 F9000 X126.349 Y117.298
G1 F2100 X107.701 Y98.65 E45.0039
G0 F9000 X107.135 Y98.65
G1 F2100 X126.349 Y117.864 E45.90767
G0 F9000 X126.349 Y118.429
G1 F2100 X106.57 Y98.65 E46.83801
G0 F9000 X106.004 Y98.65
G1 F2100 X126.349 Y118.995 E47.79498
G0 F9000 X126.349 Y119.561
G1 F2100 X105.438 Y98.65 E48.77857
G0 F9000 X104.873 Y98.65
G1 F2100 X126.349 Y120.126 E49.78873
G0 F9000 X126.349 Y120.692
G1 F2100 X104.307 Y98.65 E50.82552
G0 F9000 X103.741 Y98.65
G1 F2100 X126.349 Y121.258 E51.88893
G0 F9000 X126.349 Y121.823
G1 F2100 X103.176 Y98.65 E52.97892
G0 F9000 X102.61 Y98.65
G1 F2100 X126.349 Y122.389 E54.09553
G0 F9000 X126.349 Y122.955
G1 F2100 X102.044 Y98.65 E55.23876
G0 F9000 X101.479 Y98.65
G1 F2100 X126.349 Y123.52 E56.40857
G0 F9000 X126.349 Y124.086
G1 F2100 X100.913 Y98.65 E57.605
G0 F9000 X100.347 Y98.65
G1 F2100 X126.349 Y124.652 E58.82805
G0 F9000 X126.349 Y125.218
G1 F2100 X99.781 Y98.65 E60.07773
G0 F9000 X99.216 Y98.65
G1 F2100 X126.349 Y125.783 E61.35398
G0 F9000 X126.349 Y126.349
G1 F2100 X98.649 Y98.649 E62.65691
G0 F9000 X98.649 Y99.215
G1 F2100 X125.783 Y126.349 E63.93321
G0 F9000 X125.218 Y126.349
G1 F2100 X98.649 Y99.781 E65.18291
G0 F9000 X98.649 Y100.346
G1 F2100 X124.652 Y126.349 E66.40601
G0 F9000 X124.086 Y126.349
G1 F2100 X98.649 Y100.912 E67.60249
G0 F9000 X98.649 Y101.478
G1 F2100 X123.52 Y126.349 E68.77234
G0 F9000 X122.955 Y126.349
G1 F2100 X98.649 Y102.043 E69.91562
G0 F9000 X98.649 Y102.609
G1 F2100 X122.389 Y126.349 E71.03228
G0 F9000 X121.823 Y126.349
G1 F2100 X98.649 Y103.175 E72.12231
G0 F9000 X98.649 Y103.741
G1 F2100 X121.258 Y126.349 E73.18575
G0 F9000 X120.692 Y126.349
G1 F2100 X98.649 Y104.306 E74.22258
G0 F9000 X98.649 Y104.872
G1 F2100 X120.126 Y126.349 E75.2328
G0 F9000 X119.561 Y126.349
G1 F2100 X98.649 Y105.438 E76.21641
G0 F9000 X98.649 Y106.003
G1 F2100 X118.995 Y126.349 E77.17342
G0 F9000 X118.429 Y126.349
G1 F2100 X98.649 Y106.569 E78.10381
G0 F9000 X98.649 Y107.135
G1 F2100 X117.864 Y126.349 E79.0076
G0 F9000 X117.298 Y126.349
G1 F2100 X98.649 Y107.7 E79.8848
G0 F9000 X98.649 Y108.266
G1 F2100 X116.732 Y126.349 E80.73536
G0 F9000 X116.167 Y126.349
G1 F2100 X98.649 Y108.832 E81.55933
G0 F9000 X98.649 Y109.397
G1 F2100 X115.601 Y126.349 E82.3567
G0 F9000 X115.035 Y126.349
G1 F2100 X98.649 Y109.963 E83.12745
G0 F9000 X98.649 Y110.529
G1 F2100 X114.469 Y126.349 E83.87158
G0 F9000 X113.904 Y126.349
G1 F2100 X98.649 Y111.094 E84.58912
G0 F9000 X98.649 Y111.66
G1 F2100 X113.338 Y126.349 E85.28005
G0 F9000 X112.772 Y126.349
G1 F2100 X98.649 Y112.226 E85.94435
G0 F9000 X98.649 Y112.792
G1 F2100 X112.207 Y126.349 E86.58206
G0 F9000 X111.641 Y126.349
G1 F2100 X98.649 Y113.357 E87.19316
G0 F9000 X98.649 Y113.923
G1 F2100 X111.075 Y126.349 E87.77764
G0 F9000 X110.51 Y126.349
G1 F2100 X98.649 Y114.489 E88.33552
G0 F9000 X98.649 Y115.054
G1 F2100 X109.944 Y126.349 E88.8668
G0 F9000 X109.378 Y126.349
G1 F2100 X98.649 Y115.62 E89.37146
G0 F9000 X98.649 Y116.186
G1 F2100 X108.813 Y126.349 E89.84952
G0 F9000 X108.247 Y126.349
G1 F2100 X98.649 Y116.751 E90.30098
G0 F9000 X98.649 Y117.317
G1 F2100 X107.681 Y126.349 E90.72582
G0 F9000 X107.116 Y126.349
G1 F2100 X98.649 Y117.883 E91.12406
G0 F9000 X98.649 Y118.448
G1 F2100 X106.55 Y126.349 E91.4957
G0 F9000 X105.984 Y126.349
G1 F2100 X98.649 Y119.014 E91.84071
G0 F9000 X98.649 Y119.58
G1 F2100 X105.419 Y126.349 E92.15913
G0 F9000 X104.853 Y126.349
G1 F2100 X98.649 Y120.145 E92.45095
G0 F9000 X98.649 Y120.711
G1 F2100 X104.287 Y126.349 E92.71614
G0 F9000 X103.721 Y126.349
G1 F2100 X98.649 Y121.277 E92.95471
G0 F9000 X98.649 Y121.842
G1 F2100 X103.156 Y126.349 E93.16671
G0 F9000 X102.59 Y126.349
G1 F2100 X98.649 Y122.408 E93.35208
G0 F9000 X98.649 Y122.974
G1 F2100 X102.024 Y126.349 E93.51083
G0 F9000 X101.459 Y126.349
G1 F2100 X98.649 Y123.54 E93.64298
G0 F9000 X98.649 Y124.105
G1 F2100 X100.893 Y126.349 E93.74853
G0 F9000 X100.327 Y126.349
G1 F2100 X98.649 Y124.671 E93.82746
G0 F9000 X98.649 Y125.237
G1 F2100 X99.762 Y126.349 E93.87979
G0 F9000 X99.196 Y126.349
G1 F2100 X98.649 Y125.802 E93.90552
M104 S210
G0 F9000 X98.3 Y125.802
;MESH:NONMESH
G0 F300 X98.3 Y125.802 Z0.4
G0 F9000 X98.21 Y125.802
G0 X98.282 Y126.718
G0 X126.9 Y126.9
;TIME_ELAPSED:97.888054
;LAYER:1
M106 S85
;TYPE:WALL-INNER
;MESH:30 mm cube.stl
G1 F1420.3 X98.1 Y126.9 E94.86341
G1 X98.1 Y98.1 E95.8213
G1 X126.9 Y98.1 E96.77919
G1 X126.9 Y126.9 E97.73709
G0 F13500 X127.3 Y127.3
;TYPE:WALL-OUTER
G1 F1420.3 X97.7 Y127.3 E98.72159
