;FLAVOR:Marlin
;TIME:700
;Filament used: 0.275823m
;Layer height: 0.2
;MINX:85.542
;MINY:93.817
;MINZ:0.2
;MAXX:140.119
;MAXY:131.205
;MAXZ:4.2
;POSTPROCESSED
;Generated with Cura_SteamEngine 4.13.1
;
;

M82 ;absolute extrusion mode
; Ender 3 Custom Start G-code
M117 Getting the bed up to temp!
M140 S60 ; Set Heat Bed temperature
M190 S60 ; Wait for Heat Bed temperature
M117 Pre-heating the extruder!
M104 S205.0; start warming extruder to 160
G28 ; Home all axes
M117 Auto bed-level GO!
G29 ; Auto bed-level (BL-Touch)
G92 E0 ; Reset Extruder
M117 Getting the extruder up to temp!
M104 S205.0 ; Set Extruder temperature
M109 S205.0 ; Wait for Extruder temperature
G1 Z2.0 F3000 ; move z up little to prevent scratching of surface
G1 X0.1 Y20 Z0.3 F5000.0 ; move to start-line position
M117 LET THE PURGE BEGIN!
G1 X0.1 Y200.0 Z0.3 F1500.0 E15 ; draw 1st line
G1 X0.4 Y200.0 Z0.3 F5000.0 ; move to side a little
G1 X0.4 Y20 Z0.3 F1500.0 E30 ; draw 2nd line
G92 E0 ; reset extruder
G1 Z1.0 F3000 ; move z up little to prevent scratching of surface
G1 X5 Y20 Z0.3 F5000.0 ; Move over to prevent blob squish
; SET_GCODE_OFFSET Z=+.075
M117 Autobots! Roll Out!
; End of custom start GCode
G92 E0
G92 E0
G1 F2700 E-5
;LAYER_COUNT:21
;LAYER:0
M107
G0 F9000 X90.928 Y101.015 Z0.2
;TYPE:SKIRT
G1 F2700 E0
G1 F2100 X91.659 Y100.363 E0.03258
G1 X91.978 Y100.103 E0.04627
G1 X92.505 Y99.69 E0.06854
G1 X92.996 Y99.329 E0.08881
G1 X93.185 Y99.198 E0.09645
G1 X93.396 Y99.056 E0.10491
G1 X93.938 Y98.699 E0.1265
G1 X95.283 Y97.83 E0.17976
G1 X98.2 Y95.809 E0.29779
G1 X98.993 Y95.309 E0.32897
G1 X99.826 Y94.877 E0.36018
G1 X100.692 Y94.518 E0.39136
G1 X101.156 Y94.36 E0.40766
G1 X101.286 Y94.319 E0.4122
G1 X102.192 Y94.076 E0.4434
G1 X103.115 Y93.91 E0.47459
G1 X104.049 Y93.824 E0.50578
G1 X104.987 Y93.817 E0.53698
G1 X105.983 Y93.898 E0.57022
G1 X106.659 Y93.984 E0.59288
G1 X107.035 Y94.038 E0.60552
G1 X107.312 Y94.083 E0.61485
G1 X107.948 Y94.206 E0.6364
G1 X108.883 Y94.415 E0.66826
G1 X111.046 Y94.918 E0.74212
G1 X112.528 Y95.246 E0.79261
G1 X113.434 Y95.487 E0.82379
G1 X114.118 Y95.726 E0.84789
G1 X114.462 Y95.859 E0.86016
G1 X115.321 Y96.234 E0.89133
G1 X115.985 Y96.587 E0.91634
G1 X116.36 Y96.803 E0.93074
G1 X117.152 Y97.305 E0.96192
G1 X117.749 Y97.751 E0.98671
G1 X118.172 Y98.09 E1.00474
G1 X118.459 Y98.329 E1.01716
G1 X118.836 Y98.653 E1.03369
G1 X120.848 Y100.333 E1.12087
G1 X122.833 Y101.897 E1.20493
G1 X124.835 Y103.386 E1.28791
G1 X126.911 Y104.839 E1.37219
G1 X129.04 Y106.242 E1.457
G1 X131.13 Y107.535 E1.53874
G1 X132.391 Y108.259 E1.5871
G1 X132.712 Y108.462 E1.59973
G1 X133.607 Y108.98 E1.63413
G1 X134.152 Y109.318 E1.65545
G1 X134.343 Y109.444 E1.66307
G1 X134.697 Y109.687 E1.67735
G1 X135.441 Y110.259 E1.70856
G1 X135.904 Y110.671 E1.72917
G1 X136.123 Y110.877 E1.73917
G1 X136.508 Y111.257 E1.75717
G1 X137.132 Y111.957 E1.78836
G1 X137.455 Y112.37 E1.80579
G1 X137.665 Y112.653 E1.81751
G1 X138.191 Y113.429 E1.8487
G1 X138.66 Y114.27 E1.88072
G1 X138.877 Y114.708 E1.89698
G1 X138.922 Y114.803 E1.90048
G1 X139.287 Y115.667 E1.93167
G1 X139.516 Y116.348 E1.95557
G1 X139.613 Y116.671 E1.96679
G1 X139.844 Y117.58 E1.99798
G1 X139.999 Y118.521 E2.0297
G1 X140.034 Y118.812 E2.03945
G1 X140.072 Y119.18 E2.05175
G1 X140.119 Y120.117 E2.08296
G1 X140.085 Y121.054 E2.11414
G1 X139.972 Y121.985 E2.14533
G1 X139.779 Y122.903 E2.17654
G1 X139.51 Y123.801 E2.20771
G1 X139.164 Y124.673 E2.23892
G1 X138.746 Y125.513 E2.27012
G1 X138.258 Y126.313 E2.30129
G1 X137.703 Y127.069 E2.33248
G1 X137.086 Y127.776 E2.36369
G1 X136.411 Y128.427 E2.39488
G1 X135.683 Y129.018 E2.42607
G1 X134.907 Y129.545 E2.45727
G1 X134.089 Y130.004 E2.48847
G1 X133.235 Y130.392 E2.51967
G1 X132.351 Y130.705 E2.55086
G1 X131.444 Y130.942 E2.58204
G1 X130.52 Y131.101 E2.61322
G1 X129.302 Y131.189 E2.65384
G1 X128.279 Y131.205 E2.68787
G1 X105.445 Y131.204 E3.44733
G1 X105.193 Y131.201 E3.45571
G1 X103.576 Y131.164 E3.50951
G1 X103.228 Y131.151 E3.52109
G1 X102.99 Y131.138 E3.52902
G1 X102.604 Y131.11 E3.54189
G1 X101.504 Y131.011 E3.57862
G1 X101.109 Y130.968 E3.59184
G1 X100.943 Y130.947 E3.5974
G1 X100.301 Y130.846 E3.61902
G1 X99.601 Y130.715 E3.64271
G1 X99.197 Y130.632 E3.65642
G1 X98.976 Y130.582 E3.66396
G1 X98.109 Y130.348 E3.69383
G1 X97.545 Y130.171 E3.71349
G1 X97.22 Y130.064 E3.72487
G1 X96.976 Y129.979 E3.73346
G1 X96.065 Y129.615 E3.76609
G1 X95.857 Y129.521 E3.77368
G1 X95.456 Y129.33 E3.78846
G1 X95.129 Y129.166 E3.80062
G1 X94.285 Y128.695 E3.83277
G1 X93.823 Y128.41 E3.85083
G1 X93.447 Y128.168 E3.8657
G1 X92.657 Y127.593 E3.8982
G1 X92.255 Y127.272 E3.91531
G1 X91.99 Y127.053 E3.92674
G1 X91.829 Y126.916 E3.93377
G1 X91.18 Y126.317 E3.96315
G1 X90.957 Y126.094 E3.97364
G1 X90.723 Y125.853 E3.98481
G1 X90.437 Y125.549 E3.99869
G1 X90.112 Y125.188 E4.01485
G1 X90.007 Y125.066 E4.0202
G1 X89.717 Y124.714 E4.03537
G1 X89.558 Y124.513 E4.04389
G1 X89.329 Y124.214 E4.05642
G1 X89.147 Y123.967 E4.06662
G1 X88.893 Y123.608 E4.08125
G1 X88.56 Y123.116 E4.10101
G1 X88.141 Y122.446 E4.12729
G1 X87.972 Y122.153 E4.13854
G1 X87.805 Y121.852 E4.14999
G1 X87.573 Y121.419 E4.16633
G1 X87.293 Y120.859 E4.18716
G1 X87.175 Y120.605 E4.19647
G1 X86.97 Y120.136 E4.2135
G1 X86.747 Y119.591 E4.23308
G1 X86.515 Y118.97 E4.25513
G1 X86.451 Y118.782 E4.26174
G1 X86.303 Y118.312 E4.27812
G1 X86.158 Y117.814 E4.29538
G1 X85.934 Y116.901 E4.32664
G1 X85.846 Y116.462 E4.34153
G1 X85.784 Y116.13 E4.35277
G1 X85.742 Y115.881 E4.36117
G1 X85.623 Y114.913 E4.3936
G1 X85.573 Y114.277 E4.41482
G1 X85.549 Y113.881 E4.42802
G1 X85.542 Y113.716 E4.43351
G1 X85.542 Y112.792 E4.46424
G1 X85.552 Y112.552 E4.47223
G1 X85.582 Y112.068 E4.48836
G1 X85.623 Y111.591 E4.50429
G1 X85.744 Y110.659 E4.53554
G1 X85.781 Y110.445 E4.54277
G1 X85.869 Y109.992 E4.55812
G1 X85.964 Y109.553 E4.57305
G1 X86.264 Y108.448 E4.61114
G1 X86.418 Y107.979 E4.62756
G1 X86.519 Y107.686 E4.63786
G1 X86.614 Y107.422 E4.6472
G1 X86.87 Y106.776 E4.67031
G1 X86.925 Y106.649 E4.67491
G1 X87.154 Y106.153 E4.69308
G1 X87.304 Y105.849 E4.70436
G1 X87.588 Y105.311 E4.72459
G1 X87.698 Y105.116 E4.73204
G1 X87.936 Y104.715 E4.74755
G1 X88.156 Y104.361 E4.76141
G1 X88.72 Y103.54 E4.79454
G1 X89.145 Y102.977 E4.818
G1 X89.367 Y102.692 E4.83002
G1 X89.451 Y102.588 E4.83446
G1 X90.097 Y101.857 E4.86691
G1 X90.495 Y101.445 E4.88596
G1 X90.725 Y101.213 E4.89683
G1 X90.928 Y101.015 E4.90626
G0 F9000 X91.208 Y101.302
G1 F2100 X91.912 Y100.673 E4.93766
G1 X92.231 Y100.413 E4.95135
G1 X92.751 Y100.006 E4.97331
G1 X93.224 Y99.658 E4.99284
G1 X93.616 Y99.389 E5.00865
G1 X94.155 Y99.035 E5.0301
G1 X95.513 Y98.158 E5.08387
G1 X98.428 Y96.138 E5.20182
G1 X99.207 Y95.647 E5.23245
G1 X100.025 Y95.226 E5.26305
G1 X101.277 Y94.742 E5.3077
G1 X101.407 Y94.701 E5.31223
G1 X102.296 Y94.462 E5.34285
G1 X103.203 Y94.302 E5.37348
G1 X104.12 Y94.221 E5.4041
G1 X105.04 Y94.219 E5.4347
G1 X105.933 Y94.295 E5.46451
G1 X106.609 Y94.381 E5.48717
G1 X106.971 Y94.433 E5.49934
G1 X107.248 Y94.478 E5.50867
G1 X107.86 Y94.596 E5.5294
G1 X108.795 Y94.805 E5.56126
G1 X109.097 Y94.877 E5.57159
G1 X110.882 Y95.291 E5.63254
G1 X112.441 Y95.636 E5.68564
G1 X113.331 Y95.874 E5.71628
G1 X113.974 Y96.099 E5.73894
G1 X114.318 Y96.232 E5.75121
G1 X115.161 Y96.601 E5.78182
G1 X115.786 Y96.934 E5.80537
G1 X116.161 Y97.15 E5.81976
G1 X116.938 Y97.643 E5.85037
G1 X117.499 Y98.064 E5.8737
G1 X117.922 Y98.403 E5.89173
G1 X118.199 Y98.632 E5.90368
G1 X118.639 Y99.01 E5.92298
G1 X120.593 Y100.642 E6.00765
G1 X122.587 Y102.212 E6.09206
G1 X124.611 Y103.718 E6.17597
G1 X126.683 Y105.168 E6.26009
G1 X128.799 Y106.562 E6.34436
G1 X130.936 Y107.884 E6.42794
G1 X132.192 Y108.606 E6.47613
G1 X132.518 Y108.813 E6.48897
G1 X133.406 Y109.327 E6.5231
G1 X133.932 Y109.652 E6.54366
G1 X134.123 Y109.778 E6.55127
G1 X134.467 Y110.014 E6.56515
G1 X135.196 Y110.576 E6.59576
G1 X135.63 Y110.962 E6.61508
G1 X135.849 Y111.168 E6.62508
G1 X136.221 Y111.536 E6.64248
G1 X136.834 Y112.223 E6.67311
G1 X137.133 Y112.608 E6.68932
G1 X137.343 Y112.891 E6.70104
G1 X137.859 Y113.654 E6.73168
G1 X138.303 Y114.449 E6.76196
G1 X138.516 Y114.879 E6.77792
G1 X138.561 Y114.974 E6.78142
G1 X138.918 Y115.823 E6.81205
G1 X139.133 Y116.463 E6.83451
G1 X139.23 Y116.786 E6.84573
G1 X139.456 Y117.679 E6.87636
G1 X139.602 Y118.569 E6.90636
G1 X139.637 Y118.86 E6.91611
G1 X139.674 Y119.217 E6.92805
G1 X139.719 Y120.136 E6.95865
G1 X139.684 Y121.056 E6.98927
G1 X139.569 Y121.97 E7.01991
G1 X139.375 Y122.87 E7.05053
G1 X139.104 Y123.75 E7.08116
G1 X138.757 Y124.603 E7.11179
G1 X138.338 Y125.422 E7.14238
G1 X137.85 Y126.202 E7.17299
G1 X137.295 Y126.937 E7.20362
G1 X136.679 Y127.621 E7.23423
G1 X136.005 Y128.249 E7.26488
G1 X135.28 Y128.816 E7.29549
G1 X134.509 Y129.319 E7.32611
G1 X133.696 Y129.752 E7.35674
G1 X132.849 Y130.113 E7.38737
G1 X131.974 Y130.399 E7.41798
G1 X131.078 Y130.608 E7.44858
G1 X130.166 Y130.739 E7.47923
G1 X129.296 Y130.79 E7.50821
G1 X128.456 Y130.804 E7.53616
G1 X105.445 Y130.804 E8.30151
G1 X105.203 Y130.801 E8.30956
G1 X103.586 Y130.764 E8.36335
G1 X103.25 Y130.751 E8.37454
G1 X103.012 Y130.738 E8.38246
G1 X102.64 Y130.711 E8.39487
G1 X101.54 Y130.612 E8.4316
G1 X101.16 Y130.571 E8.44431
G1 X100.994 Y130.55 E8.44988
G1 X100.374 Y130.453 E8.47075
G1 X99.674 Y130.322 E8.49444
G1 X99.285 Y130.242 E8.50765
G1 X99.064 Y130.192 E8.51518
G1 X98.229 Y129.967 E8.54395
G1 X97.665 Y129.79 E8.56361
G1 X97.352 Y129.686 E8.57458
G1 X97.108 Y129.601 E8.58317
G1 X96.23 Y129.25 E8.61462
G1 X96.022 Y129.156 E8.62221
G1 X95.635 Y128.972 E8.63646
G1 X95.308 Y128.808 E8.64863
G1 X94.495 Y128.355 E8.67959
G1 X94.033 Y128.07 E8.69764
G1 X93.668 Y127.834 E8.7121
G1 X92.907 Y127.28 E8.74341
G1 X92.505 Y126.959 E8.76052
G1 X92.25 Y126.749 E8.7715
G1 X92.089 Y126.612 E8.77853
G1 X91.463 Y126.034 E8.80687
G1 X91.24 Y125.811 E8.81736
G1 X91.015 Y125.579 E8.82811
G1 X90.729 Y125.275 E8.84199
G1 X90.415 Y124.927 E8.85758
G1 X90.31 Y124.805 E8.86294
G1 X90.031 Y124.466 E8.87754
G1 X89.872 Y124.265 E8.88606
G1 X89.651 Y123.977 E8.89814
G1 X89.469 Y123.73 E8.90834
G1 X89.225 Y123.383 E8.92245
G1 X88.892 Y122.891 E8.94221
G1 X88.488 Y122.246 E8.96752
G1 X88.319 Y121.953 E8.97877
G1 X88.158 Y121.663 E8.98981
G1 X87.926 Y121.23 E9.00615
G1 X87.656 Y120.69 E9.02623
G1 X87.538 Y120.436 E9.03554
G1 X87.34 Y119.984 E9.05195
G1 X87.117 Y119.439 E9.07154
G1 X86.894 Y118.841 E9.09277
G1 X86.83 Y118.653 E9.09937
G1 X86.687 Y118.2 E9.11517
G1 X86.542 Y117.702 E9.13242
G1 X86.326 Y116.822 E9.16256
G1 X86.238 Y116.383 E9.17745
G1 X86.179 Y116.063 E9.18828
G1 X86.137 Y115.814 E9.19667
G1 X86.022 Y114.882 E9.22791
G1 X85.972 Y114.246 E9.24913
G1 X85.949 Y113.864 E9.26185
G1 X85.942 Y113.699 E9.26735
G1 X85.941 Y112.809 E9.29695
G1 X85.951 Y112.569 E9.30494
G1 X85.981 Y112.102 E9.3205
G1 X86.022 Y111.625 E9.33643
G1 X86.138 Y110.727 E9.36654
G1 X86.175 Y110.513 E9.37377
G1 X86.26 Y110.077 E9.38854
G1 X86.355 Y109.638 E9.40348
G1 X86.644 Y108.573 E9.44018
G1 X86.798 Y108.104 E9.4566
G1 X86.895 Y107.822 E9.46652
G1 X86.99 Y107.558 E9.47585
G1 X87.237 Y106.935 E9.49814
G1 X87.292 Y106.808 E9.50274
G1 X87.513 Y106.33 E9.52026
G1 X87.663 Y106.026 E9.53153
G1 X87.937 Y105.508 E9.55103
G1 X88.047 Y105.313 E9.55847
G1 X88.276 Y104.926 E9.57343
G1 X88.496 Y104.572 E9.58729
G1 X89.039 Y103.781 E9.6192
G1 X89.464 Y103.218 E9.64266
G1 X89.678 Y102.944 E9.65423
G1 X89.762 Y102.84 E9.65867
G1 X90.384 Y102.135 E9.68994
G1 X90.782 Y101.723 E9.709
G1 X91.005 Y101.5 E9.71949
G1 X91.208 Y101.302 E9.72892
G0 F9000 X91.487 Y101.588
G1 F2100 X92.165 Y100.984 E9.75912
G1 X92.662 Y100.581 E9.7804
G1 X92.996 Y100.321 E9.79448
G1 X93.451 Y99.987 E9.81325
G1 X93.836 Y99.723 E9.82878
G1 X94.372 Y99.371 E9.85011
G1 X95.744 Y98.485 E9.90443
G1 X98.656 Y96.467 E10.02226
G1 X99.42 Y95.986 E10.05229
G1 X100.224 Y95.575 E10.08232
G1 X101.397 Y95.123 E10.12413
G1 X101.527 Y95.082 E10.12867
G1 X102.4 Y94.849 E10.15872
G1 X103.289 Y94.694 E10.18873
G1 X104.189 Y94.618 E10.21877
G1 X105.092 Y94.622 E10.24881
G1 X105.882 Y94.692 E10.27519
G1 X106.558 Y94.778 E10.29785
G1 X106.907 Y94.828 E10.30958
G1 X107.184 Y94.873 E10.31891
G1 X107.773 Y94.987 E10.33887
G1 X108.912 Y95.243 E10.3777
G1 X109.065 Y95.281 E10.38294
G1 X110.813 Y95.686 E10.44262
G1 X112.355 Y96.027 E10.49514
G1 X113.227 Y96.261 E10.52517
G1 X113.829 Y96.472 E10.54639
G1 X114.173 Y96.605 E10.55866
G1 X115 Y96.968 E10.5887
G1 X115.586 Y97.28 E10.61078
G1 X115.961 Y97.496 E10.62517
G1 X116.723 Y97.981 E10.65521
G1 X117.249 Y98.376 E10.67709
G1 X117.672 Y98.715 E10.69512
G1 X117.938 Y98.936 E10.70662
G1 X118.328 Y99.271 E10.72372
G1 X120.352 Y100.961 E10.81142
G1 X122.346 Y102.532 E10.89585
G1 X124.349 Y104.022 E10.97889
G1 X126.475 Y105.51 E11.0652
G1 X128.59 Y106.903 E11.14943
G1 X130.74 Y108.234 E11.23353
G1 X131.992 Y108.953 E11.28155
G1 X132.301 Y109.149 E11.29372
G1 X133.206 Y109.673 E11.3285
G1 X133.712 Y109.986 E11.34829
G1 X133.903 Y110.112 E11.3559
G1 X134.237 Y110.341 E11.36937
G1 X134.952 Y110.893 E11.39942
G1 X135.356 Y111.253 E11.41741
G1 X135.575 Y111.459 E11.42741
G1 X135.934 Y111.815 E11.44423
G1 X136.535 Y112.49 E11.47429
G1 X136.812 Y112.847 E11.48932
G1 X137.022 Y113.13 E11.50104
G1 X137.528 Y113.878 E11.53108
G1 X137.945 Y114.629 E11.55965
G1 X138.154 Y115.051 E11.57531
G1 X138.199 Y115.146 E11.57881
G1 X138.549 Y115.978 E11.60883
G1 X138.75 Y116.578 E11.62987
G1 X138.847 Y116.901 E11.64109
G1 X139.068 Y117.777 E11.67114
G1 X139.205 Y118.617 E11.69945
G1 X139.24 Y118.908 E11.70919
G1 X139.276 Y119.253 E11.72073
G1 X139.319 Y120.156 E11.7508
G1 X139.282 Y121.058 E11.78083
G1 X139.166 Y121.953 E11.81084
G1 X138.97 Y122.835 E11.84089
G1 X138.698 Y123.696 E11.87093
G1 X138.35 Y124.53 E11.90098
G1 X137.93 Y125.329 E11.931
G1 X137.441 Y126.088 E11.96103
G1 X136.887 Y126.802 E11.99109
G1 X136.272 Y127.463 E12.02112
G1 X135.601 Y128.067 E12.05115
G1 X134.879 Y128.609 E12.08118
G1 X134.111 Y129.086 E12.11125
G1 X133.305 Y129.492 E12.14126
G1 X132.466 Y129.826 E12.1713
G1 X131.6 Y130.085 E12.20136
G1 X130.716 Y130.265 E12.23137
G1 X129.818 Y130.367 E12.26143
G1 X129.289 Y130.39 E12.27904
G1 X128.449 Y130.404 E12.30698
G1 X105.445 Y130.404 E13.0721
G1 X105.212 Y130.401 E13.07985
G1 X103.595 Y130.364 E13.13364
G1 X103.272 Y130.352 E13.14439
G1 X103.034 Y130.339 E13.15232
G1 X102.676 Y130.313 E13.16426
G1 X101.576 Y130.214 E13.20099
G1 X101.21 Y130.174 E13.21324
G1 X101.044 Y130.153 E13.2188
G1 X100.448 Y130.06 E13.23887
G1 X99.748 Y129.929 E13.26255
G1 X99.373 Y129.852 E13.27529
G1 X99.152 Y129.802 E13.28282
G1 X98.349 Y129.585 E13.31049
G1 X97.785 Y129.408 E13.33015
G1 X97.483 Y129.308 E13.34073
G1 X97.239 Y129.223 E13.34932
G1 X96.394 Y128.886 E13.37958
G1 X96.186 Y128.792 E13.38717
G1 X95.814 Y128.615 E13.40087
G1 X95.487 Y128.451 E13.41304
G1 X94.705 Y128.014 E13.44284
G1 X94.243 Y127.729 E13.46089
G1 X93.889 Y127.501 E13.4749
G1 X93.156 Y126.968 E13.50504
G1 X92.754 Y126.647 E13.52215
G1 X92.509 Y126.444 E13.53273
G1 X92.348 Y126.307 E13.53976
G1 X91.746 Y125.751 E13.56702
G1 X91.523 Y125.528 E13.57751
G1 X91.306 Y125.305 E13.58786
G1 X91.02 Y125.001 E13.60174
G1 X90.718 Y124.666 E13.61674
G1 X90.613 Y124.544 E13.6221
G1 X90.344 Y124.218 E13.63615
G1 X90.185 Y124.017 E13.64468
G1 X89.973 Y123.74 E13.65628
G1 X89.791 Y123.493 E13.66648
G1 X89.556 Y123.159 E13.68007
G1 X89.223 Y122.667 E13.69983
G1 X88.834 Y122.046 E13.7242
G1 X88.665 Y121.753 E13.73545
G1 X88.51 Y121.474 E13.74606
G1 X88.278 Y121.041 E13.7624
G1 X88.019 Y120.521 E13.78172
G1 X87.901 Y120.267 E13.79104
G1 X87.711 Y119.833 E13.8068
G1 X87.488 Y119.288 E13.82638
G1 X87.272 Y118.712 E13.84684
G1 X87.208 Y118.524 E13.85345
G1 X87.071 Y118.088 E13.86865
G1 X86.926 Y117.59 E13.8859
G1 X86.718 Y116.744 E13.91488
G1 X86.63 Y116.305 E13.92977
G1 X86.573 Y115.997 E13.94019
G1 X86.531 Y115.748 E13.94859
G1 X86.42 Y114.85 E13.97868
G1 X86.37 Y114.214 E13.9999
G1 X86.348 Y113.847 E14.01213
G1 X86.341 Y113.682 E14.01762
G1 X86.341 Y112.825 E14.04612
G1 X86.351 Y112.585 E14.05411
G1 X86.379 Y112.136 E14.06908
G1 X86.42 Y111.659 E14.085
