;FLAVOR:Marlin
;TIME:2406
;Filament used: 1.77013m
;Layer height: 0.2
;MINX:74.5
;MINY:85.848
;MINZ:0.2
;MAXX:150.5
;MAXY:139.152
;MAXZ:11.6
;POSTPROCESSED
;Generated with Cura_SteamEngine 4.13.1
;
;

M82 ;absolute extrusion mode
; Ender 3 Custom Start G-code
M117 Getting the bed up to temp!
M140 S60 ; Set Heat Bed temperature
M190 S60 ; Wait for Heat Bed temperature
M117 Pre-heating the extruder!
M104 S210; start warming extruder to 160
G28 ; Home all axes
M117 Auto bed-level GO!
G29 ; Auto bed-level (BL-Touch)
G92 E0 ; Reset Extruder
M117 Getting the extruder up to temp!
M104 S210 ; Set Extruder temperature
M109 S210 ; Wait for Extruder temperature
G1 Z2.0 F3000 ; move z up little to prevent scratching of surface
G1 X0.1 Y20 Z0.3 F5000.0 ; move to start-line position
M117 LET THE PURGE BEGIN!
SET_GCODE_OFFSET Z=-.005
G1 X0.1 Y200.0 Z0.3 F1500.0 E15 ; draw 1st line
G1 X0.4 Y200.0 Z0.3 F5000.0 ; move to side a little
G1 X0.4 Y20 Z0.3 F1500.0 E30 ; draw 2nd line
G92 E0 ; reset extruder
G1 Z1.0 F3000 ; move z up little to prevent scratching of surface
G1 X5 Y20 Z0.3 F5000.0 ; Move over to prevent blob squish
; SET_GCODE_OFFSET Z=+.075
M117 Autobots! Roll Out!
; End of custom start GCode
G92 E0
G92 E0
G1 F2700 E-3.5
;LAYER_COUNT:58
;LAYER:0
M107
G0 F9000 X78.386 Y88.475 Z0.2
;TYPE:SKIRT
G1 F2700 E0
G1 F2100 X79.126 Y87.899 E0.03119
G1 X79.912 Y87.387 E0.06239
G1 X80.739 Y86.945 E0.09358
G1 X81.601 Y86.575 E0.12478
G1 X82.491 Y86.279 E0.15597
G1 X83.403 Y86.061 E0.18716
G1 X84.33 Y85.92 E0.21835
G1 X85.201 Y85.861 E0.24738
G1 X85.522 Y85.852 E0.25806
G1 X85.83 Y85.848 E0.26831
G1 X138.793 Y85.848 E2.02987
G1 X139.649 Y85.859 E2.05834
G1 X140.585 Y85.913 E2.08952
G1 X141.513 Y86.045 E2.1207
G1 X142.427 Y86.257 E2.15191
G1 X143.319 Y86.546 E2.18309
G1 X144.184 Y86.909 E2.21429
G1 X145.014 Y87.345 E2.24548
G1 X145.805 Y87.85 E2.27669
G1 X146.549 Y88.421 E2.30788
G1 X147.242 Y89.053 E2.33908
G1 X147.879 Y89.741 E2.37026
G1 X148.454 Y90.482 E2.40146
G1 X148.965 Y91.268 E2.43264
G1 X149.407 Y92.096 E2.46386
G1 X149.776 Y92.958 E2.49504
G1 X150.071 Y93.848 E2.52623
G1 X150.289 Y94.76 E2.55742
G1 X150.429 Y95.688 E2.58863
G1 X150.487 Y96.549 E2.61733
G1 X150.496 Y96.869 E2.62798
G1 X150.5 Y97.178 E2.63826
G1 X150.499 Y127.552 E3.6485
G1 X150.49 Y128.279 E3.67268
G1 X150.439 Y129.216 E3.70389
G1 X150.307 Y130.144 E3.73507
G1 X150.098 Y131.058 E3.76625
G1 X149.811 Y131.951 E3.79745
G1 X149.449 Y132.817 E3.82867
G1 X149.015 Y133.648 E3.85985
G1 X148.511 Y134.439 E3.89105
G1 X147.942 Y135.184 E3.92223
G1 X147.311 Y135.879 E3.95345
G1 X146.624 Y136.517 E3.98463
G1 X145.885 Y137.094 E4.01582
G1 X145.099 Y137.606 E4.04702
G1 X144.273 Y138.049 E4.07819
G1 X143.411 Y138.421 E4.10942
G1 X142.522 Y138.717 E4.14058
G1 X141.61 Y138.937 E4.17178
G1 X140.683 Y139.078 E4.20297
G1 X139.799 Y139.139 E4.23244
G1 X139.478 Y139.148 E4.24312
G1 X139.17 Y139.152 E4.25337
G1 X86.065 Y139.151 E6.01965
G1 X85.367 Y139.142 E6.04287
G1 X84.431 Y139.09 E6.07404
G1 X83.502 Y138.958 E6.10525
G1 X82.588 Y138.748 E6.13645
G1 X81.695 Y138.461 E6.16764
G1 X80.83 Y138.098 E6.19884
G1 X79.999 Y137.664 E6.23003
G1 X79.208 Y137.16 E6.26122
G1 X78.463 Y136.59 E6.29242
G1 X77.769 Y135.959 E6.32362
G1 X77.132 Y135.272 E6.35478
G1 X76.555 Y134.532 E6.38599
G1 X76.043 Y133.746 E6.41719
G1 X75.6 Y132.919 E6.44839
G1 X75.229 Y132.058 E6.47957
G1 X74.933 Y131.168 E6.51077
G1 X74.714 Y130.256 E6.54197
G1 X74.573 Y129.329 E6.57315
G1 X74.513 Y128.44 E6.60279
G1 X74.504 Y128.107 E6.61387
G1 X74.5 Y127.81 E6.62375
G1 X74.501 Y97.373 E7.63609
G1 X74.51 Y96.708 E7.65821
G1 X74.563 Y95.772 E7.68939
G1 X74.695 Y94.843 E7.7206
G1 X74.906 Y93.929 E7.7518
G1 X75.194 Y93.037 E7.78297
G1 X75.557 Y92.172 E7.81417
G1 X75.992 Y91.341 E7.84537
G1 X76.496 Y90.551 E7.87654
G1 X77.066 Y89.806 E7.90774
G1 X77.698 Y89.112 E7.93896
G1 X78.386 Y88.475 E7.97014
G0 F9000 X78.774 Y88.671
G1 F2100 X79.51 Y88.118 E8.00076
G1 X80.291 Y87.63 E8.03139
G1 X81.111 Y87.212 E8.062
G1 X81.965 Y86.867 E8.09264
G1 X82.845 Y86.597 E8.12325
G1 X83.745 Y86.405 E8.15386
G1 X84.659 Y86.291 E8.1845
G1 X85.212 Y86.261 E8.20291
G1 X85.533 Y86.252 E8.2136
G1 X85.83 Y86.248 E8.22347
G1 X138.793 Y86.248 E9.98503
G1 X139.643 Y86.259 E10.0133
G1 X140.562 Y86.312 E10.04392
G1 X141.473 Y86.445 E10.07454
G1 X142.369 Y86.656 E10.10516
G1 X143.243 Y86.944 E10.13577
G1 X144.09 Y87.307 E10.16642
G1 X144.901 Y87.742 E10.19702
G1 X145.671 Y88.246 E10.22763
G1 X146.395 Y88.815 E10.25826
G1 X147.067 Y89.445 E10.2889
G1 X147.682 Y90.13 E10.31952
G1 X148.235 Y90.866 E10.35014
G1 X148.722 Y91.647 E10.38075
G1 X149.139 Y92.468 E10.41137
G1 X149.484 Y93.322 E10.44201
G1 X149.753 Y94.202 E10.47261
G1 X149.945 Y95.103 E10.50326
G1 X150.058 Y96.016 E10.53385
G1 X150.087 Y96.56 E10.55197
G1 X150.096 Y96.88 E10.56262
G1 X150.1 Y97.178 E10.57253
G1 X150.099 Y127.547 E11.58261
G1 X150.09 Y128.274 E11.60679
G1 X150.039 Y129.193 E11.6374
G1 X149.908 Y130.105 E11.66805
G1 X149.698 Y131.001 E11.69866
G1 X149.412 Y131.876 E11.72928
G1 X149.051 Y132.723 E11.7599
G1 X148.617 Y133.535 E11.79052
G1 X148.115 Y134.307 E11.82115
G1 X147.547 Y135.032 E11.85178
G1 X146.919 Y135.705 E11.8824
G1 X146.235 Y136.321 E11.91301
G1 X145.5 Y136.875 E11.94363
G1 X144.72 Y137.364 E11.97425
G1 X143.9 Y137.783 E12.00487
G1 X143.047 Y138.129 E12.03549
G1 X142.167 Y138.4 E12.06612
G1 X141.267 Y138.593 E12.09673
G1 X140.353 Y138.708 E12.12737
G1 X139.788 Y138.739 E12.14619
G1 X139.467 Y138.748 E12.15687
G1 X139.17 Y138.752 E12.16675
G1 X86.07 Y138.751 E13.93286
G1 X85.372 Y138.742 E13.95608
G1 X84.453 Y138.69 E13.9867
G1 X83.542 Y138.559 E14.01731
G1 X82.646 Y138.349 E14.04792
G1 X81.771 Y138.062 E14.07854
G1 X80.924 Y137.7 E14.10918
G1 X80.112 Y137.266 E14.1398
G1 X79.341 Y136.764 E14.1704
G1 X78.616 Y136.196 E14.20104
G1 X77.943 Y135.567 E14.23167
G1 X77.328 Y134.883 E14.26227
G1 X76.774 Y134.148 E14.29288
G1 X76.286 Y133.367 E14.32351
G1 X75.867 Y132.547 E14.35414
G1 X75.521 Y131.694 E14.38475
G1 X75.251 Y130.814 E14.41537
G1 X75.058 Y129.913 E14.44602
G1 X74.944 Y129 E14.47662
G1 X74.913 Y128.429 E14.49564
G1 X74.904 Y128.096 E14.50672
G1 X74.9 Y127.81 E14.51623
G1 X74.901 Y97.379 E15.52837
G1 X74.91 Y96.714 E15.55049
G1 X74.962 Y95.794 E15.58114
G1 X75.094 Y94.883 E15.61176
G1 X75.305 Y93.987 E15.64237
G1 X75.592 Y93.112 E15.673
G1 X75.955 Y92.266 E15.70362
G1 X76.389 Y91.454 E15.73424
G1 X76.892 Y90.683 E15.76486
G1 X77.461 Y89.959 E15.79549
G1 X78.089 Y89.287 E15.82608
G1 X78.774 Y88.671 E15.85672
G0 F9000 X79.162 Y88.872
G1 F2100 X79.894 Y88.342 E15.88678
G1 X80.669 Y87.879 E15.9168
G1 X81.482 Y87.486 E15.94684
G1 X82.327 Y87.166 E15.97689
G1 X83.196 Y86.923 E16.0069
G1 X84.084 Y86.757 E16.03695
G1 X85.223 Y86.661 E16.07497
G1 X85.544 Y86.652 E16.08565
G1 X85.83 Y86.648 E16.09516
G1 X138.793 Y86.648 E17.85672
G1 X139.637 Y86.659 E17.88479
G1 X140.539 Y86.712 E17.91484
G1 X141.432 Y86.844 E17.94487
G1 X142.31 Y87.055 E17.9749
G1 X143.166 Y87.343 E18.00494
G1 X143.993 Y87.705 E18.03497
G1 X144.785 Y88.14 E18.06502
G1 X145.536 Y88.642 E18.09506
G1 X146.239 Y89.209 E18.1251
G1 X146.889 Y89.836 E18.15514
G1 X147.481 Y90.518 E18.18518
G1 X148.011 Y91.249 E18.21521
G1 X148.473 Y92.025 E18.24525
G1 X148.866 Y92.838 E18.27528
G1 X149.184 Y93.683 E18.30531
G1 X149.427 Y94.553 E18.33535
G1 X149.592 Y95.441 E18.3654
G1 X149.687 Y96.571 E18.40311
G1 X149.696 Y96.891 E18.41376
G1 X149.7 Y97.178 E18.42331
G1 X149.699 Y127.542 E19.43322
G1 X149.69 Y128.269 E19.4574
G1 X149.639 Y129.171 E19.48745
G1 X149.508 Y130.065 E19.5175
G1 X149.299 Y130.943 E19.54752
G1 X149.013 Y131.8 E19.57757
G1 X148.652 Y132.628 E19.60761
G1 X148.22 Y133.42 E19.63762
G1 X147.719 Y134.172 E19.66767
G1 X147.153 Y134.876 E19.69771
G1 X146.528 Y135.527 E19.72773
G1 X145.847 Y136.121 E19.75779
G1 X145.116 Y136.652 E19.78784
G1 X144.342 Y137.116 E19.81785
G1 X143.529 Y137.51 E19.8479
G1 X142.685 Y137.83 E19.87792
G1 X141.815 Y138.075 E19.90798
G1 X140.928 Y138.241 E19.938
G1 X139.777 Y138.339 E19.97642
G1 X139.456 Y138.348 E19.9871
G1 X139.17 Y138.352 E19.99661
G1 X86.075 Y138.351 E21.76256
G1 X85.377 Y138.342 E21.78578
G1 X84.476 Y138.291 E21.81579
G1 X83.582 Y138.159 E21.84585
G1 X82.704 Y137.95 E21.87587
G1 X81.847 Y137.663 E21.90593
G1 X81.02 Y137.302 E21.93594
G1 X80.227 Y136.869 E21.96599
G1 X79.476 Y136.368 E21.99602
G1 X78.772 Y135.802 E22.02606
G1 X78.121 Y135.176 E22.0561
G1 X77.528 Y134.495 E22.08613
G1 X76.998 Y133.764 E22.11616
G1 X76.534 Y132.989 E22.14621
G1 X76.14 Y132.176 E22.17626
G1 X75.82 Y131.332 E22.20628
G1 X75.576 Y130.462 E22.23633
G1 X75.41 Y129.574 E22.26638
G1 X75.313 Y128.419 E22.30493
G1 X75.304 Y128.086 E22.31601
G1 X75.3 Y127.81 E22.32519
G1 X75.301 Y97.384 E23.33716
G1 X75.31 Y96.719 E23.35928
G1 X75.362 Y95.817 E23.38933
G1 X75.494 Y94.924 E23.41936
G1 X75.704 Y94.046 E23.44938
G1 X75.991 Y93.189 E23.47944
G1 X76.353 Y92.362 E23.50947
G1 X76.786 Y91.57 E23.53949
G1 X77.288 Y90.819 E23.56953
G1 X77.855 Y90.115 E23.5996
G1 X78.481 Y89.465 E23.62961
G1 X79.162 Y88.872 E23.65965
G1 F2700 E20.15965
;MESH:Lid_v2.stl
G0 F9000 X89.407 Y102.642
G0 X87.955 Y101.805
G0 X88.414 Y105.789
G0 X91.56 Y107.912
;TYPE:WALL-INNER
G1 F2700 E23.65965
G1 F2100 X91.56 Y111.459 E23.77762
G1 X88.148 Y113.429 E23.90866
G1 X88.148 Y117.455 E24.04257
G1 X91.56 Y119.425 E24.17361
G1 X91.56 Y123.334 E24.30362
G1 X95.046 Y125.348 E24.43753
G1 X98.533 Y123.334 E24.57146
G1 X98.533 Y119.422 E24.70157
G1 X98.568 Y119.442 E24.70291
G1 X98.568 Y123.334 E24.71478
G1 X102.055 Y125.348 E24.84871
G1 X105.542 Y123.334 E24.98265
G1 X105.542 Y119.422 E25.11276
G1 X105.621 Y119.468 E25.1158
G1 X105.742 Y119.398 E25.12045
G1 X105.742 Y123.334 E25.18627
G1 X109.228 Y125.348 E25.32017
G1 X112.715 Y123.334 E25.45411
G1 X112.715 Y119.456 E25.58309
G1 X112.815 Y119.398 E25.58693
G1 X112.815 Y123.334 E25.62047
G1 X116.302 Y125.348 E25.7544
G1 X119.758 Y123.352 E25.88714
G1 X123.214 Y125.348 E26.01988
G1 X126.651 Y123.362 E26.15191
G1 X130.089 Y125.348 E26.28396
G1 X133.576 Y123.334 E26.4179
G1 X133.576 Y119.402 E26.54867
G1 X136.948 Y117.455 E26.67818
G1 X136.948 Y113.429 E26.81209
G1 X133.576 Y111.482 E26.94159
G1 X133.576 Y107.889 E27.0611
G1 X136.948 Y105.942 E27.1906
G1 X136.948 Y101.916 E27.32451
G1 X133.462 Y99.903 E27.4584
G1 X130.025 Y101.888 E27.59041
G1 X126.587 Y99.903 E27.72244
G1 X123.159 Y101.882 E27.8541
G1 X119.731 Y99.903 E27.98575
G1 X116.243 Y101.915 E28.11968
G1 X116.243 Y105.763 E28.24766
G1 X116.181 Y105.799 E28.25005
G1 X116.181 Y101.916 E28.27113
G1 X112.694 Y99.903 E28.40504
G1 X109.208 Y101.916 E28.53893
G1 X109.208 Y105.741 E28.66615
G1 X109.107 Y105.799 E28.67002
G1 X109.107 Y101.916 E28.70344
G1 X105.621 Y99.903 E28.83732
G1 X102.133 Y101.915 E28.97125
G1 X102.133 Y105.774 E29.0996
G1 X102.1 Y105.755 E29.10087
G1 X102.1 Y101.916 E29.11193
G1 X98.613 Y99.903 E29.24584
G1 X95.126 Y101.916 E29.37976
G1 X95.126 Y105.775 E29.50811
G1 X95.121 Y105.772 E29.5083
G1 X95.121 Y101.916 E29.50986
G1 X91.634 Y99.903 E29.64378
G1 X88.148 Y101.916 E29.77767
G1 X88.148 Y105.942 E29.91157
G1 X91.56 Y107.912 E30.04261
G0 F9000 X91.634 Y107.493
;TYPE:WALL-OUTER
G1 F2100 X94.721 Y105.711 E30.16116
G1 X94.721 Y102.147 E30.2797
G1 X91.634 Y100.365 E30.39826
G1 X88.548 Y102.147 E30.51678
G1 X88.548 Y105.711 E30.63532
G1 X91.634 Y107.493 E30.75384
G0 F9000 X91.534 Y107.665
G0 X95.046 Y106.036
G0 X98.533 Y107.909
;TYPE:WALL-INNER
G1 F2100 X98.568 Y107.929 E30.75519
G1 X98.568 Y111.442 E30.87203
G1 X98.533 Y111.462 E30.87337
G1 X98.533 Y107.909 E30.88434
G0 F9000 X98.613 Y107.493
;TYPE:WALL-OUTER
G1 F2100 X101.7 Y105.711 E31.00289
G1 X101.7 Y102.147 E31.12143
G1 X98.613 Y100.365 E31.23999
G1 X95.526 Y102.147 E31.35854
G1 X95.526 Y105.711 E31.47708
G1 X98.613 Y107.493 E31.59563
G0 F9000 X98.514 Y107.665
G0 X102.055 Y106.036
G0 X105.742 Y107.885
;TYPE:WALL-INNER
G1 F2100 X105.742 Y111.486 E31.7154
G1 X105.621 Y111.416 E31.72005
G1 X105.542 Y111.462 E31.72309
G1 X105.542 Y107.909 E31.78208
G1 X105.621 Y107.955 E31.78512
G1 X105.742 Y107.885 E31.78977
G0 F9000 X105.621 Y107.493
;TYPE:WALL-OUTER
G1 F2100 X108.707 Y105.711 E31.90829
G1 X108.707 Y102.147 E32.02683
G1 X105.621 Y100.365 E32.14536
G1 X102.533 Y102.146 E32.26392
G1 X102.533 Y105.712 E32.38253
G1 X105.621 Y107.493 E32.50109
G0 F9000 X105.522 Y107.665
G0 X109.228 Y106.036
G0 X112.815 Y107.885
;TYPE:WALL-INNER
G1 F2100 X112.815 Y111.486 E32.62086
G1 X112.715 Y111.428 E32.62471
G1 X112.715 Y107.943 E32.65453
G1 X112.815 Y107.885 E32.65837
G0 F9000 X112.694 Y107.493
;TYPE:WALL-OUTER
G1 F2100 X115.781 Y105.711 E32.77692
G1 X115.781 Y102.147 E32.89546
G1 X112.694 Y100.365 E33.01402
G1 X109.608 Y102.147 E33.13254
G1 X109.608 Y105.711 E33.25108
G1 X112.694 Y107.493 E33.3696
G1 F2700 E29.8696
G0 F9000 X112.594 Y107.665
G0 X116.302 Y106.036
G0 X119.096 Y107.665
G0 X120.421 Y107.665
G0 X123.214 Y106.035
G0 X126.008 Y107.665
G0 X127.296 Y107.665
G0 X130.089 Y106.036
G0 X133.362 Y107.665
G1 F2700 E33.3696
G0 F9000 X133.462 Y107.493
G1 F2100 X136.548 Y105.711 E33.48813
G1 X136.548 Y102.147 E33.60667
G1 X133.462 Y100.365 E33.72519
G1 X130.376 Y102.147 E33.84372
G1 X130.376 Y105.711 E33.96226
G1 X133.462 Y107.493 E34.08078
G1 F2700 E30.58078
G0 F9000 X133.362 Y107.665
G0 X130.089 Y106.036
G0 X126.487 Y107.666
G1 F2700 E34.08078
G0 F9000 X126.587 Y107.494
G1 F2100 X129.673 Y105.711 E34.19932
G1 X129.673 Y102.147 E34.31786
G1 X126.587 Y100.365 E34.43638
G1 X123.5 Y102.147 E34.55494
G1 X123.5 Y105.711 E34.67348
G1 X126.587 Y107.494 E34.79205
G1 F2700 E31.29205
G0 F9000 X126.487 Y107.666
G0 X126.434 Y111.615
G0 X123.366 Y113.582
G0 X123.366 Y117.302
G0 X126.434 Y119.461
G0 X126.434 Y123.18
G0 X123.114 Y125.058
G1 F2700 E34.79205
G0 F9000 X123.214 Y124.886
G1 F2100 X126.3 Y123.103 E34.91059
G1 X126.3 Y119.539 E35.02913
G1 X123.214 Y117.757 E35.14765
G1 X120.127 Y119.539 E35.2662
G1 X120.127 Y123.103 E35.38474
G1 X123.214 Y124.886 E35.50331
G1 F2700 E32.00331
G0 F9000 X123.114 Y125.058
G0 X126.651 Y123.565
G0 X129.989 Y125.058
G1 F2700 E35.50331
G0 F9000 X130.089 Y124.886
G1 F2100 X133.176 Y123.103 E35.62188
G1 X133.176 Y119.539 E35.74042
G1 X130.089 Y117.757 E35.85897
G1 X127.002 Y119.539 E35.97753
G1 X127.002 Y123.103 E36.09607
G1 X130.089 Y124.886 E36.21464
G1 F2700 E32.71464
G0 F9000 X129.989 Y125.058
G0 X133.31 Y123.181
G0 X133.362 Y119.178
G1 F2700 E36.21464
G0 F9000 X133.462 Y119.006
G1 F2100 X136.548 Y117.224 E36.33316
G1 X136.548 Y113.66 E36.4517
G1 X133.462 Y111.878 E36.57022
G1 X130.376 Y113.66 E36.68875
G1 X130.376 Y117.224 E36.80729
G1 X133.462 Y119.006 E36.92581
G1 F2700 E33.42581
G0 F9000 X133.362 Y119.178
G0 X130.242 Y117.302
G0 X129.99 Y113.491
G1 F2700 E36.92581
G0 F9000 X130.089 Y113.319
G1 F2100 X133.176 Y111.537 E37.04436
G1 X133.176 Y107.973 E37.1629
G1 X130.089 Y106.191 E37.28146
G1 X127.002 Y107.973 E37.40001
G1 X127.002 Y111.537 E37.51855
G1 X130.089 Y113.319 E37.6371
G1 F2700 E34.1371
G0 F9000 X129.99 Y113.491
G0 X129.807 Y117.301
G0 X126.487 Y119.179
G1 F2700 E37.6371
G0 F9000 X126.587 Y119.007
G1 F2100 X129.673 Y117.224 E37.75564
G1 X129.673 Y113.66 E37.87418
G1 X126.587 Y111.878 E37.99271
G1 X123.5 Y113.66 E38.11126
G1 X123.5 Y117.224 E38.2298
G1 X126.587 Y119.007 E38.34837
G1 F2700 E34.84837
G0 F9000 X126.487 Y119.179
G0 X123.366 Y117.302
G0 X123.115 Y113.491
G1 F2700 E38.34837
G0 F9000 X123.214 Y113.319
G1 F2100 X126.3 Y111.537 E38.46689
G1 X126.3 Y107.973 E38.58543
G1 X123.214 Y106.19 E38.70397
G1 X120.127 Y107.973 E38.82254
G1 X120.127 Y111.537 E38.94108
G1 X123.214 Y113.319 E39.05964
G1 F2700 E35.55964
G0 F9000 X123.115 Y113.491
G0 X119.993 Y111.615
G0 X119.632 Y107.665
G1 F2700 E39.05964
G0 F9000 X119.731 Y107.493
G1 F2100 X122.817 Y105.711 E39.17816
G1 X122.817 Y102.147 E39.2967
G1 X119.731 Y100.365 E39.41522
G1 X116.643 Y102.146 E39.53379
G1 X116.643 Y105.712 E39.65239
G1 X119.731 Y107.493 E39.77096
G0 F9000 X119.632 Y107.665
G0 X119.523 Y111.615
G0 X116.181 Y113.711
;TYPE:WALL-INNER
G1 F2100 X116.243 Y113.747 E39.77334
G1 X116.243 Y117.329 E39.89248
G1 X116.181 Y117.365 E39.89487
G1 X116.181 Y113.711 E39.91476
