;FLAVOR:Marlin
;TIME:277
;Filament used: 0.218824m
;Layer height: 0.2
;MINX:74.402
;MINY:86.984
;MINZ:0.3
;MAXX:150.599
;MAXY:138.007
;MAXZ:1.9
;Generated with Cura_SteamEngine 4.12.1
M82 ;absolute extrusion mode
; Ender 3 Custom Start G-code
M117 Getting the bed up to temp!
M140 S50 ; Set Heat Bed temperature
M190 S50 ; Wait for Heat Bed temperature
M117 Pre-heating the extruder!
M104 S175; start warming extruder to 160
G28 ; Home all axes
M117 Auto bed-level GO!
G29 ; Auto bed-level (BL-Touch)
G92 E0 ; Reset Extruder
M117 Getting the extruder up to temp!
M104 S200.0 ; Set Extruder temperature
M109 S200.0 ; Wait for Extruder temperature
G1 Z2.0 F3000 ; move z up little to prevent scratching of surface
G1 X0.1 Y20 Z0.3 F5000.0 ; move to start-line position
M117 LET THE PURGE BEGIN!
G1 X0.1 Y200.0 Z0.3 F1500.0 E15 ; draw 1st line
G1 X0.4 Y200.0 Z0.3 F5000.0 ; move to side a little
G1 X0.4 Y20 Z0.3 F1500.0 E30 ; draw 2nd line
G92 E0 ; reset extruder
G1 Z1.0 F3000 ; move z up little to prevent scratching of surface
G1 X5 Y20 Z0.3 F5000.0 ; Move over to prevent blob squish
M117 Autobots! Roll Out!
; End of custom start GCode
G92 E0
G92 E0
G1 F2700 E-5
;LAYER_COUNT:9
;LAYER:0
M107
;MESH:Dragon_Stache_v0.stl
G0 F6000 X114.648 Y137.324 Z0.3
;TYPE:WALL-INNER
G1 F2700 E0
G1 F600 X114.555 Y137.146 E0.01052
G1 X114.595 Y136.949 E0.02105
G1 X121.315 Y136 E0.37657
G1 X123.36 Y135.7 E0.48484
G1 X124.141 Y135.578 E0.52625
G1 X124.796 Y135.47 E0.56103
G1 X125.345 Y135.373 E0.59023
G1 X125.812 Y135.284 E0.61513
G1 X126.214 Y135.2 E0.63665
G1 X126.567 Y135.117 E0.65564
G1 X126.887 Y135.033 E0.67298
G1 X127.181 Y134.946 E0.68904
G1 X127.459 Y134.855 E0.70436
G1 X127.732 Y134.759 E0.71952
G1 X128 Y134.655 E0.73458
G1 X128.266 Y134.545 E0.74966
G1 X128.528 Y134.427 E0.76471
G1 X128.789 Y134.302 E0.77987
G1 X129.045 Y134.168 E0.79501
G1 X129.298 Y134.026 E0.8102
G1 X129.545 Y133.875 E0.82537
G1 X129.784 Y133.718 E0.84035
G1 X130.017 Y133.552 E0.85534
G1 X130.185 Y133.422 E0.86646
G1 X130.401 Y133.242 E0.88119
G1 X130.61 Y133.051 E0.89602
G1 X130.808 Y132.849 E0.91084
G1 X130.989 Y132.641 E0.92529
G1 X131.203 Y132.363 E0.94366
G1 X131.453 Y131.962 E0.96842
G1 X131.672 Y131.469 E0.99668
G1 X131.808 Y130.942 E1.02519
G1 X131.844 Y130.65 E1.0406
G1 X131.853 Y130.359 E1.05585
G1 X131.84 Y130.058 E1.07163
G1 X131.801 Y129.743 E1.08826
G1 X131.739 Y129.419 E1.10554
G1 X131.654 Y129.084 E1.12365
G1 X131.549 Y128.74 E1.14249
G1 X131.386 Y128.286 E1.16776
G1 X131.241 Y127.924 E1.18818
G1 X131.086 Y127.555 E1.20915
G1 X130.636 Y126.524 E1.26808
G1 X130.485 Y126.152 E1.28911
G1 X130.339 Y125.761 E1.31097
G1 X130.218 Y125.382 E1.33182
G1 X130.124 Y124.999 E1.35247
G1 X130.067 Y124.617 E1.37271
G1 X130.054 Y124.239 E1.39252
G1 X130.094 Y123.865 E1.41222
G1 X130.189 Y123.505 E1.43173
G1 X130.343 Y123.154 E1.45181
G1 X130.558 Y122.815 E1.47284
G1 X130.825 Y122.496 E1.49463
G1 X131.16 Y122.177 E1.51886
G1 X131.524 Y121.888 E1.54321
G1 X131.96 Y121.588 E1.57093
G1 X132.42 Y121.307 E1.59917
G1 X132.926 Y121.021 E1.62962
G1 X133.07 Y120.947 E1.6381
G1 X133.458 Y120.739 E1.66116
G1 X134.167 Y120.369 E1.70305
G1 X134.729 Y120.071 E1.73638
G1 X135.287 Y119.758 E1.76989
G1 X135.681 Y119.523 E1.79392
G1 X136.199 Y119.181 E1.82644
G1 X136.676 Y118.813 E1.858
G1 X137.099 Y118.417 E1.88835
G1 X137.461 Y117.992 E1.9176
G1 X137.755 Y117.534 E1.94611
G1 X137.978 Y117.045 E1.97426
G1 X138.029 Y116.881 E1.98326
G1 X138.135 Y116.513 E2.00332
G1 X138.164 Y116.34 E2.01251
G1 X138.223 Y115.94 E2.03369
G1 X138.242 Y115.337 E2.06529
G1 X138.232 Y115.143 E2.07547
G1 X138.201 Y114.688 E2.09936
G1 X138.107 Y114.01 E2.13522
G1 X137.968 Y113.303 E2.17296
G1 X137.752 Y112.361 E2.22359
G1 X137.62 Y111.825 E2.2525
G1 X137.442 Y111.059 E2.2937
G1 X137.404 Y110.857 E2.30447
G1 X137.294 Y110.31 E2.3337
G1 X137.198 Y109.56 E2.37331
G1 X137.182 Y108.814 E2.41239
G1 X137.278 Y108.104 E2.44992
G1 X137.519 Y107.428 E2.48752
G1 X137.92 Y106.805 E2.52633
G1 X138.494 Y106.227 E2.569
G1 X139.223 Y105.702 E2.61606
G1 X140.088 Y105.214 E2.66809
G1 X141.125 Y104.709 E2.72851
G1 X142.255 Y104.187 E2.79372
G1 X143.466 Y103.603 E2.86415
G1 X144.712 Y102.919 E2.93861
G1 X145.063 Y102.685 E2.96071
G1 X145.943 Y102.09 E3.01635
G1 X146.276 Y101.798 E3.03955
G1 X147.103 Y101.063 E3.09751
G1 X148.124 Y99.782 E3.18332
G1 X148.931 Y98.179 E3.27734
G1 X149.445 Y96.176 E3.38566
G1 X149.566 Y93.694 E3.51584
G1 X149.46 Y92.815 E3.56222
G1 X149.191 Y90.64 E3.67702
G1 X148.463 Y87.899 E3.82559
G1 X148.462 Y87.776 E3.83203
G1 X148.513 Y87.689 E3.83731
G1 X148.72 Y87.617 E3.84879
G1 X148.803 Y87.715 E3.85459
G1 X149.561 Y90.564 E4.0001
G1 X149.83 Y92.769 E4.10927
G1 X149.942 Y93.682 E4.15444
G1 X149.814 Y96.233 E4.27964
G1 X149.282 Y98.309 E4.3843
G1 X148.439 Y99.986 E4.47624
G1 X147.377 Y101.323 E4.5603
G1 X146.525 Y102.078 E4.61645
G1 X146.175 Y102.389 E4.63957
G1 X145.275 Y102.997 E4.6934
G1 X144.908 Y103.245 E4.71541
G1 X143.641 Y103.94 E4.78725
G1 X142.423 Y104.527 E4.85447
G1 X141.286 Y105.052 E4.91673
G1 X140.283 Y105.541 E4.9722
G1 X139.425 Y106.023 E5.02126
G1 X138.734 Y106.518 E5.06338
G1 X138.212 Y107.037 E5.09945
G1 X137.853 Y107.593 E5.13163
G1 X137.642 Y108.194 E5.16268
G1 X137.558 Y108.839 E5.1946
G1 X137.575 Y109.528 E5.22863
G1 X137.67 Y110.249 E5.26478
G1 X137.816 Y110.984 E5.30264
G1 X137.864 Y111.202 E5.31374
G1 X138.04 Y111.949 E5.35246
G1 X138.17 Y112.482 E5.38035
G1 X138.34 Y113.22 E5.41814
G1 X138.482 Y113.952 E5.45533
G1 X138.578 Y114.643 E5.48996
G1 X138.621 Y115.324 E5.52406
G1 X138.598 Y115.974 E5.55633
G1 X138.504 Y116.597 E5.58774
G1 X138.335 Y117.172 E5.61768
G1 X138.084 Y117.719 E5.64752
G1 X137.762 Y118.221 E5.67704
G1 X137.376 Y118.676 E5.70667
G1 X136.917 Y119.106 E5.73795
G1 X136.426 Y119.486 E5.76882
G1 X135.897 Y119.837 E5.80055
G1 X135.325 Y120.176 E5.83397
G1 X134.753 Y120.491 E5.86695
G1 X134.343 Y120.705 E5.88973
G1 X133.488 Y121.152 E5.93795
G1 X132.972 Y121.431 E5.96777
G1 X132.618 Y121.632 E5.9879
G1 X132.487 Y121.71 E5.99495
G1 X132.161 Y121.911 E6.01502
G1 X131.756 Y122.188 E6.03941
G1 X131.404 Y122.468 E6.06177
G1 X131.104 Y122.751 E6.08217
G1 X130.865 Y123.037 E6.10058
G1 X130.676 Y123.331 E6.11783
G1 X130.546 Y123.626 E6.13367
G1 X130.464 Y123.937 E6.14947
G1 X130.431 Y124.253 E6.16506
G1 X130.443 Y124.584 E6.18133
G1 X130.496 Y124.926 E6.19839
G1 X130.582 Y125.273 E6.21613
G1 X130.7 Y125.642 E6.23542
G1 X130.838 Y126.01 E6.255
G1 X131.034 Y126.489 E6.28106
G1 X131.318 Y127.137 E6.31559
G1 X131.478 Y127.508 E6.33641
G1 X131.635 Y127.884 E6.35744
G1 X131.774 Y128.239 E6.37697
G1 X131.813 Y128.354 E6.38275
G1 X131.912 Y128.627 E6.39758
G1 X132.016 Y128.966 E6.41525
G1 X132.114 Y129.352 E6.43519
G1 X132.174 Y129.674 E6.45147
G1 X132.217 Y130.025 E6.46902
G1 X132.233 Y130.353 E6.48537
G1 X132.221 Y130.677 E6.50153
G1 X132.183 Y130.995 E6.51744
G1 X132.116 Y131.308 E6.53365
G1 X132.034 Y131.581 E6.54831
G1 X131.92 Y131.869 E6.56382
G1 X131.786 Y132.143 E6.57938
G1 X131.633 Y132.404 E6.59444
G1 X131.465 Y132.651 E6.60979
G1 X131.293 Y132.872 E6.62388
G1 X131.087 Y133.107 E6.63947
G1 X130.871 Y133.326 E6.6548
G1 X130.657 Y133.524 E6.66932
G1 X130.423 Y133.718 E6.68449
G1 X130.19 Y133.897 E6.69934
G1 X129.936 Y134.075 E6.71521
G1 X129.675 Y134.242 E6.73114
G1 X129.407 Y134.403 E6.74724
G1 X129.164 Y134.535 E6.76139
G1 X128.874 Y134.684 E6.77815
G1 X128.613 Y134.807 E6.79298
G1 X128.351 Y134.921 E6.80761
G1 X128.056 Y135.041 E6.82395
G1 X127.779 Y135.147 E6.83921
G1 X127.513 Y135.239 E6.85367
G1 X127.215 Y135.333 E6.86969
G1 X126.9 Y135.423 E6.88655
G1 X126.574 Y135.506 E6.90383
G1 X126.194 Y135.593 E6.92391
G1 X125.775 Y135.68 E6.94602
G1 X125.284 Y135.772 E6.97159
G1 X125.118 Y135.798 E6.97947
G1 X124.702 Y135.871 E7.00104
G1 X124.2 Y135.949 E7.026
G1 X123.188 Y136.108 E7.07698
G1 X121.04 Y136.422 E7.18563
G1 X114.648 Y137.324 E7.50554
G0 F6000 X114.485 Y137.751
;TYPE:WALL-OUTER
G1 F600 X114.465 Y137.732 E7.50698
G1 X114.268 Y137.492 E7.52325
G1 X114.144 Y137.203 E7.53972
G1 X114.185 Y136.889 E7.55631
G1 X114.306 Y136.607 E7.57238
G1 X114.321 Y136.584 E7.57382
G1 X121.258 Y135.604 E7.94082
G1 X123.3 Y135.304 E8.04894
G1 X124.078 Y135.183 E8.09019
G1 X124.729 Y135.076 E8.12475
G1 X125.273 Y134.98 E8.15368
G1 X125.733 Y134.892 E8.17822
G1 X126.127 Y134.809 E8.19931
G1 X126.471 Y134.729 E8.21781
G1 X126.779 Y134.648 E8.23449
G1 X127.062 Y134.564 E8.24996
G1 X127.331 Y134.476 E8.26479
G1 X127.593 Y134.384 E8.27933
G1 X127.851 Y134.284 E8.29383
G1 X128.107 Y134.178 E8.30834
G1 X128.359 Y134.064 E8.32283
G1 X128.61 Y133.944 E8.3374
G1 X128.855 Y133.816 E8.35188
G1 X129.096 Y133.681 E8.36636
G1 X129.331 Y133.537 E8.38079
G1 X129.558 Y133.388 E8.39502
G1 X129.778 Y133.231 E8.40918
G1 X129.934 Y133.11 E8.41952
G1 X130.138 Y132.94 E8.43343
G1 X130.332 Y132.763 E8.44718
G1 X130.514 Y132.577 E8.46082
G1 X130.68 Y132.387 E8.47403
G1 X130.874 Y132.135 E8.49069
G1 X131.099 Y131.774 E8.51298
G1 X131.293 Y131.337 E8.53802
G1 X131.414 Y130.867 E8.56345
G1 X131.445 Y130.619 E8.57654
G1 X131.453 Y130.362 E8.59001
G1 X131.441 Y130.091 E8.60422
G1 X131.406 Y129.805 E8.61931
G1 X131.348 Y129.506 E8.63527
G1 X131.269 Y129.192 E8.65223
G1 X131.169 Y128.866 E8.67009
G1 X131.012 Y128.428 E8.69447
G1 X130.871 Y128.076 E8.71433
G1 X130.718 Y127.713 E8.73497
G1 X130.27 Y126.684 E8.79376
G1 X130.11 Y126.292 E8.81594
G1 X129.964 Y125.901 E8.8378
G1 X129.831 Y125.485 E8.86068
G1 X129.731 Y125.077 E8.88268
G1 X129.668 Y124.655 E8.90504
G1 X129.653 Y124.225 E8.92757
G1 X129.699 Y123.792 E8.95038
G1 X129.809 Y123.375 E8.97298
G1 X129.99 Y122.964 E8.9965
G1 X130.236 Y122.576 E9.02057
G1 X130.532 Y122.222 E9.04474
G1 X130.894 Y121.878 E9.0709
G1 X131.292 Y121.561 E9.09755
G1 X131.733 Y121.258 E9.12558
G1 X132.223 Y120.959 E9.15565
G1 X132.735 Y120.67 E9.18645
G1 X132.884 Y120.593 E9.19524
G1 X133.273 Y120.384 E9.21837
G1 X133.981 Y120.015 E9.26019
G1 X134.538 Y119.719 E9.29324
G1 X134.935 Y119.499 E9.31701
G1 X135.085 Y119.413 E9.32607
G1 X135.468 Y119.184 E9.34945
G1 X135.966 Y118.855 E9.38071
G1 X136.417 Y118.508 E9.41052
G1 X136.809 Y118.141 E9.43865
G1 X137.139 Y117.753 E9.46533
G1 X137.403 Y117.342 E9.49092
G1 X137.604 Y116.902 E9.51626
G1 X137.646 Y116.767 E9.52367
G1 X137.744 Y116.424 E9.54236
G1 X137.769 Y116.277 E9.55017
G1 X137.824 Y115.904 E9.56992
G1 X137.842 Y115.341 E9.59943
G1 X137.833 Y115.167 E9.60855
G1 X137.803 Y114.729 E9.63155
G1 X137.712 Y114.076 E9.66609
G1 X137.577 Y113.386 E9.70292
G1 X137.363 Y112.454 E9.75301
G1 X137.23 Y111.916 E9.78205
G1 X137.052 Y111.15 E9.82324
G1 X137.011 Y110.933 E9.83481
G1 X136.898 Y110.367 E9.86504
G1 X136.799 Y109.591 E9.90602
G1 X136.781 Y108.794 E9.94779
G1 X136.888 Y108.007 E9.98939
G1 X137.157 Y107.251 E10.03143
G1 X137.607 Y106.552 E10.07498
G1 X138.231 Y105.924 E10.12135
G1 X139.005 Y105.366 E10.17134
G1 X139.913 Y104.854 E10.22594
G1 X140.95 Y104.349 E10.28636
G1 X142.084 Y103.825 E10.3518
G1 X143.283 Y103.247 E10.42153
G1 X144.504 Y102.577 E10.49449
G1 X144.84 Y102.353 E10.51564
G1 X145.698 Y101.773 E10.5699
G1 X146.011 Y101.498 E10.59172
G1 X146.812 Y100.787 E10.64783
G1 X147.785 Y99.565 E10.72965
G1 X148.554 Y98.038 E10.81922
G1 X149.047 Y96.116 E10.92316
G1 X149.165 Y93.708 E11.04945
G1 X149.063 Y92.864 E11.09399
G1 X148.797 Y90.716 E11.20737
G1 X148.064 Y87.956 E11.35696
G1 X148.06 Y87.668 E11.37205
G1 X148.226 Y87.389 E11.38906
G1 X148.493 Y87.246 E11.40493
G1 X148.784 Y87.204 E11.42033
G1 X149.046 Y87.331 E11.43558
G1 X149.177 Y87.564 E11.44958
G1 X149.954 Y90.485 E11.60792
G1 X150.343 Y93.665 E11.77574
G1 X150.211 Y96.293 E11.91358
G1 X149.658 Y98.452 E12.03033
G1 X148.777 Y100.203 E12.13302
G1 X147.67 Y101.597 E12.22626
G1 X146.42 Y102.706 E12.3138
G1 X145.113 Y103.589 E12.39643
G1 X143.828 Y104.294 E12.47321
G1 X142.591 Y104.89 E12.54514
G1 X141.458 Y105.413 E12.61051
G1 X140.468 Y105.896 E12.66821
G1 X140.235 Y106.025 E12.68216
G1 X139.64 Y106.361 E12.71796
G1 X138.993 Y106.824 E12.75964
G1 X138.525 Y107.29 E12.79423
G1 X138.215 Y107.77 E12.82417
G1 X138.033 Y108.287 E12.85288
G1 X137.959 Y108.86 E12.88314
G1 X137.974 Y109.497 E12.91652
G1 X138.065 Y110.184 E12.95282
G1 X138.207 Y110.902 E12.99116
G1 X138.254 Y111.113 E13.00249
G1 X138.429 Y111.856 E13.04248
G1 X138.56 Y112.392 E13.07138
G1 X138.733 Y113.144 E13.1118
G1 X138.875 Y113.876 E13.15086
G1 X138.976 Y114.602 E13.18926
G1 X139.022 Y115.324 E13.22716
G1 X138.997 Y116.013 E13.26328
G1 X138.896 Y116.682 E13.29872
G1 X138.71 Y117.314 E13.33323
G1 X138.437 Y117.91 E13.36757
G1 X138.085 Y118.459 E13.40173
G1 X137.668 Y118.95 E13.43548
G1 X137.176 Y119.411 E13.4708
G1 X136.661 Y119.81 E13.50493
G1 X136.101 Y120.181 E13.54011
G1 X135.517 Y120.527 E13.57567
G1 X134.945 Y120.841 E13.60986
G1 X133.676 Y121.505 E13.68488
G1 X133.166 Y121.781 E13.71526
G1 X132.819 Y121.978 E13.73616
G1 X132.694 Y122.052 E13.74377
G1 X132.379 Y122.246 E13.76315
G1 X131.994 Y122.51 E13.78761
G1 X131.666 Y122.77 E13.80953
G1 X131.396 Y123.026 E13.82902
G1 X131.188 Y123.274 E13.84598
G1 X131.03 Y123.521 E13.86134
G1 X130.925 Y123.759 E13.87496
G1 X130.859 Y124.009 E13.88851
G1 X130.832 Y124.267 E13.9021
G1 X130.842 Y124.546 E13.91672
G1 X130.889 Y124.847 E13.93268
G1 X130.968 Y125.167 E13.94995
G1 X130.998 Y125.266 E13.95537
G1 X131.078 Y125.51 E13.96882
G1 X131.21 Y125.864 E13.98861
G1 X131.403 Y126.333 E14.01518
G1 X131.565 Y126.707 E14.03653
G1 X131.684 Y126.975 E14.05189
G1 X131.847 Y127.354 E14.0735
G1 X132.007 Y127.738 E14.09529
G1 X132.153 Y128.11 E14.11623
G1 X132.191 Y128.222 E14.12242
G1 X132.288 Y128.491 E14.1374
G1 X132.404 Y128.868 E14.15807
G1 X132.502 Y129.254 E14.17893
G1 X132.57 Y129.614 E14.19812
G1 X132.617 Y129.997 E14.21833
G1 X132.634 Y130.353 E14.237
G1 X132.621 Y130.704 E14.2554
G1 X132.578 Y131.061 E14.27424
G1 X132.504 Y131.407 E14.29277
G1 X132.412 Y131.713 E14.30951
G1 X132.287 Y132.029 E14.32732
G1 X132.139 Y132.332 E14.34498
G1 X131.97 Y132.62 E14.36247
G1 X131.789 Y132.885 E14.37928
G1 X131.594 Y133.136 E14.39593
G1 X131.382 Y133.378 E14.41279
G1 X131.155 Y133.608 E14.42972
G1 X130.92 Y133.825 E14.44647
G1 X130.673 Y134.03 E14.46329
G1 X130.42 Y134.224 E14.47999
G1 X130.152 Y134.412 E14.49714
G1 X129.891 Y134.579 E14.51337
G1 X129.613 Y134.746 E14.53036
G1 X129.347 Y134.891 E14.54623
G1 X129.057 Y135.04 E14.56331
G1 X128.783 Y135.169 E14.57917
G1 X128.502 Y135.292 E14.59524
G1 X128.207 Y135.412 E14.61192
G1 X127.921 Y135.521 E14.62796
G1 X127.634 Y135.62 E14.64386
G1 X127.325 Y135.718 E14.66084
G1 X127.011 Y135.808 E14.67795
G1 X126.664 Y135.896 E14.69671
G1 X126.277 Y135.985 E14.71751
G1 X126.158 Y136.008 E14.72386
G1 X125.849 Y136.073 E14.7404
G1 X125.347 Y136.167 E14.76715
G1 X125.184 Y136.193 E14.7758
G1 X124.764 Y136.266 E14.79813
G1 X123.246 Y136.504 E14.87862
G1 X121.098 Y136.818 E14.99234
G1 X114.485 Y137.751 E15.34219
G0 F6000 X114.673 Y137.292
G1 F2700 E10.34219
G0 F6000 X126.843 Y134.879
G0 X128.459 Y134.281
G0 X129.693 Y133.585
G0 X130.69 Y132.74
G0 X131.311 Y131.886
G0 X131.52 Y131.416
G0 X131.684 Y130.638
G0 X131.643 Y129.768
G0 X130.202 Y123.076
G0 X136.572 Y118.691
G0 X137.332 Y117.895
G0 X137.828 Y116.988
G0 X138.063 Y115.925
G0 X138.041 Y114.704
G0 X137.372 Y107.357
G0 X145.844 Y101.963
G0 X146.987 Y100.952
G0 X147.987 Y99.694
G0 X148.779 Y98.123
G0 X149.285 Y96.151
G0 X149.405 Y93.7
G0 X148.592 Y87.535
G1 F2700 E15.34219
G0 F6000 X148.554 Y87.46
;TYPE:SKIN
G1 F600 X148.89 Y87.513 E15.34858
G0 F6000 X148.645 Y87.846
G1 F2700 E10.34858
G0 F6000 X149.013 Y90.675
G0 X147.946 Y90.881
G0 X111.464 Y136.214
G0 X110.534 Y136.782
G0 X110.353 Y137.323
;TYPE:WALL-INNER
G1 F2700 E15.34858
G1 F600 X107.516 Y136.926 E15.49865
G1 X104.951 Y136.562 E15.63436
G1 X103.959 Y136.421 E15.68685
G1 X102.793 Y136.252 E15.74857
G1 X101.812 Y136.108 E15.80051
G1 X100.994 Y135.982 E15.84386
G1 X100.304 Y135.871 E15.88047
G1 X99.722 Y135.771 E15.91141
G1 X99.233 Y135.68 E15.93746
G1 X98.806 Y135.592 E15.9603
G1 X98.435 Y135.507 E15.98024
G1 X98.101 Y135.422 E15.9983
G1 X97.786 Y135.332 E16.01546
G1 X97.488 Y135.238 E16.03183
G1 X97.222 Y135.146 E16.04657
