;FLAVOR:Marlin
;TIME:15464
;Filament used: 16.7802m
;Layer height: 0.2
;MINX:51.5
;MINY:81.25
;MINZ:0.2
;MAXX:183.5
;MAXY:153.75
;MAXZ:95
;Generated with Cura_SteamEngine 4.8.0
M82 ;absolute extrusion mode
; Ender 3 Custom Start G-code
M117 Getting the bed up to temp!
M140 S60 ; Set Heat Bed temperature
M190 S60 ; Wait for Heat Bed temperature
M117 Pre-heating the extruder!
M104 S175; start warming extruder to 160
G28 ; Home all axes
M117 Auto bed-level GO!
G29 ; Auto bed-level (BL-Touch)
M420 S1;
G92 E0 ; Reset Extruder
M117 Getting the extruder up to temp!
M104 S200 ; Set Extruder temperature
M109 S200 ; Wait for Extruder temperature
G1 Z2.0 F3000 ; move z up little to prevent scratching of surface
G1 X0.1 Y20 Z0.3 F5000.0 ; move to start-line position
M117 LET THE PURGE BEGIN!
G1 X0.1 Y200.0 Z0.3 F1500.0 E15 ; draw 1st line
G1 X0.4 Y200.0 Z0.3 F5000.0 ; move to side a little
G1 X0.4 Y20 Z0.3 F1500.0 E30 ; draw 2nd line
G92 E0 ; reset extruder
G1 Z1.0 F3000 ; move z up little to prevent scratching of surface
G1 X5 Y20 Z0.3 F5000.0 ; Move over to prevent blob squish
M117 Autobots! Roll Out!
; End of custom start GCode
G92 E0
G92 E0
G1 F2700 E-5
;LAYER_COUNT:475
;LAYER:0
M107
G0 F6000 X56.126 Y83.301 Z0.2
;TYPE:SKIRT
G1 F2700 E0
G1 F1200 X56.912 Y82.789 E0.0312
G1 X57.739 Y82.347 E0.06239
G1 X58.601 Y81.977 E0.09359
G1 X59.491 Y81.681 E0.12478
G1 X60.403 Y81.463 E0.15597
G1 X61.33 Y81.322 E0.18716
G1 X62.201 Y81.263 E0.21619
G1 X62.522 Y81.254 E0.22687
G1 X62.83 Y81.25 E0.23712
G1 X91.764 Y81.25 E1.19947
G1 X92.622 Y81.261 E1.22801
G1 X93.558 Y81.314 E1.25919
G1 X94.487 Y81.447 E1.2904
G1 X95.069 Y81.573 E1.31021
G1 X96.224 Y81.854 E1.34974
G1 X98.745 Y82.436 E1.4358
G1 X101.221 Y82.934 E1.5198
G1 X103.705 Y83.36 E1.60362
G1 X106.213 Y83.717 E1.68788
G1 X108.683 Y83.999 E1.77057
G1 X111.222 Y84.216 E1.85532
G1 X113.723 Y84.357 E1.93864
G1 X116.218 Y84.429 E2.02166
G1 X118.741 Y84.429 E2.10557
G1 X121.265 Y84.358 E2.18955
G1 X123.787 Y84.216 E2.27357
G1 X126.292 Y84.004 E2.35718
G1 X128.786 Y83.721 E2.44067
G1 X131.305 Y83.363 E2.52529
G1 X133.741 Y82.946 E2.60749
G1 X136.246 Y82.444 E2.69247
G1 X138.723 Y81.873 E2.77701
G1 X139.83 Y81.595 E2.81497
G1 X140.927 Y81.378 E2.85217
G1 X142.229 Y81.263 E2.89564
G1 X142.548 Y81.254 E2.90625
G1 X142.858 Y81.25 E2.91657
G1 X171.935 Y81.251 E3.88367
G1 X172.633 Y81.26 E3.90689
G1 X173.569 Y81.312 E3.93807
G1 X174.498 Y81.444 E3.96928
G1 X175.412 Y81.654 E4.00047
G1 X176.305 Y81.941 E4.03167
G1 X177.17 Y82.304 E4.06287
G1 X178.001 Y82.738 E4.09405
G1 X178.792 Y83.242 E4.12524
G1 X179.537 Y83.812 E4.15644
G1 X180.231 Y84.443 E4.18764
G1 X180.868 Y85.13 E4.2188
G1 X181.445 Y85.87 E4.25001
G1 X181.957 Y86.656 E4.28121
G1 X182.4 Y87.483 E4.31241
G1 X182.771 Y88.344 E4.3436
G1 X183.067 Y89.234 E4.37479
G1 X183.286 Y90.146 E4.40599
G1 X183.427 Y91.073 E4.43718
G1 X183.486 Y91.939 E4.46605
G1 X183.495 Y92.248 E4.47633
G1 X183.5 Y92.568 E4.48697
G1 X183.499 Y142.15 E6.13608
G1 X183.49 Y142.877 E6.16026
G1 X183.439 Y143.814 E6.19147
G1 X183.307 Y144.742 E6.22264
G1 X183.098 Y145.656 E6.25383
G1 X182.811 Y146.549 E6.28503
G1 X182.449 Y147.415 E6.31624
G1 X182.015 Y148.246 E6.34743
G1 X181.511 Y149.037 E6.37862
G1 X180.942 Y149.782 E6.4098
G1 X180.311 Y150.477 E6.44102
G1 X179.624 Y151.115 E6.47221
G1 X178.885 Y151.692 E6.50339
G1 X178.099 Y152.204 E6.53459
G1 X177.273 Y152.647 E6.56576
G1 X176.411 Y153.019 E6.59699
G1 X175.522 Y153.315 E6.62815
G1 X174.61 Y153.535 E6.65936
G1 X173.683 Y153.676 E6.69054
G1 X172.799 Y153.737 E6.72002
G1 X172.478 Y153.746 E6.7307
G1 X172.17 Y153.75 E6.74094
G1 X63.065 Y153.749 E10.36979
G1 X62.367 Y153.74 E10.39301
G1 X61.431 Y153.688 E10.42419
G1 X60.502 Y153.556 E10.4554
G1 X59.588 Y153.346 E10.48659
G1 X58.695 Y153.059 E10.51778
G1 X57.83 Y152.696 E10.54899
G1 X56.999 Y152.262 E10.58017
G1 X56.208 Y151.758 E10.61136
G1 X55.463 Y151.188 E10.64256
G1 X54.769 Y150.557 E10.67376
G1 X54.132 Y149.87 E10.70492
G1 X53.555 Y149.13 E10.73613
G1 X53.043 Y148.344 E10.76733
G1 X52.6 Y147.517 E10.79853
G1 X52.229 Y146.656 E10.82972
G1 X51.933 Y145.766 E10.86091
G1 X51.714 Y144.854 E10.89211
G1 X51.573 Y143.927 E10.92329
G1 X51.513 Y143.038 E10.95293
G1 X51.504 Y142.705 E10.96401
G1 X51.5 Y142.408 E10.97389
G1 X51.501 Y92.775 E12.62469
G1 X51.51 Y92.11 E12.64681
G1 X51.563 Y91.174 E12.67799
G1 X51.695 Y90.245 E12.7092
G1 X51.906 Y89.331 E12.7404
G1 X52.194 Y88.439 E12.77157
G1 X52.557 Y87.574 E12.80277
G1 X52.992 Y86.743 E12.83397
G1 X53.496 Y85.953 E12.86514
G1 X54.066 Y85.208 E12.89634
G1 X54.698 Y84.514 E12.92756
G1 X55.386 Y83.877 E12.95874
G1 X56.126 Y83.301 E12.98993
G0 F6000 X56.51 Y83.52
G1 F1200 X57.291 Y83.032 E13.02056
G1 X58.111 Y82.614 E13.05118
G1 X58.965 Y82.269 E13.08181
G1 X59.845 Y81.999 E13.11243
G1 X60.745 Y81.807 E13.14303
G1 X61.659 Y81.693 E13.17367
G1 X62.212 Y81.663 E13.19209
G1 X62.533 Y81.654 E13.20277
G1 X62.83 Y81.65 E13.21265
G1 X91.764 Y81.65 E14.175
G1 X92.616 Y81.661 E14.20334
G1 X93.535 Y81.714 E14.23395
G1 X94.446 Y81.847 E14.26457
G1 X94.974 Y81.961 E14.28254
G1 X96.099 Y82.235 E14.32105
G1 X98.69 Y82.833 E14.40949
G1 X101.14 Y83.326 E14.49262
G1 X103.653 Y83.757 E14.57742
G1 X106.148 Y84.112 E14.66124
G1 X108.675 Y84.4 E14.74583
G1 X111.167 Y84.613 E14.82902
G1 X113.688 Y84.756 E14.913
G1 X116.241 Y84.829 E14.99795
G1 X118.752 Y84.829 E15.08147
G1 X121.3 Y84.758 E15.16624
G1 X123.807 Y84.617 E15.24976
G1 X126.335 Y84.402 E15.33414
G1 X128.816 Y84.121 E15.41719
G1 X131.357 Y83.76 E15.50255
G1 X133.856 Y83.332 E15.58688
G1 X136.31 Y82.84 E15.67013
G1 X138.802 Y82.266 E15.75518
G1 X139.927 Y81.983 E15.79376
G1 X140.986 Y81.773 E15.82967
G1 X142.24 Y81.663 E15.87154
G1 X142.559 Y81.654 E15.88215
G1 X142.858 Y81.65 E15.8921
G1 X171.93 Y81.651 E16.85904
G1 X172.628 Y81.66 E16.88226
G1 X173.547 Y81.712 E16.91287
G1 X174.458 Y81.843 E16.94348
G1 X175.354 Y82.053 E16.97409
G1 X176.229 Y82.34 E17.00472
G1 X177.076 Y82.702 E17.03536
G1 X177.888 Y83.136 E17.06598
G1 X178.659 Y83.638 E17.09658
G1 X179.384 Y84.206 E17.12721
G1 X180.057 Y84.835 E17.15785
G1 X180.672 Y85.519 E17.18844
G1 X181.226 Y86.254 E17.21906
G1 X181.714 Y87.035 E17.24969
G1 X182.133 Y87.855 E17.28031
G1 X182.479 Y88.708 E17.31093
G1 X182.749 Y89.588 E17.34155
G1 X182.942 Y90.489 E17.37219
G1 X183.056 Y91.402 E17.4028
G1 X183.087 Y91.95 E17.42105
G1 X183.096 Y92.259 E17.43133
G1 X183.1 Y92.568 E17.44161
G1 X183.099 Y142.145 E19.09055
G1 X183.09 Y142.872 E19.11473
G1 X183.039 Y143.791 E19.14534
G1 X182.908 Y144.703 E19.17599
G1 X182.698 Y145.599 E19.2066
G1 X182.412 Y146.474 E19.23721
G1 X182.051 Y147.321 E19.26784
G1 X181.617 Y148.133 E19.29846
G1 X181.115 Y148.905 E19.32909
G1 X180.547 Y149.63 E19.35972
G1 X179.919 Y150.303 E19.39034
G1 X179.235 Y150.919 E19.42095
G1 X178.5 Y151.473 E19.45157
G1 X177.72 Y151.962 E19.48219
G1 X176.9 Y152.381 E19.51281
G1 X176.047 Y152.727 E19.54343
G1 X175.167 Y152.998 E19.57405
G1 X174.267 Y153.191 E19.60467
G1 X173.353 Y153.306 E19.63531
G1 X172.788 Y153.337 E19.65413
G1 X172.467 Y153.346 E19.66481
G1 X172.17 Y153.35 E19.67469
G1 X63.07 Y153.349 E23.30337
G1 X62.372 Y153.34 E23.32659
G1 X61.453 Y153.288 E23.3572
G1 X60.542 Y153.157 E23.38781
G1 X59.646 Y152.947 E23.41842
G1 X58.771 Y152.66 E23.44905
G1 X57.924 Y152.298 E23.47969
G1 X57.112 Y151.864 E23.51031
G1 X56.341 Y151.362 E23.54091
G1 X55.616 Y150.794 E23.57154
G1 X54.943 Y150.165 E23.60218
G1 X54.328 Y149.481 E23.63277
G1 X53.774 Y148.746 E23.66339
G1 X53.286 Y147.965 E23.69402
G1 X52.867 Y147.145 E23.72464
G1 X52.521 Y146.292 E23.75526
G1 X52.251 Y145.412 E23.78588
G1 X52.058 Y144.511 E23.81652
G1 X51.944 Y143.598 E23.84713
G1 X51.913 Y143.027 E23.86615
G1 X51.904 Y142.694 E23.87723
G1 X51.9 Y142.408 E23.88674
G1 X51.901 Y92.781 E25.53734
G1 X51.91 Y92.116 E25.55946
G1 X51.962 Y91.196 E25.59011
G1 X52.094 Y90.285 E25.62072
G1 X52.305 Y89.389 E25.65134
G1 X52.592 Y88.514 E25.68197
G1 X52.955 Y87.668 E25.71259
G1 X53.389 Y86.856 E25.74321
G1 X53.892 Y86.085 E25.77383
G1 X54.461 Y85.361 E25.80446
G1 X55.089 Y84.689 E25.83505
G1 X55.774 Y84.073 E25.86569
G1 X56.51 Y83.52 E25.89631
G0 F6000 X56.894 Y83.744
G1 F1200 X57.669 Y83.281 E25.92633
G1 X58.482 Y82.888 E25.95637
G1 X59.327 Y82.568 E25.98642
G1 X60.196 Y82.325 E26.01643
G1 X61.084 Y82.159 E26.04648
G1 X62.223 Y82.063 E26.0845
G1 X62.544 Y82.054 E26.09518
G1 X62.83 Y82.05 E26.10469
G1 X91.764 Y82.05 E27.06704
G1 X92.61 Y82.061 E27.09518
G1 X93.512 Y82.114 E27.12523
G1 X94.405 Y82.246 E27.15526
G1 X94.879 Y82.35 E27.1714
G1 X95.992 Y82.621 E27.2095
G1 X98.592 Y83.221 E27.29824
G1 X101.099 Y83.725 E27.3833
G1 X103.565 Y84.148 E27.46651
G1 X106.078 Y84.506 E27.55094
G1 X108.635 Y84.797 E27.63654
G1 X111.141 Y85.012 E27.72019
G1 X113.691 Y85.156 E27.80514
G1 X116.229 Y85.229 E27.88959
G1 X118.763 Y85.229 E27.97387
G1 X121.297 Y85.158 E28.05818
G1 X123.827 Y85.016 E28.14246
G1 X126.38 Y84.799 E28.22768
G1 X128.886 Y84.515 E28.31157
G1 X131.41 Y84.156 E28.39636
G1 X133.924 Y83.726 E28.48119
G1 X136.38 Y83.234 E28.5645
G1 X138.94 Y82.644 E28.65188
G1 X140.025 Y82.371 E28.68909
G1 X141.044 Y82.169 E28.72364
G1 X142.251 Y82.063 E28.76394
G1 X142.57 Y82.054 E28.77456
G1 X142.858 Y82.05 E28.78414
G1 X171.925 Y82.051 E29.75091
G1 X172.623 Y82.06 E29.77413
G1 X173.524 Y82.111 E29.80414
G1 X174.418 Y82.243 E29.8342
G1 X175.296 Y82.452 E29.86422
G1 X176.153 Y82.739 E29.89428
G1 X176.98 Y83.1 E29.92429
G1 X177.773 Y83.533 E29.95434
G1 X178.524 Y84.034 E29.98437
G1 X179.228 Y84.6 E30.01441
G1 X179.879 Y85.226 E30.04445
G1 X180.472 Y85.907 E30.07448
G1 X181.002 Y86.638 E30.10451
G1 X181.466 Y87.413 E30.13456
G1 X181.86 Y88.226 E30.16461
G1 X182.18 Y89.07 E30.19463
G1 X182.424 Y89.94 E30.22468
G1 X182.59 Y90.828 E30.25473
G1 X182.687 Y91.962 E30.29258
G1 X182.696 Y92.271 E30.30286
G1 X182.7 Y92.568 E30.31274
G1 X182.699 Y142.14 E31.96151
G1 X182.69 Y142.867 E31.9857
G1 X182.639 Y143.769 E32.01575
G1 X182.508 Y144.663 E32.0458
G1 X182.299 Y145.541 E32.07582
G1 X182.013 Y146.398 E32.10587
G1 X181.652 Y147.226 E32.13591
G1 X181.22 Y148.018 E32.16591
G1 X180.719 Y148.77 E32.19597
G1 X180.153 Y149.474 E32.22601
G1 X179.528 Y150.125 E32.25603
G1 X178.847 Y150.719 E32.28608
G1 X178.116 Y151.25 E32.31613
G1 X177.342 Y151.714 E32.34615
G1 X176.529 Y152.108 E32.3762
G1 X175.685 Y152.428 E32.40622
G1 X174.815 Y152.673 E32.43628
G1 X173.928 Y152.839 E32.4663
G1 X172.777 Y152.937 E32.50472
G1 X172.456 Y152.946 E32.5154
G1 X172.17 Y152.95 E32.52491
G1 X63.075 Y152.949 E36.15342
G1 X62.377 Y152.94 E36.17664
G1 X61.476 Y152.889 E36.20666
G1 X60.582 Y152.757 E36.23671
G1 X59.704 Y152.548 E36.26673
G1 X58.847 Y152.261 E36.29679
G1 X58.02 Y151.9 E36.32681
G1 X57.227 Y151.467 E36.35686
G1 X56.476 Y150.966 E36.38688
G1 X55.772 Y150.4 E36.41693
G1 X55.121 Y149.774 E36.44697
G1 X54.528 Y149.093 E36.477
G1 X53.998 Y148.362 E36.50703
G1 X53.534 Y147.587 E36.53707
G1 X53.14 Y146.774 E36.56712
G1 X52.82 Y145.93 E36.59714
G1 X52.576 Y145.06 E36.6272
G1 X52.41 Y144.172 E36.65724
G1 X52.313 Y143.017 E36.69579
G1 X52.304 Y142.684 E36.70687
G1 X52.3 Y142.408 E36.71605
G1 X52.301 Y92.786 E38.36649
G1 X52.31 Y92.121 E38.38861
G1 X52.362 Y91.219 E38.41866
G1 X52.494 Y90.326 E38.44868
G1 X52.704 Y89.448 E38.47871
G1 X52.991 Y88.591 E38.50877
G1 X53.353 Y87.764 E38.5388
G1 X53.786 Y86.972 E38.56882
G1 X54.288 Y86.221 E38.59886
G1 X54.855 Y85.517 E38.62893
G1 X55.481 Y84.867 E38.65894
G1 X56.162 Y84.274 E38.68898
G1 X56.894 Y83.744 E38.71903
G1 F2700 E33.71903
;MESH:brickHolder v3.stl
G0 F6000 X63.31 Y91.585
G0 X63.31 Y93.06
G0 X91.689 Y93.032
G0 X92.044 Y132.678
G0 X142.956 Y132.678
G0 X143.31 Y93.032
G0 X171.718 Y93.032
G0 X171.9 Y142.15
;TYPE:WALL-INNER
G1 F2700 E38.71903
G1 F1200 X63.1 Y142.15 E42.33774
G1 X63.1 Y92.85 E43.97746
G1 X91.871 Y92.85 E44.93439
G1 X91.872 Y132.85 E46.26479
G1 X143.128 Y132.85 E47.96958
G1 X143.128 Y92.85 E49.29998
G1 X171.9 Y92.85 E50.25694
G1 X171.9 Y142.15 E51.89667
G0 F6000 X172.3 Y142.55
;TYPE:WALL-OUTER
G1 F1200 X62.7 Y142.55 E55.54198
G1 X62.7 Y92.45 E57.20831
G1 X92.271 Y92.45 E58.19185
G1 X92.272 Y132.45 E59.52225
G1 X142.728 Y132.45 E61.20042
G1 X142.728 Y92.45 E62.53083
G1 X172.3 Y92.45 E63.5144
G1 X172.3 Y142.55 E65.18073
G0 F6000 X172.03 Y142.28
G0 X171.79 Y141.76
G0 X171.51 Y141.76
;TYPE:SKIN
G1 F1200 X63.49 Y141.76 E68.77349
G1 X63.49 Y93.24 E70.38727
G1 X91.481 Y93.24 E71.31826
G1 X91.482 Y133.24 E72.64866
G1 X143.518 Y133.24 E74.37939
G1 X143.518 Y93.24 E75.70979
G1 X171.51 Y93.24 E76.64081
G1 X171.51 Y141.76 E78.25459
G1 F2700 E73.25459
G0 F6000 X171.79 Y141.76
G0 X171.79 Y93.85
G0 X171.349 Y93.85
G1 F2700 E78.25459
G1 F1200 X170.899 Y93.4 E78.27576
G0 F6000 X170.333 Y93.4
G1 F1200 X171.349 Y94.416 E78.32355
G0 F6000 X171.349 Y94.982
G1 F1200 X169.767 Y93.4 E78.39796
G0 F6000 X169.202 Y93.4
G1 F1200 X171.349 Y95.547 E78.49895
G0 F6000 X171.349 Y96.113
G1 F1200 X168.636 Y93.4 E78.62656
G0 F6000 X168.07 Y93.4
G1 F1200 X171.349 Y96.679 E78.78079
G0 F6000 X171.349 Y97.244
G1 F1200 X167.505 Y93.4 E78.9616
G0 F6000 X166.939 Y93.4
G1 F1200 X171.349 Y97.81 E79.16904
G0 F6000 X171.349 Y98.376
G1 F1200 X166.373 Y93.4 E79.40309
G0 F6000 X165.808 Y93.4
G1 F1200 X171.349 Y98.941 E79.66372
G0 F6000 X171.349 Y99.507
G1 F1200 X165.242 Y93.4 E79.95098
G0 F6000 X164.676 Y93.4
G1 F1200 X171.349 Y100.073 E80.26486
G0 F6000 X171.349 Y100.638
G1 F1200 X164.11 Y93.4 E80.60533
G0 F6000 X163.545 Y93.4
G1 F1200 X171.349 Y101.204 E80.97241
G0 F6000 X171.349 Y101.77
G1 F1200 X162.979 Y93.4 E81.36611
G0 F6000 X162.413 Y93.4
G1 F1200 X171.349 Y102.336 E81.78643
G0 F6000 X171.349 Y102.901
G1 F1200 X161.848 Y93.4 E82.23333
G0 F6000 X161.282 Y93.4
G1 F1200 X171.349 Y103.467 E82.70685
G0 F6000 X171.349 Y104.033
G1 F1200 X160.716 Y93.4 E83.20699
G0 F6000 X160.151 Y93.4
G1 F1200 X171.349 Y104.598 E83.73371
G0 F6000 X171.349 Y105.164
G1 F1200 X159.585 Y93.4 E84.28705
G0 F6000 X159.019 Y93.4
G1 F1200 X171.349 Y105.73 E84.86702
G0 F6000 X171.349 Y106.295
G1 F1200 X158.454 Y93.4 E85.47356
G0 F6000 X157.888 Y93.4
G1 F1200 X171.349 Y106.861 E86.10673
G0 F6000 X171.349 Y107.427
G1 F1200 X157.322 Y93.4 E86.76651
G0 F6000 X156.757 Y93.4
G1 F1200 X171.349 Y107.992 E87.45288
G0 F6000 X171.349 Y108.558
G1 F1200 X156.191 Y93.4 E88.16586
G0 F6000 X155.625 Y93.4
G1 F1200 X171.349 Y109.124 E88.90547
G0 F6000 X171.349 Y109.689
G1 F1200 X155.06 Y93.4 E89.67166
G0 F6000 X154.494 Y93.4
G1 F1200 X171.349 Y110.255 E90.46446
G0 F6000 X171.349 Y110.821
G1 F1200 X153.928 Y93.4 E91.28389
G0 F6000 X153.362 Y93.4
G1 F1200 X171.349 Y111.386 E92.12992
G0 F6000 X171.349 Y111.952
G1 F1200 X152.797 Y93.4 E93.00255
G0 F6000 X152.231 Y93.4
G1 F1200 X171.349 Y112.518 E93.9018
G0 F6000 X171.349 Y113.084
G1 F1200 X151.665 Y93.4 E94.82768
G0 F6000 X151.1 Y93.4
G1 F1200 X171.349 Y113.649 E95.78013
G0 F6000 X171.349 Y114.215
G1 F1200 X150.534 Y93.4 E96.7592
G0 F6000 X149.968 Y93.4
G1 F1200 X171.349 Y114.781 E97.7649
G0 F6000 X171.349 Y115.346
G1 F1200 X149.403 Y93.4 E98.79717
G0 F6000 X148.837 Y93.4
G1 F1200 X171.349 Y115.912 E99.85607
G0 F6000 X171.349 Y116.478
G1 F1200 X148.271 Y93.4 E100.94159
G0 F6000 X147.706 Y93.4
G1 F1200 X171.349 Y117.043 E102.05368
G0 F6000 X171.349 Y117.609
G1 F1200 X147.14 Y93.4 E103.1924
G0 F6000 X146.574 Y93.4
G1 F1200 X171.349 Y118.175 E104.35774
G0 F6000 X171.349 Y118.74
G1 F1200 X146.009 Y93.4 E105.54965
G0 F6000 X145.443 Y93.4
G1 F1200 X171.349 Y119.306 E106.76819
G0 F6000 X171.349 Y119.872
G1 F1200 X144.877 Y93.4 E108.01335
G0 F6000 X144.312 Y93.4
G1 F1200 X171.349 Y120.437 E109.28509
G0 F6000 X171.349 Y121.003
G1 F1200 X143.746 Y93.4 E110.58345
G0 F6000 X143.677 Y93.896
G1 F1200 X171.349 Y121.569 E111.88508
G0 F6000 X171.349 Y122.135
G1 F1200 X143.677 Y94.462 E113.18671
G0 F6000 X143.677 Y95.028
G1 F1200 X171.349 Y122.7 E114.48832
G0 F6000 X171.349 Y123.266
G1 F1200 X143.677 Y95.593 E115.78995
G0 F6000 X143.677 Y96.159
G1 F1200 X171.349 Y123.832 E117.09158
G0 F6000 X171.349 Y124.397
G1 F1200 X143.677 Y96.725 E118.39318
G0 F6000 X143.677 Y97.29
G1 F1200 X171.349 Y124.963 E119.69481
G0 F6000 X171.349 Y125.529
G1 F1200 X143.677 Y97.856 E120.99644
