;FLAVOR:Marlin
;TIME:3334
;Filament used: 2.5193m
;Layer height: 0.2
;MINX:84.836
;MINY:95.648
;MINZ:0.2
;MAXX:140.164
;MAXY:130.217
;MAXZ:14
;Generated with Cura_SteamEngine 4.12.1
M82 ;absolute extrusion mode
; Ender 3 Custom Start G-code
M117 Getting the bed up to temp!
M140 S50 ; Set Heat Bed temperature
M190 S50 ; Wait for Heat Bed temperature
M117 Pre-heating the extruder!
M104 S175; start warming extruder to 160
G28 ; Home all axes
M117 Auto bed-level GO!
G29 ; Auto bed-level (BL-Touch)
G92 E0 ; Reset Extruder
M117 Getting the extruder up to temp!
M104 S200 ; Set Extruder temperature
M109 S200 ; Wait for Extruder temperature
G1 Z2.0 F3000 ; move z up little to prevent scratching of surface
G1 X0.1 Y20 Z0.3 F5000.0 ; move to start-line position
M117 LET THE PURGE BEGIN!
G1 X0.1 Y200.0 Z0.3 F1500.0 E15 ; draw 1st line
G1 X0.4 Y200.0 Z0.3 F5000.0 ; move to side a little
G1 X0.4 Y20 Z0.3 F1500.0 E30 ; draw 2nd line
G92 E0 ; reset extruder
G1 Z1.0 F3000 ; move z up little to prevent scratching of surface
G1 X5 Y20 Z0.3 F5000.0 ; Move over to prevent blob squish
M117 Autobots! Roll Out!
; End of custom start GCode
G92 E0
G92 E0
G1 F2700 E-5
;LAYER_COUNT:70
;LAYER:0
M107
;MESH:Base-v2.stl
G0 F9000 X119.481 Y109.214 Z0.2
;TYPE:WALL-INNER
G1 F2700 E0
G1 F2100 X122.854 Y107.266 E0.12955
G1 X122.854 Y103.24 E0.26346
G1 X119.367 Y101.226 E0.39739
G1 X115.929 Y103.212 E0.52945
G1 X112.875 Y101.448 E0.64675
G1 X112.487 Y101.228 E0.66158
G1 X109.062 Y103.206 E0.79313
G1 X105.633 Y101.226 E0.92483
G1 X102.146 Y103.24 E1.05876
G1 X102.146 Y107.265 E1.19263
G1 X105.63 Y109.278 E1.32646
G1 X105.63 Y112.743 E1.44171
G1 X102.146 Y114.754 E1.57551
G1 X102.146 Y118.78 E1.70941
G1 X105.63 Y120.792 E1.84323
G1 X105.63 Y124.66 E1.97188
G1 X109.118 Y126.674 E2.10584
G1 X112.556 Y124.689 E2.23788
G1 X115.993 Y126.675 E2.3699
G1 X119.481 Y124.661 E2.50387
G1 X119.481 Y120.728 E2.63468
G1 X122.854 Y118.781 E2.76421
G1 X122.854 Y114.755 E2.89812
G1 X119.481 Y112.807 E3.02767
G1 X119.481 Y109.214 E3.14717
G0 F9000 X119.367 Y108.818
;TYPE:WALL-OUTER
G1 F2100 X122.454 Y107.035 E3.26574
G1 X122.454 Y103.471 E3.38428
G1 X119.367 Y101.688 E3.50285
G1 X116.28 Y103.471 E3.62142
G1 X116.28 Y107.034 E3.73993
G1 X119.367 Y108.818 E3.85851
G1 F2700 E-1.14149
G0 F9000 X119.267 Y108.99
G0 X119.215 Y112.94
G0 X116.146 Y114.907
G0 X116.146 Y118.627
G0 X119.215 Y120.788
G0 X119.215 Y124.508
G0 X115.893 Y126.385
G1 F2700 E3.85851
G0 F9000 X115.993 Y126.213
G1 F2100 X119.081 Y124.43 E3.97711
G1 X119.081 Y120.866 E4.09565
G1 X115.993 Y119.083 E4.21425
G1 X112.906 Y120.866 E4.33282
G1 X112.906 Y124.429 E4.45133
G1 X115.993 Y126.213 E4.56991
G1 F2700 E-0.43009
G0 F9000 X115.893 Y126.385
G0 X119.215 Y124.508
G0 X119.267 Y120.504
G1 F2700 E4.56991
G0 F9000 X119.367 Y120.332
G1 F2100 X122.454 Y118.55 E4.68847
G1 X122.454 Y114.986 E4.807
G1 X119.367 Y113.203 E4.92557
G1 X116.28 Y114.985 E5.04413
G1 X116.28 Y118.549 E5.16267
G1 X119.367 Y120.332 E5.28124
G1 F2700 E0.28124
G0 F9000 X119.267 Y120.504
G0 X116.146 Y118.627
G0 X115.893 Y114.817
G1 F2700 E5.28124
G0 F9000 X115.993 Y114.645
G1 F2100 X119.081 Y112.862 E5.39983
G1 X119.081 Y109.298 E5.51837
G1 X115.993 Y107.515 E5.63697
G1 X112.906 Y109.298 E5.75554
G1 X112.906 Y112.861 E5.87405
G1 X115.993 Y114.645 E5.99263
G1 F2700 E0.99263
G0 F9000 X115.893 Y114.817
G0 X112.772 Y112.938
G0 X112.39 Y108.989
G1 F2700 E5.99263
G0 F9000 X112.49 Y108.817
G1 F2100 X115.578 Y107.036 E6.1112
G1 X115.578 Y103.471 E6.22977
G1 X112.677 Y101.795 E6.3412
G1 X112.489 Y101.689 E6.34838
G1 X109.404 Y103.471 E6.46688
G1 X109.404 Y107.034 E6.58538
G1 X112.49 Y108.817 E6.70393
G1 F2700 E1.70393
G0 F9000 X112.39 Y108.989
G0 X109.118 Y107.36
G0 X105.533 Y108.99
G1 F2700 E6.70393
G0 F9000 X105.633 Y108.818
G1 F2100 X108.72 Y107.035 E6.8225
G1 X108.72 Y103.471 E6.94103
G1 X105.633 Y101.688 E7.0596
G1 X102.546 Y103.471 E7.17817
G1 X102.546 Y107.034 E7.29668
G1 X105.633 Y108.818 E7.41527
G1 F2700 E2.41527
G0 F9000 X105.533 Y108.99
G0 X105.533 Y113.105
G0 X102.412 Y114.907
G0 X102.412 Y118.627
G0 X105.533 Y120.504
G1 F2700 E7.41527
G0 F9000 X105.633 Y120.332
G1 F2100 X108.72 Y118.55 E7.53382
G1 X108.72 Y114.986 E7.65236
G1 X105.633 Y113.203 E7.77093
G1 X102.546 Y114.985 E7.88948
G1 X102.546 Y118.549 E8.00802
G1 X105.633 Y120.332 E8.12659
G1 F2700 E3.12659
G0 F9000 X105.533 Y120.504
G0 X108.854 Y118.628
G0 X109.018 Y114.817
G1 F2700 E8.12659
G0 F9000 X109.118 Y114.645
G1 F2100 X112.204 Y112.862 E8.24513
G1 X112.204 Y109.297 E8.3637
G1 X109.118 Y107.515 E8.48223
G1 X106.03 Y109.295 E8.60078
G1 X106.03 Y112.861 E8.71938
G1 X109.118 Y114.645 E8.838
G1 F2700 E3.838
G0 F9000 X109.018 Y114.817
G0 X109.27 Y118.626
G0 X112.39 Y120.504
G1 F2700 E8.838
G0 F9000 X112.49 Y120.332
G1 F2100 X115.578 Y118.551 E8.95656
G1 X115.578 Y114.986 E9.07513
G1 X112.49 Y113.203 E9.19373
G1 X109.404 Y114.985 E9.31226
G1 X109.404 Y118.549 E9.4308
G1 X112.49 Y120.332 E9.54934
G1 F2700 E4.54934
G0 F9000 X112.39 Y120.504
G0 X112.338 Y124.508
G0 X109.018 Y126.384
G1 F2700 E9.54934
G0 F9000 X109.118 Y126.212
G1 F2100 X112.204 Y124.43 E9.66786
G1 X112.204 Y120.866 E9.7864
G1 X109.118 Y119.083 E9.90494
G1 X106.03 Y120.864 E10.02351
G1 X106.03 Y124.429 E10.14208
G1 X109.118 Y126.212 E10.26068
G1 F2700 E5.26068
G0 F9000 X109.017 Y126.383
G0 X112.556 Y124.892
G0 X115.993 Y126.368
G0 X119.674 Y124.773
G0 X118.222 Y123.935
G0 X119.674 Y130.217
G0 X119.674 Y128.742
G0 X138.899 Y128.952
;TYPE:WALL-INNER
G1 F2700 E10.26068
G1 F2100 X86.101 Y128.952 E12.01675
G1 X86.101 Y98.852 E13.01788
G1 X138.899 Y98.852 E14.77395
G1 X138.899 Y128.952 E15.77508
G0 F9000 X139.299 Y129.352
;TYPE:WALL-OUTER
G1 F2100 X85.701 Y129.352 E17.55775
G1 X85.701 Y98.452 E18.58549
G1 X139.299 Y98.452 E20.36817
G1 X139.299 Y129.352 E21.39591
G0 F9000 X139.129 Y129.182
G0 X138.789 Y128.562
G0 X138.509 Y128.562
;TYPE:SKIN
G1 F2100 X86.491 Y128.562 E23.12603
G1 X86.491 Y99.242 E24.10122
G1 X138.509 Y99.242 E25.83134
G1 X138.509 Y128.562 E26.80653
G1 F2700 E21.80653
G0 F9000 X138.789 Y128.562
G0 X122.964 Y128.742
G0 X122.964 Y130.217
G0 X118.222 Y121.361
G0 X119.674 Y120.839
G0 X122.964 Y118.852
G1 F2700 E26.80653
G0 F9000 X123.244 Y119.006
G1 F2100 X123.244 Y114.53 E26.9554
G1 X119.871 Y112.582 E27.08496
G1 X119.871 Y109.439 E27.18949
G1 X123.244 Y107.491 E27.31904
G1 X123.244 Y103.015 E27.46792
G1 X119.367 Y100.776 E27.61682
G1 X115.929 Y102.761 E27.74886
G1 X113.068 Y101.109 E27.85874
G1 X112.485 Y100.779 E27.88103
G1 X109.062 Y102.755 E28.01248
G1 X105.633 Y100.776 E28.14416
G1 X101.756 Y103.015 E28.29307
G1 X101.756 Y107.49 E28.44191
G1 X105.24 Y109.503 E28.57574
G1 X105.24 Y112.518 E28.67602
G1 X101.756 Y114.529 E28.80982
G1 X101.756 Y119.005 E28.95869
G1 X105.24 Y121.017 E29.0925
G1 X105.24 Y124.885 E29.22115
G1 X109.118 Y127.124 E29.37009
G1 X112.556 Y125.14 E29.50211
G1 X115.993 Y127.125 E29.63412
G1 X119.871 Y124.886 E29.78306
G1 X119.871 Y120.953 E29.91387
G1 X123.244 Y119.006 E30.04341
G1 F2700 E25.04341
G0 F9000 X122.964 Y118.852
G0 X123.047 Y114.643
G0 X121.595 Y115.481
G0 X140.164 Y114.643
G0 X138.689 Y114.643
G0 X138.789 Y99.881
G1 F2700 E30.04341
G0 F9000 X138.348 Y99.881
G1 F2100 X137.868 Y99.402 E30.06596
G0 F9000 X137.303 Y99.402
G1 F2100 X138.348 Y100.447 E30.11512
G0 F9000 X138.348 Y101.013
G1 F2100 X136.737 Y99.402 E30.19089
G0 F9000 X136.171 Y99.402
G1 F2100 X138.348 Y101.578 E30.29327
G0 F9000 X138.348 Y102.144
G1 F2100 X135.606 Y99.402 E30.42224
G0 F9000 X135.04 Y99.402
G1 F2100 X138.348 Y102.71 E30.57784
G0 F9000 X138.348 Y103.275
G1 F2100 X134.474 Y99.402 E30.76004
G0 F9000 X133.909 Y99.402
G1 F2100 X138.348 Y103.841 E30.96884
G0 F9000 X138.348 Y104.407
G1 F2100 X133.343 Y99.402 E31.20426
G0 F9000 X132.777 Y99.402
G1 F2100 X138.348 Y104.972 E31.46627
G0 F9000 X138.348 Y105.538
G1 F2100 X132.211 Y99.402 E31.75492
G0 F9000 X131.646 Y99.402
G1 F2100 X138.348 Y106.104 E32.07016
G0 F9000 X138.348 Y106.669
G1 F2100 X131.08 Y99.402 E32.412
G0 F9000 X130.514 Y99.402
G1 F2100 X138.348 Y107.235 E32.78046
G0 F9000 X138.348 Y107.801
G1 F2100 X129.949 Y99.402 E33.17553
G0 F9000 X129.383 Y99.402
G1 F2100 X138.348 Y108.366 E33.59719
G0 F9000 X138.348 Y108.932
G1 F2100 X128.817 Y99.402 E34.04547
G0 F9000 X128.252 Y99.402
G1 F2100 X138.348 Y109.498 E34.52036
G0 F9000 X138.348 Y110.063
G1 F2100 X127.686 Y99.402 E35.02184
G0 F9000 X127.12 Y99.402
G1 F2100 X138.348 Y110.629 E35.54995
G0 F9000 X138.348 Y111.195
G1 F2100 X126.555 Y99.402 E36.10466
G0 F9000 X125.989 Y99.402
G1 F2100 X138.348 Y111.761 E36.68599
G0 F9000 X138.348 Y112.326
G1 F2100 X125.423 Y99.402 E37.29392
G0 F9000 X124.858 Y99.402
G1 F2100 X138.348 Y112.892 E37.92844
G0 F9000 X138.348 Y113.458
G1 F2100 X124.292 Y99.402 E38.5896
G0 F9000 X123.726 Y99.402
G1 F2100 X138.348 Y114.023 E39.27735
G0 F9000 X138.348 Y114.589
G1 F2100 X123.161 Y99.402 E39.9917
G0 F9000 X122.595 Y99.402
G1 F2100 X138.348 Y115.155 E40.73267
G0 F9000 X138.348 Y115.72
G1 F2100 X122.029 Y99.402 E41.50024
G0 F9000 X121.463 Y99.402
G1 F2100 X138.348 Y116.286 E42.29444
G0 F9000 X138.348 Y116.852
G1 F2100 X120.898 Y99.402 E43.11523
G0 F9000 X120.332 Y99.402
G1 F2100 X138.348 Y117.417 E43.96262
G0 F9000 X138.348 Y117.983
G1 F2100 X123.403 Y103.038 E44.66559
G0 F9000 X123.129 Y102.764
G1 F2100 X119.766 Y99.402 E44.82375
G0 F9000 X119.201 Y99.402
G1 F2100 X121.79 Y101.991 E44.94553
G0 F9000 X121.57 Y102.37
G0 X120.232 Y101.598
G0 X120.452 Y101.219
G1 F2100 X118.635 Y99.402 E45.031
G0 F9000 X118.069 Y99.402
G1 F2100 X119.298 Y100.63 E45.08878
G0 F9000 X118.939 Y100.837
G1 F2100 X117.504 Y99.402 E45.15628
G0 F9000 X116.938 Y99.402
G1 F2100 X118.581 Y101.044 E45.23354
G0 F9000 X118.222 Y101.252
G1 F2100 X116.372 Y99.402 E45.32056
G0 F9000 X115.807 Y99.402
G1 F2100 X117.863 Y101.458 E45.41726
G0 F9000 X117.504 Y101.665
G1 F2100 X115.241 Y99.402 E45.52371
G0 F9000 X114.675 Y99.402
G1 F2100 X117.146 Y101.872 E45.63991
G0 F9000 X116.787 Y102.08
G1 F2100 X114.11 Y99.402 E45.76586
G0 F9000 X113.544 Y99.402
G1 F2100 X116.428 Y102.286 E45.90151
G0 F9000 X116.07 Y102.493
G1 F2100 X112.978 Y99.402 E46.04692
G0 F9000 X112.413 Y99.402
G1 F2100 X115.121 Y102.11 E46.1743
G0 F9000 X114.901 Y102.49
G0 X113.56 Y101.716
G0 X113.781 Y101.336
G1 F2100 X111.847 Y99.402 E46.26527
G0 F9000 X111.281 Y99.402
G1 F2100 X112.477 Y100.597 E46.3215
G0 F9000 X112.118 Y100.805
G1 F2100 X110.715 Y99.402 E46.3875
G0 F9000 X110.15 Y99.402
G1 F2100 X111.759 Y101.011 E46.46318
G0 F9000 X111.401 Y101.218
G1 F2100 X109.584 Y99.402 E46.54862
G0 F9000 X109.018 Y99.402
G1 F2100 X111.042 Y101.425 E46.6438
G0 F9000 X110.684 Y101.633
G1 F2100 X108.453 Y99.402 E46.74874
G0 F9000 X107.887 Y99.402
G1 F2100 X110.324 Y101.839 E46.86337
G0 F9000 X109.966 Y102.046
G1 F2100 X107.321 Y99.402 E46.98776
G0 F9000 X106.756 Y99.402
G1 F2100 X109.607 Y102.254 E47.12188
G0 F9000 X109.249 Y102.461
G1 F2100 X106.19 Y99.402 E47.26577
G0 F9000 X105.624 Y99.402
G1 F2100 X108.426 Y102.203 E47.39754
G0 F9000 X108.205 Y102.583
G0 X106.869 Y101.811
G0 X107.089 Y101.432
G1 F2100 X105.059 Y99.402 E47.49303
G0 F9000 X104.493 Y99.402
G1 F2100 X105.752 Y100.661 E47.55225
G0 F9000 X105.305 Y100.78
G1 F2100 X103.927 Y99.402 E47.61706
G0 F9000 X103.362 Y99.402
G1 F2100 X104.947 Y100.987 E47.69162
G0 F9000 X104.588 Y101.194
G1 F2100 X102.796 Y99.402 E47.77591
G0 F9000 X102.23 Y99.402
G1 F2100 X104.229 Y101.401 E47.86994
G0 F9000 X103.871 Y101.608
G1 F2100 X101.664 Y99.402 E47.97372
G0 F9000 X101.099 Y99.402
G1 F2100 X103.512 Y101.815 E48.08722
G0 F9000 X103.153 Y102.022
G1 F2100 X100.533 Y99.402 E48.21046
G0 F9000 X99.967 Y99.402
G1 F2100 X102.794 Y102.229 E48.34343
G0 F9000 X102.436 Y102.436
G1 F2100 X99.402 Y99.402 E48.48614
G0 F9000 X98.836 Y99.402
G1 F2100 X102.077 Y102.643 E48.63859
G0 F9000 X101.718 Y102.85
G1 F2100 X98.27 Y99.402 E48.80077
G0 F9000 X97.705 Y99.402
G1 F2100 X101.596 Y103.293 E48.98379
G0 F9000 X101.596 Y103.859
G1 F2100 X97.139 Y99.402 E49.19344
G0 F9000 X96.573 Y99.402
G1 F2100 X101.596 Y104.424 E49.42968
G0 F9000 X101.596 Y104.99
G1 F2100 X96.008 Y99.402 E49.69252
G0 F9000 X95.442 Y99.402
G1 F2100 X101.596 Y105.556 E49.98199
G0 F9000 X101.596 Y106.121
G1 F2100 X94.876 Y99.402 E50.29805
G0 F9000 X94.311 Y99.402
G1 F2100 X101.596 Y106.687 E50.64072
G0 F9000 X101.596 Y107.253
G1 F2100 X93.745 Y99.402 E51.01
G0 F9000 X93.179 Y99.402
G1 F2100 X105.08 Y111.302 E51.56977
G0 F9000 X105.08 Y110.737
G1 F2100 X102.374 Y108.031 E51.69705
G0 F9000 X102.594 Y107.652
G0 X103.934 Y108.426
G0 X103.714 Y108.805
G1 F2100 X105.08 Y110.171 E51.7613
G0 F9000 X105.52 Y110.171
G0 X105.52 Y111.868
G0 X105.08 Y111.868
G1 F2100 X92.614 Y99.402 E52.34766
G0 F9000 X92.048 Y99.402
G1 F2100 X105.073 Y112.427 E52.96032
G0 F9000 X104.715 Y112.635
G1 F2100 X91.482 Y99.402 E53.58276
G0 F9000 X90.916 Y99.402
G1 F2100 X104.356 Y112.842 E54.21494
G0 F9000 X103.997 Y113.048
G1 F2100 X90.351 Y99.402 E54.8568
G0 F9000 X89.785 Y99.402
G1 F2100 X103.639 Y113.255 E55.50843
G0 F9000 X103.28 Y113.463
G1 F2100 X89.219 Y99.402 E56.16981
G0 F9000 X88.654 Y99.402
G1 F2100 X102.922 Y113.67 E56.84094
G0 F9000 X102.563 Y113.877
G1 F2100 X88.088 Y99.402 E57.5218
G0 F9000 X87.522 Y99.402
G1 F2100 X102.204 Y114.083 E58.21237
G0 F9000 X101.846 Y114.291
G1 F2100 X86.957 Y99.402 E58.9127
G0 F9000 X86.65 Y99.661
G1 F2100 X101.596 Y114.607 E59.61572
G0 F9000 X101.596 Y115.172
G1 F2100 X86.65 Y100.227 E60.31871
G0 F9000 X86.65 Y100.793
G1 F2100 X101.596 Y115.738 E61.0217
G0 F9000 X101.596 Y116.304
G1 F2100 X86.65 Y101.358 E61.72471
G0 F9000 X86.65 Y101.924
G1 F2100 X101.596 Y116.869 E62.4277
G0 F9000 X101.596 Y117.435
G1 F2100 X86.65 Y102.49 E63.13069
G0 F9000 X86.65 Y103.055
G1 F2100 X101.596 Y118.001 E63.83371
G0 F9000 X101.596 Y118.566
G1 F2100 X86.65 Y103.621 E64.5367
G0 F9000 X86.65 Y104.187
G1 F2100 X105.079 Y122.615 E65.40352
G0 F9000 X105.079 Y122.05
G1 F2100 X102.85 Y119.821 E65.50836
G0 F9000 X103.07 Y119.441
G0 X104.41 Y120.215
G0 X104.19 Y120.594
G1 F2100 X105.079 Y121.484 E65.5502
G0 F9000 X105.52 Y121.484
G0 X105.52 Y123.181
G0 X105.079 Y123.181
G1 F2100 X86.65 Y104.752 E66.41705
G0 F9000 X86.65 Y105.318
G1 F2100 X105.079 Y123.747 E67.28389
G0 F9000 X105.079 Y124.312
G1 F2100 X86.65 Y105.884 E68.15071
G0 F9000 X86.65 Y106.449
G1 F2100 X105.079 Y124.878 E69.01755
G0 F9000 X105.31 Y125.109
G1 F2100 X108.602 Y128.401 E69.1724
G0 F9000 X109.168 Y128.401
G1 F2100 X106.649 Y125.882 E69.29088
G0 F9000 X106.869 Y125.503
G0 X108.207 Y126.275
G0 X107.987 Y126.654
G1 F2100 X109.733 Y128.401 E69.37303
G0 F9000 X110.299 Y128.401
G1 F2100 X109.173 Y127.275 E69.426
G0 F9000 X109.532 Y127.069
G1 F2100 X110.865 Y128.401 E69.48867
G0 F9000 X111.43 Y128.401
G1 F2100 X109.891 Y126.862 E69.56106
G0 F9000 X110.249 Y126.654
G1 F2100 X111.996 Y128.401 E69.64324
G0 F9000 X112.562 Y128.401
G1 F2100 X110.609 Y126.448 E69.7351
G0 F9000 X110.967 Y126.241
G1 F2100 X113.127 Y128.401 E69.8367
G0 F9000 X113.693 Y128.401
G1 F2100 X111.326 Y126.034 E69.94804
G0 F9000 X111.685 Y125.827
G1 F2100 X114.259 Y128.401 E70.06911
G0 F9000 X114.824 Y128.401
G1 F2100 X112.043 Y125.62 E70.19992
G0 F9000 X112.403 Y125.413
G1 F2100 X115.39 Y128.401 E70.34044
G0 F9000 X115.956 Y128.401
G1 F2100 X113.321 Y125.766 E70.46439
G0 F9000 X113.541 Y125.387
G0 X114.879 Y126.16
G0 X114.659 Y126.538
G1 F2100 X116.522 Y128.401 E70.55202
G0 F9000 X117.087 Y128.401
G1 F2100 X115.994 Y127.308 E70.60343
G0 F9000 X116.353 Y127.101
G1 F2100 X117.653 Y128.401 E70.66457
G0 F9000 X118.219 Y128.401
G1 F2100 X116.711 Y126.893 E70.73551
G0 F9000 X117.07 Y126.686
G1 F2100 X118.784 Y128.401 E70.81615
G0 F9000 X119.35 Y128.401
G1 F2100 X117.429 Y126.48 E70.90651
G0 F9000 X117.787 Y126.273
G1 F2100 X119.916 Y128.401 E71.00663
G0 F9000 X120.481 Y128.401
G1 F2100 X118.146 Y126.065 E71.11648
G0 F9000 X118.504 Y125.858
G1 F2100 X121.047 Y128.401 E71.2361
G0 F9000 X121.613 Y128.401
G1 F2100 X118.863 Y125.652 E71.36542
G0 F9000 X119.222 Y125.444
G1 F2100 X122.178 Y128.401 E71.50449
G0 F9000 X122.744 Y128.401
G1 F2100 X119.58 Y125.237 E71.65331
G0 F9000 X119.939 Y125.03
G1 F2100 X123.31 Y128.401 E71.81188
G0 F9000 X123.875 Y128.401
