;FLAVOR:Marlin
;TIME:708
;Filament used: 0.31975m
;Layer height: 0.2
;MINX:104.7
;MINY:102.2
;MINZ:0.2
;MAXX:120.3
;MAXY:115.3
;MAXZ:8
;Generated with Cura_SteamEngine 4.12.1
M82 ;absolute extrusion mode
; Ender 3 Custom Start G-code
M117 Getting the bed up to temp!
M140 S50 ; Set Heat Bed temperature
M190 S50 ; Wait for Heat Bed temperature
M117 Pre-heating the extruder!
M104 S175; start warming extruder to 160
G28 ; Home all axes
M117 Auto bed-level GO!
G29 ; Auto bed-level (BL-Touch)
G92 E0 ; Reset Extruder
M117 Getting the extruder up to temp!
M104 S200 ; Set Extruder temperature
M109 S200 ; Wait for Extruder temperature
G1 Z2.0 F3000 ; move z up little to prevent scratching of surface
G1 X0.1 Y20 Z0.3 F5000.0 ; move to start-line position
M117 LET THE PURGE BEGIN!
G1 X0.1 Y200.0 Z0.3 F1500.0 E15 ; draw 1st line
G1 X0.4 Y200.0 Z0.3 F5000.0 ; move to side a little
G1 X0.4 Y20 Z0.3 F1500.0 E30 ; draw 2nd line
G92 E0 ; reset extruder
G1 Z1.0 F3000 ; move z up little to prevent scratching of surface
G1 X5 Y20 Z0.3 F5000.0 ; Move over to prevent blob squish
M117 Autobots! Roll Out!
; End of custom start GCode
G92 E0
G92 E0
G1 F2700 E-5
;LAYER_COUNT:40
;LAYER:0
M107
;MESH:DropIn_TNut_3030_M3.stl(1)
G0 F9000 X112.754 Y102.6 Z0.2
;TYPE:WALL-INNER
G1 F2700 E0
G1 F2100 X112.754 Y103.398 E0.02654
G1 X117.65 Y103.398 E0.18938
G1 X117.66 Y104.681 E0.23206
G1 X117.659 Y105.232 E0.25038
G1 X117.368 Y105.372 E0.26112
G1 X112.991 Y107.4 E0.42157
G1 X107.748 Y107.4 E0.59595
G1 X105.1 Y104.752 E0.72051
G1 X105.1 Y103.398 E0.76554
G1 X109.1 Y103.398 E0.89858
G1 X109.1 Y102.6 E0.92512
G1 X112.754 Y102.6 E1.04666
G0 F9000 X113.154 Y102.998
;TYPE:WALL-OUTER
G1 F2100 X118.047 Y102.998 E1.2094
G1 X118.06 Y104.681 E1.26538
G1 X118.059 Y105.487 E1.29218
G1 X117.703 Y105.653 E1.30525
G1 X117.536 Y105.735 E1.31144
G1 X113.079 Y107.8 E1.47482
G1 X107.582 Y107.8 E1.65765
G1 X104.7 Y104.918 E1.79321
G1 X104.7 Y102.998 E1.85707
G1 X108.7 Y102.998 E1.99011
G1 X108.7 Y102.2 E2.01665
G1 X113.154 Y102.2 E2.16479
G1 X113.154 Y102.998 E2.19133
G0 F9000 X112.364 Y102.99
;TYPE:SKIN
G1 F2100 X112.364 Y103.788 E2.21787
G1 X117.263 Y103.788 E2.38081
G1 X117.27 Y104.681 E2.41052
G1 X117.269 Y104.987 E2.42069
G1 X112.907 Y107.01 E2.58062
G1 X107.908 Y107.01 E2.74688
G1 X105.49 Y104.592 E2.86062
G1 X105.49 Y103.788 E2.88736
G1 X109.49 Y103.788 E3.0204
G1 X109.49 Y102.99 E3.04694
G1 X112.364 Y102.99 E3.14253
G0 F9000 X112.364 Y102.71
G0 X112.92 Y102.988
G0 X116.958 Y103.508
G0 X116.958 Y103.948
G1 F2100 X117.106 Y104.095 E3.14947
G0 F9000 X117.109 Y104.664
G1 F2100 X116.393 Y103.948 E3.18315
G0 F9000 X115.827 Y103.948
G1 F2100 X116.873 Y104.994 E3.23235
G0 F9000 X116.486 Y105.172
G1 F2100 X115.261 Y103.948 E3.28995
G0 F9000 X114.696 Y103.948
G1 F2100 X116.1 Y105.352 E3.35599
G0 F9000 X115.713 Y105.531
G1 F2100 X114.13 Y103.948 E3.43045
G0 F9000 X113.564 Y103.948
G1 F2100 X115.327 Y105.711 E3.51337
G0 F9000 X114.94 Y105.889
G1 F2100 X112.999 Y103.948 E3.60467
G0 F9000 X112.433 Y103.948
G1 F2100 X114.554 Y106.069 E3.70444
G0 F9000 X114.168 Y106.248
G1 F2100 X111.069 Y103.149 E3.8502
G0 F9000 X111.635 Y103.149
G1 F2100 X112.203 Y103.718 E3.87694
G0 F9000 X112.614 Y103.538
G0 X112.572 Y102.782
G0 X110.503 Y102.71
G0 X110.503 Y103.149
G1 F2100 X113.781 Y106.428 E4.03115
G0 F9000 X113.395 Y106.606
G1 F2100 X109.938 Y103.149 E4.19376
G0 F9000 X109.648 Y103.426
G1 F2100 X113.009 Y106.786 E4.35183
G0 F9000 X112.506 Y106.849
G1 F2100 X109.605 Y103.948 E4.48828
G0 F9000 X109.039 Y103.948
G1 F2100 X111.94 Y106.849 E4.62474
G0 F9000 X111.374 Y106.849
G1 F2100 X108.473 Y103.948 E4.76119
G0 F9000 X107.908 Y103.948
G1 F2100 X110.809 Y106.849 E4.89765
G0 F9000 X110.243 Y106.849
G1 F2100 X107.342 Y103.948 E5.0341
G0 F9000 X106.776 Y103.948
G1 F2100 X109.677 Y106.849 E5.17055
G0 F9000 X109.112 Y106.849
G1 F2100 X106.21 Y103.948 E5.30703
G0 F9000 X105.649 Y103.952
G1 F2100 X108.546 Y106.849 E5.4433
G0 F9000 X107.98 Y106.849
G1 F2100 X105.649 Y104.518 E5.55294
G0 F9000 X105.3 Y104.518
G1 F2700 E0.55294
;MESH:DropIn_TNut_3030_M3.stl
G0 F9000 X105.21 Y104.518
G0 X107.671 Y107.582
G0 X107.671 Y108.665
G0 X107.671 Y109.633
G0 X107.671 Y110.718
G0 X105.282 Y111.08
G0 X105.274 Y112.181
G0 X107.748 Y114.9
;TYPE:WALL-INNER
G1 F2700 E5.55294
G1 F2100 X105.1 Y112.252 E5.67749
G1 X105.1 Y110.898 E5.72253
G1 X109.1 Y110.898 E5.85557
G1 X109.1 Y110.1 E5.88211
G1 X112.754 Y110.1 E6.00364
G1 X112.754 Y110.898 E6.03019
G1 X117.65 Y110.898 E6.19303
G1 X117.66 Y112.181 E6.2357
G1 X117.659 Y112.732 E6.25403
G1 X117.368 Y112.872 E6.26477
G1 X112.991 Y114.9 E6.42521
G1 X107.748 Y114.9 E6.5996
G0 F9000 X107.582 Y115.3
;TYPE:WALL-OUTER
G1 F2100 X104.7 Y112.418 E6.73516
G1 X104.7 Y110.498 E6.79902
G1 X108.7 Y110.498 E6.93206
G1 X108.7 Y109.7 E6.9586
G1 X113.154 Y109.7 E7.10674
G1 X113.154 Y110.498 E7.13328
G1 X118.047 Y110.498 E7.29602
G1 X118.06 Y112.181 E7.352
G1 X118.059 Y112.987 E7.37881
G1 X117.703 Y113.153 E7.39187
G1 X117.536 Y113.235 E7.39806
G1 X113.079 Y115.3 E7.56144
G1 X107.582 Y115.3 E7.74427
G0 F9000 X107.75 Y114.894
G0 X107.908 Y114.51
;TYPE:SKIN
G1 F2100 X105.49 Y112.092 E7.85801
G1 X105.49 Y111.288 E7.88475
G1 X109.49 Y111.288 E8.01779
G1 X109.49 Y110.49 E8.04433
G1 X112.364 Y110.49 E8.13992
G1 X112.364 Y111.288 E8.16646
G1 X117.263 Y111.288 E8.3294
G1 X117.27 Y112.181 E8.3591
G1 X117.269 Y112.487 E8.36928
G1 X112.907 Y114.51 E8.52921
G1 X107.908 Y114.51 E8.69547
G0 F9000 X108.126 Y114.349
G1 F2100 X105.649 Y111.872 E8.81198
G0 F9000 X105.79 Y111.447
G1 F2100 X108.692 Y114.349 E8.94849
G0 F9000 X109.257 Y114.349
G1 F2100 X106.355 Y111.447 E9.08499
G0 F9000 X106.921 Y111.447
G1 F2100 X109.823 Y114.349 E9.22149
G0 F9000 X110.389 Y114.349
G1 F2100 X107.487 Y111.447 E9.35799
G0 F9000 X108.052 Y111.447
G1 F2100 X110.954 Y114.349 E9.49449
G0 F9000 X111.52 Y114.349
G1 F2100 X108.618 Y111.447 E9.63099
G0 F9000 X109.184 Y111.447
G1 F2100 X112.086 Y114.349 E9.76749
G0 F9000 X112.652 Y114.349
G1 F2100 X109.649 Y111.346 E9.90874
G0 F9000 X109.649 Y110.781
G1 F2100 X113.108 Y114.239 E10.07142
G0 F9000 X113.494 Y114.059
G1 F2100 X110.084 Y110.65 E10.23179
G0 F9000 X110.65 Y110.65
G1 F2100 X113.88 Y113.88 E10.38372
G0 F9000 X114.267 Y113.701
G1 F2100 X111.215 Y110.65 E10.52726
G0 F9000 X111.781 Y110.65
G1 F2100 X112.202 Y111.071 E10.54706
G0 F9000 X112.579 Y111.447
G1 F2100 X114.653 Y113.522 E10.64464
G0 F9000 X115.04 Y113.343
G1 F2100 X113.144 Y111.447 E10.73382
G0 F9000 X113.71 Y111.447
G1 F2100 X115.426 Y113.163 E10.81453
G0 F9000 X115.813 Y112.985
G1 F2100 X114.276 Y111.447 E10.88685
G0 F9000 X114.841 Y111.447
G1 F2100 X116.199 Y112.805 E10.95073
G0 F9000 X116.586 Y112.626
G1 F2100 X115.407 Y111.447 E11.00619
G0 F9000 X115.973 Y111.447
G1 F2100 X116.972 Y112.446 E11.05318
G0 F9000 X117.108 Y112.017
G1 F2100 X116.538 Y111.447 E11.07999
M104 S200
G0 F9000 X116.538 Y111.098
G1 F2700 E6.07999
;MESH:NONMESH
G0 F300 X116.538 Y111.098 Z0.4
G0 F9000 X116.538 Y111.008
G0 X112.94 Y110.712
G0 X114.007 Y109.645
G0 X114.007 Y108.847
G0 X113.412 Y108.598
G0 X112.94 Y107.58
G0 X117.482 Y105.121
G0 X117.47 Y103.58
G0 X112.87 Y103.567
G0 X112.854 Y102.6
G1 F2700 E11.07999
G0 F9000 X113.419 Y102.6
;TIME_ELAPSED:23.143579
;LAYER:1
M106 S85
;TYPE:WALL-INNER
;MESH:DropIn_TNut_3030_M3.stl(1)
G1 F1800 X113.419 Y103.398 E11.10653
G1 X118.199 Y103.398 E11.26551
G1 X118.203 Y103.93 E11.28321
G1 X118.204 Y105.15 E11.32378
G1 X117.505 Y105.474 E11.34941
G1 X117.353 Y105.549 E11.35505
G1 X113.36 Y107.4 E11.50143
G1 X107.748 Y107.4 E11.68809
G1 X105.1 Y104.752 E11.81264
G1 X105.1 Y103.398 E11.85767
G1 X109.1 Y103.398 E11.99072
G1 X109.1 Y102.6 E12.01726
G1 X113.419 Y102.6 E12.16091
G0 F13500 X113.819 Y102.998
;TYPE:WALL-OUTER
G1 F1800 X118.596 Y102.998 E12.31979
G1 X118.603 Y103.93 E12.35079
G1 X118.604 Y105.406 E12.39988
G1 X117.678 Y105.835 E12.43383
G1 X117.53 Y105.908 E12.43931
G1 X113.448 Y107.8 E12.58896
G1 X107.582 Y107.8 E12.78406
G1 X104.7 Y104.918 E12.91962
G1 X104.7 Y102.998 E12.98348
G1 X108.7 Y102.998 E13.11652
G1 X108.7 Y102.2 E13.14306
G1 X113.819 Y102.2 E13.31332
G1 X113.819 Y102.998 E13.33986
G0 F13500 X113.029 Y102.99
;TYPE:SKIN
G1 F1800 X113.029 Y103.788 E13.3664
G1 X117.812 Y103.788 E13.52549
G1 X117.814 Y104.902 E13.56254
G1 X117.337 Y105.123 E13.58002
G1 X117.189 Y105.196 E13.58551
G1 X113.276 Y107.01 E13.72897
G1 X107.908 Y107.01 E13.90751
G1 X105.49 Y104.592 E14.02124
G1 X105.49 Y103.788 E14.04798
G1 X109.49 Y103.788 E14.18102
G1 X109.49 Y102.99 E14.20756
G1 X113.029 Y102.99 E14.32527
G0 F13500 X113.029 Y102.71
G0 X113.583 Y102.981
G0 X118.019 Y103.58
G0 X118.094 Y104.661
G0 X117.652 Y104.661
G1 F1800 X117.393 Y104.921 E14.33748
G0 F13500 X117.651 Y104.097
G1 F1800 X116.33 Y105.418 E14.39961
G0 F13500 X116.514 Y105.816
G0 X115.46 Y106.304
G0 X115.276 Y105.906
G1 F1800 X117.235 Y103.947 E14.49176
G0 F13500 X116.669 Y103.947
G1 F1800 X114.221 Y106.396 E14.60693
G0 F13500 X114.405 Y106.794
G0 X113.201 Y107.29
G0 X113.201 Y106.85
G1 F1800 X116.104 Y103.947 E14.74348
G0 F13500 X115.538 Y103.947
G1 F1800 X112.635 Y106.85 E14.88003
G0 F13500 X112.07 Y106.85
G1 F1800 X114.972 Y103.947 E15.01655
G0 F13500 X114.407 Y103.947
G1 F1800 X111.504 Y106.85 E15.1531
G0 F13500 X110.938 Y106.85
G1 F1800 X113.841 Y103.947 E15.28965
G0 F13500 X113.275 Y103.947
G1 F1800 X110.373 Y106.85 E15.42617
G0 F13500 X109.807 Y106.85
G1 F1800 X112.868 Y103.789 E15.57015
G0 F13500 X112.868 Y103.223
G1 F1800 X109.241 Y106.85 E15.74075
G0 F13500 X108.675 Y106.85
G1 F1800 X112.376 Y103.149 E15.91484
G0 F13500 X111.81 Y103.149
G1 F1800 X108.11 Y106.85 E16.0889
G0 F13500 X107.758 Y106.635
G1 F1800 X111.244 Y103.149 E16.25287
G0 F13500 X110.679 Y103.149
G1 F1800 X107.475 Y106.353 E16.40358
G0 F13500 X107.193 Y106.07
G1 F1800 X109.315 Y103.948 E16.50339
G0 F13500 X109.649 Y103.613
G1 F1800 X110.113 Y103.149 E16.52521
G0 F13500 X110.113 Y102.71
G0 X109.282 Y102.782
G0 X108.749 Y103.508
G0 X108.749 Y103.948
G1 F1800 X106.91 Y105.787 E16.61171
G0 F13500 X106.627 Y105.504
G1 F1800 X108.183 Y103.948 E16.6849
G0 F13500 X107.618 Y103.948
G1 F1800 X106.344 Y105.221 E16.7448
G0 F13500 X106.061 Y104.938
G1 F1800 X107.052 Y103.948 E16.79139
G0 F13500 X106.486 Y103.948
G1 F1800 X105.778 Y104.656 E16.8247
G0 F13500 X105.649 Y104.219
G1 F1800 X105.921 Y103.948 E16.83747
G0 F13500 X105.921 Y103.598
G1 F2700 E11.83747
;MESH:DropIn_TNut_3030_M3.stl
G0 F13500 X105.921 Y103.508
G0 X105.282 Y103.58
G0 X105.274 Y104.681
G0 X107.671 Y107.582
G0 X107.671 Y108.665
G0 X107.671 Y109.633
G0 X107.671 Y110.718
G0 X105.282 Y111.08
G0 X105.274 Y112.181
G0 X107.748 Y114.9
;TYPE:WALL-INNER
G1 F2700 E16.83747
G1 F1800 X105.1 Y112.252 E16.96202
G1 X105.1 Y110.898 E17.00706
G1 X109.1 Y110.898 E17.1401
G1 X109.1 Y110.1 E17.16664
G1 X113.419 Y110.1 E17.31029
G1 X113.419 Y110.898 E17.33683
G1 X118.199 Y110.898 E17.49581
G1 X118.203 Y111.43 E17.51351
G1 X118.204 Y112.65 E17.55409
G1 X117.505 Y112.974 E17.57971
G1 X117.353 Y113.049 E17.58535
G1 X113.36 Y114.9 E17.73173
G1 X107.748 Y114.9 E17.91839
G0 F13500 X107.582 Y115.3
;TYPE:WALL-OUTER
G1 F1800 X104.7 Y112.418 E18.05395
G1 X104.7 Y110.498 E18.11781
G1 X108.7 Y110.498 E18.25085
G1 X108.7 Y109.7 E18.27739
G1 X113.819 Y109.7 E18.44765
G1 X113.819 Y110.498 E18.47419
G1 X118.596 Y110.498 E18.63307
G1 X118.603 Y111.43 E18.66407
G1 X118.604 Y112.906 E18.71316
G1 X117.678 Y113.335 E18.74711
G1 X117.53 Y113.408 E18.7526
G1 X113.448 Y115.3 E18.90224
G1 X107.582 Y115.3 E19.09734
G0 F13500 X107.75 Y114.894
G0 X107.908 Y114.51
;TYPE:SKIN
G1 F1800 X105.49 Y112.092 E19.21108
G1 X105.49 Y111.288 E19.23782
G1 X109.49 Y111.288 E19.37086
G1 X109.49 Y110.49 E19.3974
G1 X113.029 Y110.49 E19.51511
G1 X113.029 Y111.288 E19.54165
G1 X117.812 Y111.288 E19.70073
G1 X117.814 Y112.402 E19.73779
G1 X117.337 Y112.623 E19.75527
G1 X117.189 Y112.696 E19.76076
G1 X113.276 Y114.51 E19.90421
G1 X107.908 Y114.51 E20.08275
G0 F13500 X107.711 Y114.707
G0 X105.274 Y112.181
G0 X105.21 Y111.572
G0 X105.65 Y111.572
G1 F1800 X105.776 Y111.447 E20.08866
G0 F13500 X106.341 Y111.447
G1 F1800 X105.706 Y112.082 E20.11852
G0 F13500 X105.988 Y112.365
G1 F1800 X106.907 Y111.447 E20.16173
G0 F13500 X107.473 Y111.447
G1 F1800 X106.271 Y112.648 E20.21824
G0 F13500 X106.554 Y112.931
G1 F1800 X108.038 Y111.447 E20.28804
G0 F13500 X108.604 Y111.447
G1 F1800 X106.837 Y113.214 E20.37116
G0 F13500 X107.12 Y113.497
G1 F1800 X109.17 Y111.447 E20.46758
G0 F13500 X109.649 Y110.967
G1 F1800 X109.967 Y110.649 E20.48254
G0 F13500 X110.533 Y110.649
G1 F1800 X107.403 Y113.779 E20.62977
G0 F13500 X107.685 Y114.062
G1 F1800 X111.099 Y110.649 E20.79033
G0 F13500 X111.664 Y110.649
G1 F1800 X107.968 Y114.345 E20.96418
G0 F13500 X108.53 Y114.349
G1 F1800 X112.23 Y110.649 E21.13821
G0 F13500 X112.796 Y110.649
G1 F1800 X109.095 Y114.349 E21.31227
G0 F13500 X109.661 Y114.349
G1 F1800 X112.868 Y111.143 E21.4631
G0 F13500 X113.128 Y111.448
G1 F1800 X110.227 Y114.349 E21.59955
G0 F13500 X110.793 Y114.349
G1 F1800 X113.694 Y111.448 E21.73601
G0 F13500 X114.259 Y111.448
G1 F1800 X111.358 Y114.349 E21.87246
G0 F13500 X111.924 Y114.349
G1 F1800 X114.825 Y111.448 E22.00891
G0 F13500 X115.391 Y111.448
G1 F1800 X112.49 Y114.349 E22.14537
G0 F13500 X113.055 Y114.349
G1 F1800 X115.957 Y111.448 E22.28185
G0 F13500 X116.522 Y111.448
G1 F1800 X113.95 Y114.02 E22.40283
G0 F13500 X114.134 Y114.419
G0 X115.188 Y113.93
G0 X115.004 Y113.532
G1 F1800 X117.088 Y111.448 E22.50085
G0 F13500 X117.651 Y111.451
G1 F1800 X116.058 Y113.043 E22.57576
G0 F13500 X116.242 Y113.442
G0 X117.308 Y112.948
G0 X117.113 Y112.555
G1 F1800 X117.651 Y112.016 E22.60109
G0 F13500 X118.003 Y112.015
G1 F2700 E17.60109
;MESH:NONMESH
G0 F300 X118.003 Y112.015 Z0.6
G0 F13500 X118.094 Y112.016
G0 X118.019 Y111.08
G0 X114.061 Y110.718
G0 X114.672 Y109.645
G0 X114.672 Y108.847
G0 X113.856 Y108.563
G0 X113.401 Y107.581
G0 X118.027 Y105.037
G0 X118.019 Y103.58
G0 X114.061 Y103.398
;TIME_ELAPSED:44.027079
;LAYER:2
M106 S170
;TYPE:WALL-INNER
;MESH:DropIn_TNut_3030_M3.stl(1)
G1 F2700 E22.60109
G1 F1500 X114.096 Y103.6 E22.6079
G1 X118.556 Y103.6 E22.75624
G1 X118.556 Y105.159 E22.8081
G1 X117.483 Y105.656 E22.84743
G1 X117.238 Y105.774 E22.85647
G1 X113.728 Y107.4 E22.98513
G1 X107.748 Y107.4 E23.18403
G1 X105.1 Y104.752 E23.30858
G1 X105.1 Y103.398 E23.35362
G1 X109.1 Y103.398 E23.48666
G1 X109.1 Y102.6 E23.5132
G1 X113.832 Y102.6 E23.67059
G1 X113.839 Y103.398 E23.69713
G1 X114.061 Y103.398 E23.70451
G0 F18000 X114.236 Y102.998
;TYPE:WALL-OUTER
G1 F1500 X114.398 Y102.998 E23.7099
G1 X114.433 Y103.2 E23.71672
G1 X118.956 Y103.2 E23.86716
G1 X118.956 Y105.415 E23.94083
G1 X117.654 Y106.017 E23.98854
G1 X117.413 Y106.134 E23.99745
G1 X113.816 Y107.8 E24.12929
G1 X107.582 Y107.8 E24.33664
G1 X104.7 Y104.918 E24.4722
G1 X104.7 Y102.998 E24.53606
G1 X108.7 Y102.998 E24.6691
G1 X108.7 Y102.2 E24.69564
G1 X114.229 Y102.2 E24.87953
G1 X114.236 Y102.998 E24.90608
G0 F18000 X113.446 Y102.99
;TYPE:SKIN
G1 F1500 X113.453 Y103.788 E24.93262
G1 X113.733 Y103.788 E24.94193
G1 X113.768 Y103.99 E24.94875
G1 X118.166 Y103.99 E25.09503
G1 X118.166 Y104.911 E25.12566
G1 X117.317 Y105.303 E25.15676
G1 X117.071 Y105.422 E25.16585
G1 X113.644 Y107.01 E25.29148
G1 X107.908 Y107.01 E25.48226
G1 X105.49 Y104.592 E25.59599
G1 X105.49 Y103.788 E25.62273
G1 X109.49 Y103.788 E25.75577
G1 X109.49 Y102.99 E25.78232
G1 X113.446 Y102.99 E25.91389
G0 F18000 X113.446 Y102.71
G0 X114 Y102.962
G0 X114.01 Y103.226
G0 X114.24 Y103.43
G0 X118.374 Y103.782
G0 X118.446 Y104.429
G0 X118.005 Y104.429
G1 F1500 X117.726 Y104.15 E25.92702
G0 F18000 X117.161 Y104.15
G1 F1500 X117.877 Y104.866 E25.96069
G0 F18000 X117.49 Y105.045
G1 F1500 X116.595 Y104.15 E26.00279
G0 F18000 X116.029 Y104.15
G1 F1500 X117.105 Y105.225 E26.05338
G0 F18000 X116.72 Y105.406
G1 F1500 X115.464 Y104.15 E26.11246
G0 F18000 X114.898 Y104.15
G1 F1500 X116.333 Y105.585 E26.17996
G0 F18000 X115.947 Y105.764
G1 F1500 X114.332 Y104.15 E26.2559
G0 F18000 X113.767 Y104.15
G1 F1500 X115.561 Y105.944 E26.34028
G0 F18000 X115.174 Y106.123
G1 F1500 X112.2 Y103.149 E26.48017
G0 F18000 X111.635 Y103.149
