;FLAVOR:Marlin
;TIME:3773
;Filament used: 8.19281m
;Layer height: 0.3
;MINX:68.515
;MINY:68.533
;MINZ:0.2
;MAXX:156.485
;MAXY:156.467
;MAXZ:50
;Generated with Cura_SteamEngine 4.12.1
M82 ;absolute extrusion mode
; Ender 3 Custom Start G-code
M117 Getting the bed up to temp!
M140 S50 ; Set Heat Bed temperature
M190 S50 ; Wait for Heat Bed temperature
M117 Pre-heating the extruder!
M104 S175; start warming extruder to 160
G28 ; Home all axes
M117 Auto bed-level GO!
G29 ; Auto bed-level (BL-Touch)
G92 E0 ; Reset Extruder
M117 Getting the extruder up to temp!
M104 S200 ; Set Extruder temperature
M109 S200 ; Wait for Extruder temperature
G1 Z2.0 F3000 ; move z up little to prevent scratching of surface
G1 X0.1 Y20 Z0.3 F5000.0 ; move to start-line position
M117 LET THE PURGE BEGIN!
G1 X0.1 Y200.0 Z0.3 F1500.0 E15 ; draw 1st line
G1 X0.4 Y200.0 Z0.3 F5000.0 ; move to side a little
G1 X0.4 Y20 Z0.3 F1500.0 E30 ; draw 2nd line
G92 E0 ; reset extruder
G1 Z1.0 F3000 ; move z up little to prevent scratching of surface
G1 X5 Y20 Z0.3 F5000.0 ; Move over to prevent blob squish
M117 Autobots! Roll Out!
; End of custom start GCode
G92 E0
G92 E0
G1 F2700 E-5
;LAYER_COUNT:167
;LAYER:0
M107
G0 F7500 X73.028 Y73.383 Z0.2
;TYPE:SKIRT
G1 F2700 E0
G1 F1500 X73.692 Y72.721 E0.03119
G1 X74.475 Y72.069 E0.06507
G1 X75.121 Y71.58 E0.09202
G1 X75.443 Y71.346 E0.10526
G1 X75.644 Y71.205 E0.11343
G1 X76.434 Y70.699 E0.14463
G1 X77.298 Y70.247 E0.17706
G1 X78.003 Y69.917 E0.20295
G1 X78.303 Y69.782 E0.21389
G1 X78.546 Y69.677 E0.2227
G1 X79.422 Y69.342 E0.25389
G1 X80.407 Y69.063 E0.28794
G1 X81.152 Y68.889 E0.31339
G1 X81.489 Y68.816 E0.32486
G1 X81.753 Y68.763 E0.33381
G1 X82.679 Y68.618 E0.36499
G1 X83.693 Y68.55 E0.39879
G1 X84.475 Y68.534 E0.4248
G1 X84.872 Y68.533 E0.43801
G1 X85.128 Y68.537 E0.44652
G1 X86.064 Y68.592 E0.47771
G1 X87.03 Y68.733 E0.51018
G1 X87.827 Y68.886 E0.53717
G1 X88.197 Y68.964 E0.54975
G1 X89.458 Y69.251 E0.59276
G1 X92.035 Y69.8 E0.6804
G1 X94.48 Y70.25 E0.76308
G1 X96.981 Y70.636 E0.84725
G1 X99.487 Y70.952 E0.93126
G1 X101.98 Y71.195 E1.01457
G1 X104.492 Y71.367 E1.09832
G1 X107.014 Y71.469 E1.18227
G1 X109.406 Y71.5 E1.26183
G1 X115.634 Y71.5 E1.46898
G1 X118.242 Y71.463 E1.55573
G1 X120.764 Y71.356 E1.63968
G1 X123.258 Y71.179 E1.72284
G1 X125.758 Y70.931 E1.8064
G1 X128.251 Y70.612 E1.89
G1 X130.744 Y70.221 E1.97393
G1 X133.236 Y69.757 E2.05824
G1 X136.043 Y69.149 E2.15376
G1 X137.149 Y68.89 E2.19154
G1 X137.528 Y68.808 E2.20444
G1 X137.797 Y68.755 E2.21356
G1 X138.724 Y68.614 E2.24475
G1 X139.697 Y68.55 E2.27718
G1 X140.474 Y68.534 E2.30303
G1 X140.872 Y68.533 E2.31626
G1 X141.128 Y68.537 E2.32478
G1 X142.064 Y68.592 E2.35597
G1 X143.027 Y68.733 E2.38834
G1 X143.825 Y68.886 E2.41536
G1 X144.201 Y68.965 E2.42814
G1 X144.442 Y69.02 E2.43636
G1 X145.347 Y69.267 E2.46756
G1 X146.281 Y69.613 E2.50069
G1 X146.957 Y69.899 E2.5251
G1 X147.239 Y70.023 E2.53535
G1 X147.515 Y70.149 E2.54544
G1 X148.351 Y70.575 E2.57665
G1 X149.249 Y71.141 E2.61195
G1 X149.897 Y71.594 E2.63825
G1 X150.188 Y71.803 E2.65017
G1 X150.379 Y71.946 E2.6581
G1 X151.105 Y72.54 E2.6893
G1 X151.798 Y73.215 E2.72148
G1 X152.354 Y73.806 E2.74847
G1 X152.659 Y74.144 E2.76361
G1 X152.82 Y74.33 E2.77179
G1 X153.403 Y75.065 E2.80299
G1 X153.914 Y75.834 E2.8337
G1 X154.314 Y76.495 E2.8594
G1 X154.503 Y76.819 E2.87188
G1 X154.63 Y77.046 E2.88053
G1 X155.052 Y77.883 E2.9117
G1 X155.422 Y78.812 E2.94496
G1 X155.677 Y79.547 E2.97084
G1 X155.788 Y79.883 E2.98261
G1 X155.868 Y80.14 E2.99156
G1 X156.108 Y81.046 E3.02273
G1 X156.281 Y82.052 E3.05668
G1 X156.375 Y82.808 E3.08202
G1 X156.412 Y83.152 E3.09353
G1 X156.438 Y83.433 E3.10292
G1 X156.485 Y84.369 E3.13409
G1 X156.445 Y85.384 E3.16787
G1 X156.379 Y86.155 E3.19361
G1 X156.343 Y86.51 E3.20548
G1 X156.305 Y86.831 E3.21623
G1 X156.087 Y88.064 E3.25787
G1 X155.894 Y88.882 E3.28583
G1 X155.343 Y91.371 E3.37062
G1 X154.858 Y93.899 E3.45623
G1 X154.457 Y96.373 E3.53959
G1 X154.131 Y98.818 E3.62163
G1 X153.862 Y101.373 E3.70708
G1 X153.672 Y103.865 E3.79021
G1 X153.552 Y106.367 E3.87352
G1 X153.5 Y109.453 E3.97617
G1 X153.5 Y115.544 E4.17876
G1 X153.537 Y118.152 E4.26551
G1 X153.644 Y120.674 E4.34947
G1 X153.821 Y123.168 E4.43263
G1 X154.069 Y125.666 E4.51612
G1 X154.387 Y128.155 E4.59958
G1 X154.781 Y130.664 E4.68405
G1 X155.239 Y133.127 E4.76738
G1 X155.775 Y135.621 E4.85222
G1 X156.054 Y136.785 E4.89203
G1 X156.272 Y137.986 E4.93263
G1 X156.374 Y138.803 E4.96001
G1 X156.412 Y139.149 E4.97159
G1 X156.438 Y139.429 E4.98095
G1 X156.485 Y140.366 E5.01215
G1 X156.446 Y141.375 E5.04573
G1 X156.382 Y142.13 E5.07093
G1 X156.345 Y142.489 E5.08294
G1 X156.312 Y142.769 E5.09232
G1 X156.163 Y143.694 E5.12348
G1 X155.916 Y144.667 E5.15687
G1 X155.686 Y145.427 E5.18328
G1 X155.566 Y145.801 E5.19634
G1 X155.487 Y146.032 E5.20446
G1 X155.146 Y146.905 E5.23563
G1 X154.716 Y147.775 E5.26791
G1 X154.349 Y148.442 E5.29323
G1 X154.161 Y148.771 E5.30583
G1 X154.012 Y149.021 E5.31551
G1 X153.498 Y149.805 E5.3467
G1 X152.884 Y150.584 E5.37969
G1 X152.379 Y151.168 E5.40536
G1 X152.154 Y151.42 E5.4166
G1 X151.982 Y151.607 E5.42505
G1 X151.318 Y152.269 E5.45624
G1 X150.525 Y152.931 E5.49059
G1 X149.879 Y153.42 E5.51754
G1 X149.578 Y153.639 E5.52992
G1 X149.378 Y153.78 E5.53806
G1 X148.589 Y154.288 E5.56927
G1 X147.703 Y154.753 E5.60255
G1 X147 Y155.082 E5.62837
G1 X146.705 Y155.215 E5.63913
G1 X146.46 Y155.321 E5.64801
G1 X145.584 Y155.656 E5.6792
G1 X144.591 Y155.937 E5.71353
G1 X143.845 Y156.111 E5.73901
G1 X143.511 Y156.184 E5.75038
G1 X143.247 Y156.237 E5.75933
G1 X142.321 Y156.382 E5.79051
G1 X141.307 Y156.45 E5.82431
G1 X140.525 Y156.466 E5.85032
G1 X140.128 Y156.467 E5.86353
G1 X139.872 Y156.463 E5.87204
G1 X138.936 Y156.408 E5.90323
G1 X137.97 Y156.267 E5.9357
G1 X137.173 Y156.114 E5.96269
G1 X136.803 Y156.036 E5.97527
G1 X135.542 Y155.749 E6.01828
G1 X132.965 Y155.2 E6.10592
G1 X130.52 Y154.75 E6.1886
G1 X128.019 Y154.364 E6.27277
G1 X125.513 Y154.048 E6.35678
G1 X123.02 Y153.805 E6.44009
G1 X120.508 Y153.633 E6.52384
G1 X117.986 Y153.531 E6.60779
G1 X115.594 Y153.5 E6.68735
G1 X109.366 Y153.5 E6.8945
G1 X106.758 Y153.537 E6.98125
G1 X104.236 Y153.644 E7.06521
G1 X101.742 Y153.821 E7.14837
G1 X99.242 Y154.069 E7.23192
G1 X96.749 Y154.388 E7.31552
G1 X94.256 Y154.779 E7.39945
G1 X91.764 Y155.243 E7.48376
G1 X88.957 Y155.851 E7.57928
G1 X87.851 Y156.11 E7.61706
G1 X87.472 Y156.192 E7.62996
G1 X87.203 Y156.245 E7.63908
G1 X86.276 Y156.386 E7.67027
G1 X85.303 Y156.45 E7.7027
G1 X84.526 Y156.466 E7.72855
G1 X84.128 Y156.467 E7.74179
G1 X83.872 Y156.463 E7.7503
G1 X82.936 Y156.408 E7.78149
G1 X81.973 Y156.267 E7.81386
G1 X81.175 Y156.114 E7.84088
G1 X80.799 Y156.035 E7.85366
G1 X80.558 Y155.98 E7.86188
G1 X79.653 Y155.733 E7.89308
G1 X78.719 Y155.387 E7.92621
G1 X78.043 Y155.101 E7.95063
G1 X77.761 Y154.977 E7.96087
G1 X77.485 Y154.851 E7.97096
G1 X76.649 Y154.425 E8.00217
G1 X75.751 Y153.859 E8.03748
G1 X75.103 Y153.406 E8.06377
G1 X74.812 Y153.197 E8.07569
G1 X74.621 Y153.054 E8.08362
G1 X73.895 Y152.46 E8.11482
G1 X73.202 Y151.785 E8.147
G1 X72.646 Y151.194 E8.17399
G1 X72.341 Y150.856 E8.18913
G1 X72.18 Y150.67 E8.19731
G1 X71.597 Y149.935 E8.22852
G1 X71.086 Y149.166 E8.25922
G1 X70.686 Y148.505 E8.28492
G1 X70.497 Y148.181 E8.2974
G1 X70.37 Y147.954 E8.30605
G1 X69.948 Y147.117 E8.33723
G1 X69.578 Y146.188 E8.37048
G1 X69.323 Y145.453 E8.39636
G1 X69.212 Y145.117 E8.40813
G1 X69.132 Y144.86 E8.41708
G1 X68.892 Y143.954 E8.44825
G1 X68.718 Y142.941 E8.48244
G1 X68.623 Y142.173 E8.50818
G1 X68.587 Y141.841 E8.51929
G1 X68.562 Y141.572 E8.52827
G1 X68.515 Y140.635 E8.55948
G1 X68.555 Y139.616 E8.59339
G1 X68.621 Y138.845 E8.61913
G1 X68.656 Y138.502 E8.6306
G1 X68.694 Y138.178 E8.64145
G1 X68.915 Y136.924 E8.6838
G1 X69.108 Y136.107 E8.71172
G1 X69.657 Y133.629 E8.79614
G1 X70.142 Y131.101 E8.88175
G1 X70.543 Y128.627 E8.96511
G1 X70.869 Y126.182 E9.04715
G1 X71.138 Y123.627 E9.1326
G1 X71.328 Y121.135 E9.21573
G1 X71.448 Y118.633 E9.29904
G1 X71.5 Y115.547 E9.4017
G1 X71.5 Y109.456 E9.60428
G1 X71.463 Y106.848 E9.69103
G1 X71.356 Y104.326 E9.77499
G1 X71.179 Y101.832 E9.85815
G1 X70.932 Y99.337 E9.94154
G1 X70.612 Y96.836 E10.0254
G1 X70.221 Y94.347 E10.1092
G1 X69.76 Y91.867 E10.1931
G1 X69.225 Y89.379 E10.27774
G1 X68.946 Y88.215 E10.31755
G1 X68.727 Y87.011 E10.35826
G1 X68.623 Y86.176 E10.38624
G1 X68.585 Y85.819 E10.39818
G1 X68.561 Y85.557 E10.40694
G1 X68.515 Y84.621 E10.4381
G1 X68.555 Y83.616 E10.47156
G1 X68.621 Y82.845 E10.49729
G1 X68.656 Y82.505 E10.50866
G1 X68.687 Y82.24 E10.51754
G1 X68.835 Y81.314 E10.54873
G1 X69.085 Y80.327 E10.58259
G1 X69.316 Y79.565 E10.60907
G1 X69.435 Y79.195 E10.622
G1 X69.513 Y78.967 E10.63002
G1 X69.854 Y78.094 E10.66119
G1 X70.286 Y77.222 E10.69356
G1 X70.666 Y76.532 E10.71976
G1 X70.865 Y76.185 E10.73306
G1 X71.001 Y75.958 E10.74186
G1 X71.517 Y75.174 E10.77308
G1 X72.116 Y74.416 E10.80521
G1 X72.627 Y73.825 E10.8312
G1 X72.862 Y73.563 E10.8429
G1 X73.028 Y73.383 E10.85105
G0 F7500 X73.322 Y73.654
G1 F1500 X73.975 Y73.005 E10.88167
G1 X74.716 Y72.388 E10.91374
G1 X75.362 Y71.899 E10.94069
G1 X75.673 Y71.673 E10.95347
G1 X75.874 Y71.532 E10.96164
G1 X76.65 Y71.037 E10.99225
G1 X77.467 Y70.61 E11.02291
G1 X78.172 Y70.28 E11.0488
G1 X78.461 Y70.15 E11.05934
G1 X78.704 Y70.045 E11.06815
G1 X79.565 Y69.716 E11.0988
G1 X80.498 Y69.453 E11.13105
G1 X81.243 Y69.279 E11.15649
G1 X81.568 Y69.208 E11.16756
G1 X81.832 Y69.155 E11.17651
G1 X82.741 Y69.014 E11.20711
G1 X83.701 Y68.95 E11.23911
G1 X84.483 Y68.934 E11.26512
G1 X84.866 Y68.933 E11.27786
G1 X85.122 Y68.937 E11.28638
G1 X86.041 Y68.992 E11.317
G1 X86.954 Y69.126 E11.34769
G1 X87.751 Y69.279 E11.37468
G1 X88.108 Y69.354 E11.38681
G1 X89.35 Y69.637 E11.42918
G1 X91.951 Y70.191 E11.51763
G1 X94.419 Y70.645 E11.6011
G1 X96.937 Y71.034 E11.68584
G1 X99.439 Y71.349 E11.76971
G1 X101.947 Y71.593 E11.85352
G1 X104.485 Y71.768 E11.93814
G1 X106.993 Y71.869 E12.02162
G1 X109.401 Y71.9 E12.10172
G1 X115.64 Y71.9 E12.30923
G1 X118.264 Y71.863 E12.39651
G1 X120.773 Y71.756 E12.48004
G1 X123.293 Y71.578 E12.56406
G1 X125.808 Y71.329 E12.64812
G1 X128.297 Y71.01 E12.73158
G1 X130.849 Y70.609 E12.8175
G1 X133.29 Y70.155 E12.90008
G1 X136.152 Y69.534 E12.99749
G1 X137.24 Y69.28 E13.03465
G1 X137.605 Y69.201 E13.04707
G1 X137.874 Y69.148 E13.05619
G1 X138.784 Y69.009 E13.08681
G1 X139.705 Y68.95 E13.1175
G1 X140.482 Y68.934 E13.14335
G1 X140.866 Y68.933 E13.15612
G1 X141.122 Y68.937 E13.16464
G1 X142.041 Y68.992 E13.19526
G1 X142.952 Y69.126 E13.22588
G1 X143.75 Y69.279 E13.25291
G1 X144.112 Y69.355 E13.26521
G1 X144.353 Y69.41 E13.27343
G1 X145.241 Y69.653 E13.30405
G1 X146.125 Y69.982 E13.33543
G1 X146.801 Y70.268 E13.35984
G1 X147.073 Y70.387 E13.36972
G1 X147.349 Y70.513 E13.37981
G1 X148.169 Y70.932 E13.41043
G1 X149.02 Y71.468 E13.44388
G1 X149.668 Y71.921 E13.47018
G1 X149.948 Y72.124 E13.48168
G1 X150.139 Y72.267 E13.48962
G1 X150.851 Y72.85 E13.52023
G1 X151.506 Y73.489 E13.55066
G1 X152.062 Y74.08 E13.57765
G1 X152.357 Y74.406 E13.59227
G1 X152.518 Y74.592 E13.60046
G1 X153.089 Y75.313 E13.63105
G1 X153.572 Y76.041 E13.6601
G1 X153.972 Y76.702 E13.6858
G1 X154.154 Y77.015 E13.69784
G1 X154.281 Y77.242 E13.70649
G1 X154.695 Y78.064 E13.73711
G1 X155.044 Y78.943 E13.76856
G1 X155.299 Y79.678 E13.79444
G1 X155.406 Y80.001 E13.80575
G1 X155.486 Y80.258 E13.81471
G1 X155.721 Y81.149 E13.84536
G1 X155.884 Y82.101 E13.87748
G1 X155.978 Y82.857 E13.90282
G1 X156.014 Y83.188 E13.91389
G1 X156.04 Y83.469 E13.92328
G1 X156.085 Y84.389 E13.95391
G1 X156.046 Y85.35 E13.9859
G1 X155.98 Y86.121 E14.01164
G1 X155.945 Y86.463 E14.02307
G1 X155.907 Y86.784 E14.03383
G1 X155.698 Y87.972 E14.07395
G1 X155.51 Y88.767 E14.10112
G1 X154.945 Y91.322 E14.18815
G1 X154.465 Y93.82 E14.27275
G1 X154.064 Y96.298 E14.35624
G1 X153.731 Y98.795 E14.44003
G1 X153.464 Y101.333 E14.52491
G1 X153.275 Y103.816 E14.60773
G1 X153.152 Y106.373 E14.69288
G1 X153.1 Y109.447 E14.79513
G1 X153.1 Y115.55 E14.99812
G1 X153.137 Y118.174 E15.0854
G1 X153.244 Y120.683 E15.16893
G1 X153.422 Y123.199 E15.25282
G1 X153.672 Y125.723 E15.33718
G1 X153.993 Y128.231 E15.42128
G1 X154.38 Y130.693 E15.50417
G1 X154.855 Y133.247 E15.59057
G1 X155.376 Y135.672 E15.67307
G1 X155.665 Y136.878 E15.71432
G1 X155.875 Y138.036 E15.75346
G1 X155.977 Y138.853 E15.78084
G1 X156.014 Y139.186 E15.79199
G1 X156.04 Y139.466 E15.80134
G1 X156.085 Y140.385 E15.83194
G1 X156.047 Y141.341 E15.86377
G1 X155.983 Y142.096 E15.88897
G1 X155.948 Y142.442 E15.90053
G1 X155.915 Y142.722 E15.90991
G1 X155.768 Y143.63 E15.9405
G1 X155.534 Y144.551 E15.97211
G1 X155.304 Y145.311 E15.99852
G1 X155.188 Y145.671 E16.0111
G1 X155.109 Y145.902 E16.01922
G1 X154.773 Y146.759 E16.04984
G1 X154.366 Y147.582 E16.08037
G1 X153.999 Y148.249 E16.10569
G1 X153.817 Y148.566 E16.11785
G1 X153.668 Y148.816 E16.12753
G1 X153.163 Y149.585 E16.15813
G1 X152.581 Y150.322 E16.18937
G1 X152.076 Y150.906 E16.21504
G1 X151.86 Y151.149 E16.22586
G1 X151.688 Y151.336 E16.23431
G1 X151.036 Y151.986 E16.26493
G1 X150.284 Y152.612 E16.29747
G1 X149.638 Y153.101 E16.32442
G1 X149.348 Y153.312 E16.33635
G1 X149.148 Y153.453 E16.34449
G1 X148.373 Y153.951 E16.37513
G1 X147.533 Y154.391 E16.40667
G1 X146.83 Y154.72 E16.43248
G1 X146.546 Y154.848 E16.44284
G1 X146.301 Y154.954 E16.45172
G1 X145.441 Y155.282 E16.48234
G1 X144.5 Y155.548 E16.51486
G1 X143.754 Y155.722 E16.54034
G1 X143.432 Y155.792 E16.5513
G1 X143.168 Y155.845 E16.56025
G1 X142.259 Y155.986 E16.59085
G1 X141.299 Y156.05 E16.62285
G1 X140.517 Y156.066 E16.64886
G1 X140.134 Y156.067 E16.6616
G1 X139.878 Y156.063 E16.67012
G1 X138.959 Y156.008 E16.70074
G1 X138.046 Y155.874 E16.73143
G1 X137.249 Y155.721 E16.75842
G1 X136.892 Y155.646 E16.77056
G1 X135.65 Y155.363 E16.81292
G1 X133.049 Y154.809 E16.90138
G1 X130.581 Y154.355 E16.98484
G1 X128.063 Y153.966 E17.06958
G1 X125.561 Y153.651 E17.15345
G1 X123.053 Y153.407 E17.23726
G1 X120.515 Y153.232 E17.32188
G1 X118.007 Y153.131 E17.40536
G1 X115.599 Y153.1 E17.48546
G1 X109.36 Y153.1 E17.69297
G1 X106.736 Y153.137 E17.78025
G1 X104.227 Y153.244 E17.86378
G1 X101.707 Y153.422 E17.9478
G1 X99.192 Y153.671 E18.03186
G1 X96.703 Y153.99 E18.11532
G1 X94.151 Y154.391 E18.20125
G1 X91.71 Y154.845 E18.28383
G1 X88.848 Y155.466 E18.38123
G1 X87.76 Y155.72 E18.41839
G1 X87.395 Y155.799 E18.43081
G1 X87.126 Y155.852 E18.43993
G1 X86.216 Y155.991 E18.47055
G1 X85.295 Y156.05 E18.50124
G1 X84.518 Y156.066 E18.52709
G1 X84.134 Y156.067 E18.53986
G1 X83.878 Y156.063 E18.54838
G1 X82.959 Y156.008 E18.579
G1 X82.048 Y155.874 E18.60963
G1 X81.25 Y155.721 E18.63665
G1 X80.888 Y155.645 E18.64895
G1 X80.647 Y155.59 E18.65718
G1 X79.759 Y155.347 E18.6878
G1 X78.875 Y155.018 E18.71917
G1 X78.199 Y154.732 E18.74358
G1 X77.927 Y154.613 E18.75346
G1 X77.651 Y154.487 E18.76355
G1 X76.831 Y154.068 E18.79418
G1 X75.98 Y153.532 E18.82763
G1 X75.332 Y153.079 E18.85392
G1 X75.052 Y152.876 E18.86543
G1 X74.861 Y152.733 E18.87336
G1 X74.149 Y152.15 E18.90397
G1 X73.494 Y151.511 E18.9344
G1 X72.938 Y150.92 E18.96139
G1 X72.643 Y150.594 E18.97602
G1 X72.482 Y150.408 E18.9842
G1 X71.911 Y149.687 E19.01479
G1 X71.428 Y148.959 E19.04385
G1 X71.028 Y148.298 E19.06954
G1 X70.846 Y147.985 E19.08159
G1 X70.719 Y147.758 E19.09024
G1 X70.305 Y146.936 E19.12085
G1 X69.956 Y146.057 E19.1523
G1 X69.701 Y145.322 E19.17818
G1 X69.594 Y144.999 E19.1895
G1 X69.514 Y144.742 E19.19845
G1 X69.279 Y143.851 E19.2291
G1 X69.115 Y142.892 E19.26146
G1 X69.02 Y142.124 E19.2872
G1 X68.985 Y141.804 E19.2979
G1 X68.96 Y141.535 E19.30689
G1 X68.915 Y140.615 E19.33752
G1 X68.954 Y139.65 E19.36965
G1 X69.02 Y138.879 E19.39538
G1 X69.053 Y138.548 E19.40645
G1 X69.091 Y138.224 E19.4173
G1 X69.304 Y137.017 E19.45806
G1 X69.489 Y136.235 E19.48479
G1 X70.055 Y133.678 E19.57189
G1 X70.535 Y131.18 E19.6565
G1 X70.936 Y128.702 E19.73999
G1 X71.269 Y126.205 E19.82378
G1 X71.536 Y123.667 E19.90866
G1 X71.725 Y121.184 E19.99148
G1 X71.848 Y118.627 E20.07662
G1 X71.9 Y115.553 E20.17888
