;FLAVOR:Marlin
;TIME:3525
;Filament used: 2.42959m
;Layer height: 0.22
;MINX:76.252
;MINY:78.79
;MINZ:0.2
;MAXX:148.719
;MAXY:139.673
;MAXZ:22.86
;POSTPROCESSED
;Generated with Cura_SteamEngine 4.13.1
;
;

M82 ;absolute extrusion mode
; Ender 3 Custom Start G-code
M117 Getting the bed up to temp!
M140 S55.0 ; Set Heat Bed temperature
M190 S55.0 ; Wait for Heat Bed temperature
M117 Pre-heating the extruder!
M104 S210; start warming extruder to 160
G28 ; Home all axes
M117 Auto bed-level GO!
G29 ; Auto bed-level (BL-Touch)
G92 E0 ; Reset Extruder
M117 Getting the extruder up to temp!
M104 S210 ; Set Extruder temperature
M109 S210 ; Wait for Extruder temperature
G1 Z2.0 F3000 ; move z up little to prevent scratching of surface
G1 X0.1 Y20 Z0.3 F5000.0 ; move to start-line position
M117 LET THE PURGE BEGIN!
SET_GCODE_OFFSET Z=-.005
G1 X0.1 Y200.0 Z0.3 F1500.0 E15 ; draw 1st line
G1 X0.4 Y200.0 Z0.3 F5000.0 ; move to side a little
G1 X0.4 Y20 Z0.3 F1500.0 E30 ; draw 2nd line
G92 E0 ; reset extruder
G1 Z1.0 F3000 ; move z up little to prevent scratching of surface
G1 X5 Y20 Z0.3 F5000.0 ; Move over to prevent blob squish
; SET_GCODE_OFFSET Z=+.075
M117 Autobots! Roll Out!
; End of custom start GCode
G92 E0
G92 E0
G1 F2700 E-3.5
;LAYER_COUNT:104
;LAYER:0
M107
G0 F6000 X88.672 Y84.233 Z0.2
;TYPE:SKIRT
G1 F2700 E0
G1 F900 X89.364 Y83.585 E0.03725
G1 X90.108 Y82.997 E0.0745
G1 X90.9 Y82.474 E0.11179
G1 X91.732 Y82.02 E0.14903
G1 X92.6 Y81.637 E0.18631
G1 X93.497 Y81.329 E0.22357
G1 X94.478 Y81.085 E0.26328
G1 X95.125 Y80.955 E0.28921
G1 X96.814 Y80.638 E0.35673
G1 X99.219 Y80.115 E0.45343
G1 X102.574 Y79.271 E0.58935
G1 X103.071 Y79.149 E0.60945
G1 X103.447 Y79.066 E0.62458
G1 X104.381 Y78.901 E0.66184
G1 X105.699 Y78.803 E0.71377
G1 X106.652 Y78.79 E0.75121
G1 X122.779 Y78.792 E1.38482
G1 X123.48 Y78.802 E1.41236
G1 X124.141 Y78.831 E1.43836
G1 X124.558 Y78.864 E1.45479
G1 X124.777 Y78.885 E1.46344
G1 X125.065 Y78.917 E1.47482
G1 X125.606 Y78.983 E1.49623
G1 X126.542 Y79.137 E1.5335
G1 X127.21 Y79.298 E1.5605
G1 X127.788 Y79.456 E1.58404
G1 X128.149 Y79.561 E1.59881
G1 X128.556 Y79.687 E1.61555
G1 X129.449 Y80.006 E1.65281
G1 X130.296 Y80.39 E1.68935
G1 X130.666 Y80.58 E1.70569
G1 X130.908 Y80.71 E1.71648
G1 X131.168 Y80.854 E1.72816
G1 X131.67 Y81.141 E1.75088
G1 X132.472 Y81.647 E1.78813
G1 X133.256 Y82.239 E1.82673
G1 X133.59 Y82.518 E1.84383
G1 X133.864 Y82.754 E1.85803
G1 X134.058 Y82.925 E1.8682
G1 X134.58 Y83.396 E1.89582
G1 X135.257 Y84.061 E1.9331
G1 X135.882 Y84.788 E1.97077
G1 X136.023 Y84.967 E1.97972
G1 X136.275 Y85.298 E1.99607
G1 X136.431 Y85.512 E2.00647
G1 X136.789 Y86.015 E2.03073
G1 X137.305 Y86.81 E2.06796
G1 X137.606 Y87.351 E2.09229
G1 X137.991 Y88.092 E2.12509
G1 X138.448 Y89.005 E2.16521
G1 X139.655 Y91.264 E2.26584
G1 X140.899 Y93.44 E2.36431
G1 X142.202 Y95.575 E2.46258
G1 X143.554 Y97.659 E2.56018
G1 X144.987 Y99.732 E2.65919
G1 X146.127 Y101.284 E2.73485
G1 X146.586 Y101.921 E2.76569
G1 X147.108 Y102.713 E2.80296
G1 X147.561 Y103.547 E2.84025
G1 X147.942 Y104.415 E2.87749
G1 X148.249 Y105.313 E2.91478
G1 X148.479 Y106.233 E2.95204
G1 X148.63 Y107.169 E2.98929
G1 X148.704 Y108.155 E3.02813
G1 X148.714 Y108.483 E3.04103
G1 X148.719 Y108.826 E3.0545
G1 X148.718 Y115.934 E3.33377
G1 X148.708 Y116.656 E3.36214
G1 X148.655 Y117.603 E3.3994
G1 X148.522 Y118.542 E3.43666
G1 X148.311 Y119.467 E3.47394
G1 X148.022 Y120.37 E3.51119
G1 X147.659 Y121.246 E3.54844
G1 X147.044 Y122.39 E3.59947
G1 X146.368 Y123.487 E3.65009
G1 X146.284 Y123.619 E3.65624
G1 X144.99 Y125.785 E3.75537
G1 X143.768 Y127.966 E3.85359
G1 X142.593 Y130.209 E3.95308
G1 X141.4 Y132.66 E4.06017
G1 X141.211 Y133.061 E4.07759
G1 X140.772 Y133.902 E4.11486
G1 X140.263 Y134.702 E4.15212
G1 X139.688 Y135.457 E4.1894
G1 X139.043 Y136.169 E4.22715
G1 X138.903 Y136.311 E4.23498
G1 X138.209 Y136.958 E4.27226
G1 X137.464 Y137.544 E4.3095
G1 X136.671 Y138.065 E4.34678
G1 X135.838 Y138.518 E4.38403
G1 X134.969 Y138.898 E4.42129
G1 X134.071 Y139.204 E4.45857
G1 X133.151 Y139.434 E4.49582
G1 X132.214 Y139.585 E4.53311
G1 X131.269 Y139.657 E4.57035
G1 X130.881 Y139.667 E4.5856
G1 X130.334 Y139.673 E4.60709
G1 X105.368 Y139.672 E5.58797
G1 X104.659 Y139.661 E5.61583
G1 X103.713 Y139.606 E5.65306
G1 X102.774 Y139.472 E5.69032
G1 X101.849 Y139.259 E5.72761
G1 X100.946 Y138.969 E5.76488
G1 X100.032 Y138.586 E5.80381
G1 X99.71 Y138.434 E5.8178
G1 X97.386 Y137.383 E5.91801
G1 X95.074 Y136.414 E6.0165
G1 X92.746 Y135.519 E6.11449
G1 X90.333 Y134.669 E6.215
G1 X89.991 Y134.543 E6.22932
G1 X89.119 Y134.171 E6.26657
G1 X88.281 Y133.726 E6.30385
G1 X87.483 Y133.213 E6.34112
G1 X86.731 Y132.635 E6.37838
G1 X86.031 Y131.995 E6.41565
G1 X85.202 Y131.074 E6.46433
G1 X84.662 Y130.403 E6.49817
G1 X83.911 Y129.45 E6.54584
G1 X82.305 Y127.524 E6.64437
G1 X80.62 Y125.617 E6.74435
G1 X79.528 Y124.444 E6.80731
G1 X79.189 Y124.069 E6.82717
G1 X78.499 Y123.228 E6.86991
G1 X78.476 Y123.197 E6.87143
G1 X77.944 Y122.412 E6.90869
G1 X77.479 Y121.585 E6.94596
G1 X77.086 Y120.722 E6.98322
G1 X76.767 Y119.829 E7.02047
G1 X76.524 Y118.912 E7.05775
G1 X76.359 Y117.978 E7.09501
G1 X76.265 Y116.81 E7.14105
G1 X76.256 Y116.49 E7.15362
G1 X76.252 Y116.174 E7.16604
G1 X76.253 Y109.043 E7.44621
G1 X76.263 Y108.339 E7.47387
G1 X76.317 Y107.392 E7.51114
G1 X76.45 Y106.453 E7.5484
G1 X76.661 Y105.529 E7.58563
G1 X76.95 Y104.625 E7.62292
G1 X77.314 Y103.749 E7.66019
G1 X77.75 Y102.907 E7.69744
G1 X78.097 Y102.341 E7.72353
G1 X78.324 Y101.995 E7.73978
G1 X79.515 Y100.23 E7.82344
G1 X80.866 Y98.102 E7.92247
G1 X82.139 Y95.964 E8.02023
G1 X83.372 Y93.756 E8.11959
G1 X84.527 Y91.541 E8.21774
G1 X85.63 Y89.271 E8.31689
G1 X86.227 Y87.951 E8.37381
G1 X86.516 Y87.335 E8.40054
G1 X86.955 Y86.494 E8.43782
G1 X87.463 Y85.693 E8.47508
G1 X88.036 Y84.937 E8.51235
G1 X88.672 Y84.233 E8.54963
G0 F6000 X89.087 Y84.524
G1 F900 X89.769 Y83.896 E8.58605
G1 X90.503 Y83.33 E8.62247
G1 X91.283 Y82.828 E8.65891
G1 X92.103 Y82.396 E8.69532
G1 X92.958 Y82.036 E8.73177
G1 X93.84 Y81.751 E8.76819
G1 X94.577 Y81.575 E8.79796
G1 X95.217 Y81.447 E8.8236
G1 X96.874 Y81.136 E8.88984
G1 X99.355 Y80.596 E8.98959
G1 X102.704 Y79.754 E9.12527
G1 X103.179 Y79.638 E9.14448
G1 X103.555 Y79.555 E9.15961
G1 X104.468 Y79.394 E9.19603
G1 X105.706 Y79.303 E9.2448
G1 X106.652 Y79.29 E9.28197
G1 X122.772 Y79.292 E9.9153
G1 X123.473 Y79.302 E9.94285
G1 X124.104 Y79.33 E9.96766
G1 X124.51 Y79.362 E9.98366
G1 X124.729 Y79.383 E9.99231
G1 X125.005 Y79.413 E10.00321
G1 X125.546 Y79.479 E10.02463
G1 X126.46 Y79.631 E10.06103
G1 X127.079 Y79.78 E10.08604
G1 X127.657 Y79.938 E10.10958
G1 X128.001 Y80.039 E10.12367
G1 X128.408 Y80.165 E10.14041
G1 X129.281 Y80.477 E10.17683
G1 X130.07 Y80.836 E10.21089
G1 X130.429 Y81.021 E10.22676
G1 X130.671 Y81.151 E10.23755
G1 X130.919 Y81.289 E10.2487
G1 X131.421 Y81.576 E10.27142
G1 X132.206 Y82.07 E10.30786
G1 X132.938 Y82.625 E10.34395
G1 X133.264 Y82.897 E10.36063
G1 X133.538 Y83.133 E10.37484
G1 X133.724 Y83.297 E10.38458
G1 X134.246 Y83.768 E10.4122
G1 X134.906 Y84.418 E10.4486
G1 X135.489 Y85.097 E10.48376
G1 X135.63 Y85.276 E10.49271
G1 X135.875 Y85.598 E10.50861
G1 X136.023 Y85.802 E10.51851
G1 X136.381 Y86.305 E10.54277
G1 X136.886 Y87.082 E10.57918
G1 X137.162 Y87.582 E10.60161
G1 X137.625 Y88.476 E10.64117
G1 X138.007 Y89.241 E10.67476
G1 X139.212 Y91.496 E10.77521
G1 X140.464 Y93.686 E10.87432
G1 X141.779 Y95.84 E10.97348
G1 X143.155 Y97.962 E11.07284
G1 X144.572 Y100.013 E11.17078
G1 X145.722 Y101.576 E11.24702
G1 X146.181 Y102.213 E11.27787
G1 X146.69 Y102.988 E11.3143
G1 X147.13 Y103.804 E11.35072
G1 X147.499 Y104.655 E11.38716
G1 X147.792 Y105.534 E11.42356
G1 X148.009 Y106.436 E11.46001
G1 X148.148 Y107.353 E11.49645
G1 X148.204 Y108.17 E11.52863
G1 X148.214 Y108.498 E11.54152
G1 X148.219 Y108.826 E11.55441
G1 X148.218 Y115.927 E11.8334
G1 X148.208 Y116.649 E11.86176
G1 X148.155 Y117.575 E11.89821
G1 X148.023 Y118.492 E11.9346
G1 X147.812 Y119.395 E11.97104
G1 X147.524 Y120.276 E12.00745
G1 X147.161 Y121.129 E12.04387
G1 X146.618 Y122.128 E12.08855
G1 X145.946 Y123.219 E12.13889
G1 X145.865 Y123.346 E12.14481
G1 X144.556 Y125.536 E12.24505
G1 X143.321 Y127.742 E12.34438
G1 X142.141 Y129.995 E12.4443
G1 X140.983 Y132.372 E12.54818
G1 X140.759 Y132.848 E12.56885
G1 X140.328 Y133.669 E12.60528
G1 X139.828 Y134.45 E12.64171
G1 X139.263 Y135.185 E12.67814
G1 X138.687 Y135.818 E12.71176
G1 X138.547 Y135.96 E12.7196
G1 X137.868 Y136.592 E12.75604
G1 X137.138 Y137.163 E12.79245
G1 X136.361 Y137.668 E12.82886
G1 X135.543 Y138.105 E12.8653
G1 X134.69 Y138.47 E12.90175
G1 X133.81 Y138.76 E12.93815
G1 X132.907 Y138.972 E12.9746
G1 X131.99 Y139.107 E13.01101
G1 X131.253 Y139.157 E13.04003
G1 X130.874 Y139.167 E13.05493
G1 X130.334 Y139.173 E13.07615
G1 X105.376 Y139.172 E14.05671
G1 X104.667 Y139.161 E14.08457
G1 X103.742 Y139.106 E14.12097
G1 X102.824 Y138.972 E14.15742
G1 X101.922 Y138.76 E14.19383
G1 X101.041 Y138.471 E14.23026
G1 X100.245 Y138.134 E14.26422
G1 X99.931 Y137.986 E14.27785
G1 X97.575 Y136.921 E14.37944
G1 X95.238 Y135.941 E14.479
G1 X92.924 Y135.051 E14.57641
G1 X90.499 Y134.197 E14.67742
G1 X90.168 Y134.075 E14.69128
G1 X89.315 Y133.71 E14.72773
G1 X88.497 Y133.274 E14.76415
G1 X87.72 Y132.768 E14.80058
G1 X86.989 Y132.198 E14.83699
G1 X86.31 Y131.567 E14.87341
G1 X85.591 Y130.761 E14.91585
G1 X85.127 Y130.185 E14.94491
G1 X84.315 Y129.154 E14.99647
G1 X82.677 Y127.189 E15.09698
G1 X81.007 Y125.299 E15.19606
G1 X79.898 Y124.109 E15.25997
G1 X79.559 Y123.734 E15.27983
G1 X78.901 Y122.93 E15.32065
G1 X78.878 Y122.899 E15.32217
G1 X78.358 Y122.132 E15.35858
G1 X77.906 Y121.322 E15.39502
G1 X77.526 Y120.476 E15.43146
G1 X77.22 Y119.601 E15.46788
G1 X76.99 Y118.703 E15.5043
G1 X76.839 Y117.788 E15.54073
G1 X76.765 Y116.796 E15.57981
G1 X76.756 Y116.476 E15.59239
G1 X76.752 Y116.174 E15.60426
G1 X76.753 Y109.05 E15.88415
G1 X76.763 Y108.346 E15.91181
G1 X76.816 Y107.421 E15.94821
G1 X76.949 Y106.503 E15.98465
G1 X77.16 Y105.6 E16.02109
G1 X77.448 Y104.719 E16.0575
G1 X77.812 Y103.866 E16.09394
G1 X78.247 Y103.047 E16.13038
G1 X78.515 Y102.615 E16.15035
G1 X78.739 Y102.275 E16.16635
G1 X79.919 Y100.526 E16.24924
G1 X81.302 Y98.348 E16.3506
G1 X82.574 Y96.212 E16.44828
G1 X83.797 Y94.021 E16.54686
G1 X84.98 Y91.753 E16.64736
G1 X86.075 Y89.501 E16.74574
G1 X86.68 Y88.163 E16.80343
G1 X86.969 Y87.547 E16.83017
G1 X87.398 Y86.725 E16.8666
G1 X87.897 Y85.944 E16.90301
G1 X88.462 Y85.208 E16.93946
G1 X89.087 Y84.524 E16.97586
G0 F6000 X89.502 Y84.817
G1 F900 X90.174 Y84.21 E17.01144
G1 X90.896 Y83.665 E17.04698
G1 X91.664 Y83.186 E17.08254
G1 X92.472 Y82.776 E17.11814
G1 X93.312 Y82.439 E17.1537
G1 X94.179 Y82.178 E17.18927
G1 X94.675 Y82.065 E17.20926
G1 X95.31 Y81.938 E17.2347
G1 X96.995 Y81.622 E17.30206
G1 X99.462 Y81.085 E17.40125
G1 X102.834 Y80.237 E17.53786
G1 X103.287 Y80.126 E17.55618
G1 X103.663 Y80.043 E17.57131
G1 X104.554 Y79.887 E17.60685
G1 X105.714 Y79.803 E17.65254
G1 X106.652 Y79.79 E17.6894
G1 X122.765 Y79.792 E18.32246
G1 X123.466 Y79.802 E18.35
G1 X124.068 Y79.828 E18.37367
G1 X124.462 Y79.86 E18.38921
G1 X124.944 Y79.909 E18.40824
G1 X125.485 Y79.975 E18.42965
G1 X126.378 Y80.125 E18.46523
G1 X126.947 Y80.263 E18.48823
G1 X127.525 Y80.421 E18.51177
G1 X127.853 Y80.516 E18.52519
G1 X128.26 Y80.642 E18.54193
G1 X129.112 Y80.948 E18.5775
G1 X129.845 Y81.282 E18.60914
G1 X130.193 Y81.461 E18.62452
G1 X130.435 Y81.591 E18.63531
G1 X130.671 Y81.723 E18.64594
G1 X131.173 Y82.01 E18.66865
G1 X131.939 Y82.493 E18.70423
G1 X132.619 Y83.01 E18.73779
G1 X132.937 Y83.276 E18.75408
G1 X133.389 Y83.668 E18.77759
G1 X133.911 Y84.139 E18.80521
G1 X134.555 Y84.775 E18.84077
G1 X135.096 Y85.406 E18.87343
G1 X135.237 Y85.585 E18.88238
G1 X135.474 Y85.897 E18.89777
G1 X135.616 Y86.091 E18.90722
G1 X135.974 Y86.594 E18.93148
G1 X136.466 Y87.354 E18.96705
G1 X136.719 Y87.812 E18.9876
G1 X137.178 Y88.699 E19.02684
G1 X137.573 Y89.491 E19.06161
G1 X138.769 Y91.729 E19.16131
G1 X140.035 Y93.942 E19.26148
G1 X141.364 Y96.12 E19.36172
G1 X142.735 Y98.233 E19.46068
G1 X144.174 Y100.316 E19.56015
G1 X145.316 Y101.869 E19.63588
G1 X145.775 Y102.506 E19.66673
G1 X146.271 Y103.263 E19.70229
G1 X146.699 Y104.061 E19.73786
G1 X147.054 Y104.894 E19.77344
G1 X147.335 Y105.754 E19.80899
G1 X147.539 Y106.636 E19.84455
G1 X147.663 Y107.533 E19.88013
G1 X147.704 Y108.186 E19.90584
G1 X147.714 Y108.514 E19.91873
G1 X147.719 Y108.826 E19.93099
G1 X147.718 Y115.92 E20.2097
G1 X147.708 Y116.642 E20.23807
G1 X147.656 Y117.546 E20.27365
G1 X147.523 Y118.441 E20.30919
G1 X147.313 Y119.322 E20.34478
G1 X147.025 Y120.18 E20.38034
G1 X146.663 Y121.01 E20.41591
G1 X146.192 Y121.866 E20.4543
G1 X145.524 Y122.951 E20.50436
G1 X145.436 Y123.089 E20.51079
G1 X144.116 Y125.298 E20.61189
G1 X142.888 Y127.49 E20.7106
G1 X141.71 Y129.741 E20.81042
G1 X140.471 Y132.284 E20.92156
G1 X140.306 Y132.635 E20.9368
G1 X139.885 Y133.437 E20.97238
G1 X139.395 Y134.198 E21.00794
G1 X138.839 Y134.913 E21.04353
G1 X138.331 Y135.467 E21.07306
G1 X138.191 Y135.609 E21.0809
G1 X137.528 Y136.225 E21.11645
G1 X136.812 Y136.78 E21.15204
G1 X136.051 Y137.27 E21.1876
G1 X135.249 Y137.691 E21.22319
G1 X134.414 Y138.039 E21.25873
G1 X133.551 Y138.312 E21.29429
G1 X132.667 Y138.508 E21.32987
G1 X131.769 Y138.625 E21.36545
G1 X131.236 Y138.657 E21.38643
G1 X130.868 Y138.667 E21.40089
G1 X130.334 Y138.673 E21.42187
G1 X105.384 Y138.672 E22.40212
G1 X104.675 Y138.661 E22.42998
G1 X103.771 Y138.607 E22.46556
G1 X102.876 Y138.473 E22.50111
G1 X101.996 Y138.261 E22.53668
G1 X101.138 Y137.972 E22.57225
G1 X100.459 Y137.681 E22.60127
G1 X100.176 Y137.547 E22.61357
G1 X97.795 Y136.471 E22.71623
G1 X95.414 Y135.473 E22.81766
G1 X93.09 Y134.579 E22.91549
G1 X90.665 Y133.725 E23.0165
G1 X90.344 Y133.607 E23.02994
G1 X89.512 Y133.25 E23.06551
G1 X88.715 Y132.821 E23.10107
G1 X87.958 Y132.324 E23.13665
G1 X87.249 Y131.762 E23.17219
G1 X86.592 Y131.139 E23.20776
G1 X85.981 Y130.447 E23.24403
G1 X85.447 Y129.784 E23.27748
G1 X84.67 Y128.798 E23.3268
G1 X83.084 Y126.895 E23.42413
G1 X81.357 Y124.941 E23.52658
G1 X80.269 Y123.774 E23.58927
G1 X79.93 Y123.399 E23.60913
G1 X79.302 Y122.632 E23.64808
G1 X79.279 Y122.601 E23.64959
G1 X78.772 Y121.851 E23.68516
G1 X78.334 Y121.059 E23.72072
G1 X77.967 Y120.232 E23.75627
G1 X77.674 Y119.375 E23.79185
G1 X77.458 Y118.496 E23.82741
G1 X77.321 Y117.601 E23.86298
G1 X77.265 Y116.782 E23.89524
G1 X77.256 Y116.462 E23.90781
G1 X77.252 Y116.174 E23.91913
G1 X77.253 Y109.057 E24.19875
G1 X77.263 Y108.353 E24.22641
G1 X77.316 Y107.45 E24.26195
G1 X77.448 Y106.554 E24.29753
G1 X77.659 Y105.674 E24.33308
G1 X77.947 Y104.815 E24.36868
G1 X78.309 Y103.986 E24.40422
G1 X78.934 Y102.889 E24.45382
G1 X79.153 Y102.555 E24.46951
G1 X80.357 Y100.771 E24.55407
G1 X81.706 Y98.645 E24.653
G1 X83.008 Y96.46 E24.75293
G1 X84.252 Y94.232 E24.85318
G1 X85.427 Y91.98 E24.95298
G1 X86.52 Y89.729 E25.05129
G1 X87.132 Y88.375 E25.10967
G1 X87.421 Y87.759 E25.1364
G1 X87.842 Y86.958 E25.17196
G1 X88.331 Y86.196 E25.20753
G1 X88.886 Y85.481 E25.24309
G1 X89.502 Y84.817 E25.27868
G1 F2700 E21.77868
G0 F6000 X86.841 Y108.368
G0 X86.841 Y116.632
G0 X87.374 Y117.165
G0 X105.423 Y117.165
G0 X108.924 Y124.275
G1 F2700 E25.27868
G1 F900 X112.943 Y124.275 E25.43658
G1 X113.087 Y125.173 E25.47231
G1 X108.793 Y125.173 E25.64101
G1 X108.884 Y124.798 E25.65617
G1 X108.924 Y124.275 E25.67678
G0 F6000 X108.424 Y124.288
G1 F900 X108.424 Y123.775 E25.69694
G1 X113.092 Y123.775 E25.88034
G1 X113.309 Y123.885 E25.88989
G1 X113.408 Y124.054 E25.89759
G1 X113.423 Y124.112 E25.89994
G1 X113.653 Y125.538 E25.95669
G1 X113.687 Y125.673 E25.96216
G1 X108.038 Y125.673 E26.1841
G1 X108.157 Y125.47 E26.19335
G1 X108.322 Y125.031 E26.21177
G1 X108.409 Y124.571 E26.23017
G1 X108.424 Y124.288 E26.2413
G0 F6000 X107.924 Y124.288
G1 F900 X107.924 Y123.275 E26.2811
G1 X113.128 Y123.275 E26.48556
G1 X113.402 Y123.35 E26.49672
G1 X113.63 Y123.5 E26.50744
G1 X113.814 Y123.73 E26.51901
G1 X113.913 Y124.01 E26.53068
G1 X114.147 Y125.458 E26.58831
G1 X114.253 Y125.868 E26.60495
