;FLAVOR:Marlin
;TIME:10657
;Filament used: 7.67253m
;Layer height: 0.22
;MINX:81.248
;MINY:75.096
;MINZ:0.2
;MAXX:143.75
;MAXY:143.834
;MAXZ:46.18
;POSTPROCESSED
;Generated with Cura_SteamEngine 4.13.1
;
;

M82 ;absolute extrusion mode
; Ender 3 Custom Start G-code
M117 Getting the bed up to temp!
M140 S55.0 ; Set Heat Bed temperature
M190 S55.0 ; Wait for Heat Bed temperature
M117 Pre-heating the extruder!
M104 S210; start warming extruder to 160
G28 ; Home all axes
M117 Auto bed-level GO!
G29 ; Auto bed-level (BL-Touch)
G92 E0 ; Reset Extruder
M117 Getting the extruder up to temp!
M104 S210 ; Set Extruder temperature
M109 S210 ; Wait for Extruder temperature
G1 Z2.0 F3000 ; move z up little to prevent scratching of surface
G1 X0.1 Y20 Z0.3 F5000.0 ; move to start-line position
M117 LET THE PURGE BEGIN!
SET_GCODE_OFFSET Z=-.005
G1 X0.1 Y200.0 Z0.3 F1500.0 E15 ; draw 1st line
G1 X0.4 Y200.0 Z0.3 F5000.0 ; move to side a little
G1 X0.4 Y20 Z0.3 F1500.0 E30 ; draw 2nd line
G92 E0 ; reset extruder
G1 Z1.0 F3000 ; move z up little to prevent scratching of surface
G1 X5 Y20 Z0.3 F5000.0 ; Move over to prevent blob squish
; SET_GCODE_OFFSET Z=+.075
M117 Autobots! Roll Out!
; End of custom start GCode
G92 E0
G92 E0
G1 F2700 E-3.5
;LAYER_COUNT:210
;LAYER:0
M107
G0 F6000 X84.555 Y78.542 Z0.2
;TYPE:SKIRT
G1 F2700 E0
G1 F900 X84.696 Y78.401 E0.00783
G1 X85.394 Y77.759 E0.04509
G1 X86.144 Y77.179 E0.08234
G1 X86.94 Y76.663 E0.11961
G1 X87.777 Y76.217 E0.15687
G1 X88.649 Y75.842 E0.19417
G1 X89.549 Y75.542 E0.23144
G1 X90.47 Y75.319 E0.26867
G1 X91.408 Y75.175 E0.30595
G1 X92.269 Y75.113 E0.33987
G1 X92.659 Y75.102 E0.3552
G1 X93.206 Y75.096 E0.37669
G1 X131.783 Y75.104 E1.89232
G1 X132.476 Y75.114 E1.91955
G1 X133.423 Y75.168 E1.95682
G1 X134.362 Y75.301 E1.99408
G1 X135.287 Y75.513 E2.03137
G1 X136.19 Y75.802 E2.06862
G1 X137.066 Y76.166 E2.10589
G1 X137.908 Y76.602 E2.14314
G1 X138.71 Y77.108 E2.18039
G1 X139.467 Y77.68 E2.21767
G1 X140.223 Y78.363 E2.2577
G1 X140.399 Y78.537 E2.26742
G1 X141.045 Y79.231 E2.30467
G1 X141.63 Y79.978 E2.34195
G1 X142.15 Y80.771 E2.37921
G1 X142.601 Y81.605 E2.41646
G1 X142.981 Y82.475 E2.45376
G1 X143.286 Y83.373 E2.49102
G1 X143.514 Y84.293 E2.52826
G1 X143.664 Y85.23 E2.56554
G1 X143.731 Y86.084 E2.5992
G1 X143.744 Y86.523 E2.61645
G1 X143.75 Y87.068 E2.63786
G1 X143.749 Y107.494 E3.44037
G1 X143.739 Y108.201 E3.46815
G1 X143.73 Y108.516 E3.48053
G1 X143.675 Y109.827 E3.53209
G1 X143.603 Y112.363 E3.63176
G1 X143.603 Y114.875 E3.73045
G1 X143.676 Y117.462 E3.83213
G1 X143.732 Y118.796 E3.88459
G1 X143.741 Y119.122 E3.8974
G1 X143.75 Y119.882 E3.92727
G1 X143.748 Y122.075 E4.01343
G1 X143.75 Y122.339 E4.0238
G1 X143.75 Y127.676 E4.23348
G1 X143.748 Y128.665 E4.27234
G1 X143.75 Y128.929 E4.28271
G1 X143.749 Y132.003 E4.40348
G1 X143.739 Y132.73 E4.43205
G1 X143.686 Y133.677 E4.46931
G1 X143.553 Y134.616 E4.50657
G1 X143.342 Y135.541 E4.54385
G1 X143.054 Y136.444 E4.58109
G1 X142.69 Y137.32 E4.61836
G1 X142.254 Y138.163 E4.65564
G1 X141.749 Y138.965 E4.69288
G1 X141.178 Y139.722 E4.73013
G1 X140.545 Y140.429 E4.76742
G1 X139.855 Y141.079 E4.80466
G1 X139.112 Y141.669 E4.84194
G1 X138.323 Y142.195 E4.87919
G1 X137.492 Y142.652 E4.91645
G1 X136.625 Y143.038 E4.95374
G1 X135.729 Y143.349 E4.991
G1 X134.81 Y143.583 E5.02826
G1 X133.874 Y143.739 E5.06554
G1 X132.806 Y143.821 E5.10762
G1 X132.486 Y143.83 E5.1202
G1 X132.17 Y143.834 E5.13262
G1 X126.248 Y143.833 E5.36528
G1 X125.551 Y143.823 E5.39267
G1 X124.319 Y143.737 E5.44119
G1 X123.88 Y143.682 E5.45857
G1 X121.286 Y143.388 E5.56114
G1 X118.759 Y143.174 E5.66078
G1 X116.275 Y143.033 E5.75853
G1 X113.74 Y142.962 E5.85816
G1 X111.231 Y142.962 E5.95674
G1 X108.75 Y143.033 E6.05425
G1 X106.21 Y143.177 E6.15421
G1 X103.787 Y143.383 E6.24975
G1 X102.052 Y143.593 E6.31841
G1 X101.745 Y143.617 E6.33051
G1 X100.566 Y143.752 E6.37713
G1 X99.603 Y143.821 E6.41506
G1 X99.284 Y143.83 E6.4276
G1 X98.967 Y143.834 E6.44006
G1 X93.062 Y143.833 E6.67206
G1 X92.364 Y143.824 E6.69948
G1 X91.417 Y143.772 E6.73674
G1 X90.478 Y143.64 E6.774
G1 X89.553 Y143.43 E6.81127
G1 X88.649 Y143.142 E6.84854
G1 X87.773 Y142.779 E6.8858
G1 X86.93 Y142.344 E6.92307
G1 X86.127 Y141.839 E6.96033
G1 X85.369 Y141.269 E6.9976
G1 X84.662 Y140.637 E7.03485
G1 X84.011 Y139.947 E7.07212
G1 X83.42 Y139.205 E7.10939
G1 X82.894 Y138.416 E7.14665
G1 X82.436 Y137.585 E7.18393
G1 X82.05 Y136.719 E7.22118
G1 X81.738 Y135.823 E7.25845
G1 X81.503 Y134.904 E7.29572
G1 X81.346 Y133.969 E7.33297
G1 X81.263 Y132.879 E7.37592
G1 X81.254 Y132.546 E7.38901
G1 X81.25 Y132.248 E7.40072
G1 X81.248 Y128.614 E7.54349
G1 X81.252 Y127.645 E7.58156
G1 X81.25 Y127.381 E7.59193
G1 X81.25 Y122.044 E7.80162
G1 X81.252 Y121.039 E7.8411
G1 X81.25 Y120.714 E7.85387
G1 X81.25 Y105.916 E8.43526
G1 X81.252 Y104.895 E8.47538
G1 X81.25 Y104.637 E8.48551
G1 X81.251 Y87.008 E9.17813
G1 X81.261 Y86.331 E9.20473
G1 X81.315 Y85.384 E9.242
G1 X81.449 Y84.445 E9.27926
G1 X81.661 Y83.52 E9.31655
G1 X81.95 Y82.617 E9.3538
G1 X82.315 Y81.741 E9.39108
G1 X82.751 Y80.9 E9.4283
G1 X83.258 Y80.097 E9.46561
G1 X83.829 Y79.341 E9.50283
G1 X84.555 Y78.542 E9.54525
G0 F6000 X84.909 Y78.896
G1 F900 X85.05 Y78.755 E9.55308
G1 X85.733 Y78.128 E9.58951
G1 X86.468 Y77.562 E9.62596
G1 X87.248 Y77.062 E9.66236
G1 X88.069 Y76.631 E9.69879
G1 X88.924 Y76.273 E9.73521
G1 X89.807 Y75.989 E9.77165
G1 X90.711 Y75.783 E9.80808
G1 X91.629 Y75.655 E9.84449
G1 X92.286 Y75.612 E9.87036
G1 X92.666 Y75.602 E9.88529
G1 X93.206 Y75.596 E9.90651
G1 X131.776 Y75.604 E11.42187
G1 X132.469 Y75.614 E11.4491
G1 X133.395 Y75.667 E11.48554
G1 X134.312 Y75.8 E11.52195
G1 X135.215 Y76.012 E11.55839
G1 X136.096 Y76.3 E11.5948
G1 X136.949 Y76.664 E11.63124
G1 X137.768 Y77.099 E11.66767
G1 X138.546 Y77.603 E11.70409
G1 X139.277 Y78.173 E11.74051
G1 X139.872 Y78.718 E11.77221
G1 X140.048 Y78.892 E11.78194
G1 X140.678 Y79.572 E11.81836
G1 X141.248 Y80.303 E11.85478
G1 X141.753 Y81.081 E11.89122
G1 X142.188 Y81.9 E11.92765
G1 X142.552 Y82.753 E11.96409
G1 X142.841 Y83.634 E12.00052
G1 X143.052 Y84.536 E12.03691
G1 X143.185 Y85.454 E12.07336
G1 X143.231 Y86.104 E12.09896
G1 X143.244 Y86.529 E12.11566
G1 X143.25 Y87.068 E12.13684
G1 X143.249 Y107.487 E12.93907
G1 X143.239 Y108.194 E12.96685
G1 X143.23 Y108.494 E12.97864
G1 X143.179 Y109.699 E13.02603
G1 X143.103 Y112.385 E13.1316
G1 X143.103 Y114.889 E13.22998
G1 X143.176 Y117.497 E13.33248
G1 X143.232 Y118.817 E13.38439
G1 X143.241 Y119.129 E13.39665
G1 X143.25 Y119.882 E13.42624
G1 X143.248 Y122.079 E13.51256
G1 X143.25 Y122.343 E13.52293
G1 X143.25 Y127.675 E13.73242
G1 X143.248 Y128.669 E13.77147
G1 X143.25 Y128.933 E13.78184
G1 X143.249 Y131.996 E13.90218
G1 X143.239 Y132.723 E13.93075
G1 X143.186 Y133.649 E13.96719
G1 X143.054 Y134.566 E14.00359
G1 X142.843 Y135.469 E14.04002
G1 X142.555 Y136.35 E14.07644
G1 X142.193 Y137.204 E14.11288
G1 X141.758 Y138.022 E14.14928
G1 X141.254 Y138.801 E14.18573
G1 X140.685 Y139.533 E14.22216
G1 X140.055 Y140.213 E14.25858
G1 X139.368 Y140.836 E14.29501
G1 X138.631 Y141.398 E14.33143
G1 X137.848 Y141.895 E14.36786
G1 X137.025 Y142.322 E14.40429
G1 X136.168 Y142.676 E14.44072
G1 X135.284 Y142.955 E14.47714
G1 X134.379 Y143.158 E14.51358
G1 X133.461 Y143.281 E14.54997
G1 X132.792 Y143.321 E14.5763
G1 X132.472 Y143.33 E14.58888
G1 X132.17 Y143.334 E14.60075
G1 X126.255 Y143.333 E14.83314
G1 X125.558 Y143.323 E14.86052
G1 X124.381 Y143.241 E14.90688
G1 X123.904 Y143.181 E14.92577
G1 X121.35 Y142.892 E15.02675
G1 X118.796 Y142.675 E15.12745
G1 X116.282 Y142.533 E15.22638
G1 X113.754 Y142.462 E15.32574
G1 X111.252 Y142.462 E15.42404
G1 X108.708 Y142.535 E15.52403
G1 X106.175 Y142.678 E15.62371
G1 X103.712 Y142.888 E15.72083
G1 X101.992 Y143.096 E15.7889
G1 X101.697 Y143.119 E15.80052
G1 X100.509 Y143.255 E15.8475
G1 X99.589 Y143.321 E15.88374
G1 X99.27 Y143.33 E15.89628
G1 X98.967 Y143.334 E15.90819
G1 X93.068 Y143.333 E16.13995
G1 X92.37 Y143.324 E16.16737
G1 X91.445 Y143.272 E16.20377
G1 X90.527 Y143.141 E16.24021
G1 X89.624 Y142.931 E16.27663
G1 X88.742 Y142.644 E16.31307
G1 X87.889 Y142.281 E16.34949
G1 X87.07 Y141.847 E16.38591
G1 X86.291 Y141.344 E16.42234
G1 X85.558 Y140.776 E16.45877
G1 X84.878 Y140.146 E16.49519
G1 X84.254 Y139.461 E16.5316
G1 X83.691 Y138.724 E16.56804
G1 X83.194 Y137.941 E16.60447
G1 X82.766 Y137.118 E16.64092
G1 X82.411 Y136.262 E16.67733
G1 X82.131 Y135.378 E16.71376
G1 X81.928 Y134.474 E16.75016
G1 X81.804 Y133.555 E16.78659
G1 X81.763 Y132.865 E16.81375
G1 X81.754 Y132.532 E16.82684
G1 X81.75 Y132.248 E16.838
G1 X81.748 Y128.616 E16.98069
G1 X81.752 Y127.641 E17.019
G1 X81.75 Y127.377 E17.02937
G1 X81.75 Y122.045 E17.23886
G1 X81.752 Y121.036 E17.2785
G1 X81.75 Y120.711 E17.29127
G1 X81.75 Y105.917 E17.8725
G1 X81.752 Y104.891 E17.91281
G1 X81.75 Y104.633 E17.92295
G1 X81.751 Y87.015 E18.61514
G1 X81.761 Y86.338 E18.64174
G1 X81.815 Y85.413 E18.67814
G1 X81.948 Y84.495 E18.71458
G1 X82.16 Y83.592 E18.75103
G1 X82.449 Y82.711 E18.78745
G1 X82.812 Y81.859 E18.82384
G1 X83.248 Y81.04 E18.86029
G1 X83.753 Y80.262 E18.89673
G1 X84.322 Y79.531 E18.93313
G1 X84.909 Y78.896 E18.9671
G0 F6000 X85.262 Y79.249
G1 F900 X85.403 Y79.108 E18.97494
G1 X86.071 Y78.497 E19.0105
G1 X86.79 Y77.947 E19.04607
G1 X87.555 Y77.463 E19.08164
G1 X88.36 Y77.048 E19.11722
G1 X89.198 Y76.705 E19.15279
G1 X90.063 Y76.438 E19.18836
G1 X90.948 Y76.248 E19.22392
G1 X91.846 Y76.138 E19.25947
G1 X92.303 Y76.112 E19.27745
G1 X92.672 Y76.102 E19.29196
G1 X93.206 Y76.096 E19.31294
G1 X131.769 Y76.104 E20.82802
G1 X132.462 Y76.114 E20.85525
G1 X133.366 Y76.167 E20.89083
G1 X134.261 Y76.3 E20.92638
G1 X135.142 Y76.511 E20.96197
G1 X136 Y76.799 E20.99753
G1 X136.829 Y77.161 E21.03307
G1 X137.624 Y77.596 E21.06867
G1 X138.377 Y78.098 E21.10423
G1 X139.082 Y78.665 E21.13977
G1 X139.52 Y79.074 E21.16332
G1 X139.696 Y79.248 E21.17304
G1 X140.311 Y79.912 E21.2086
G1 X140.865 Y80.628 E21.24417
G1 X141.354 Y81.39 E21.27974
G1 X141.774 Y82.192 E21.31531
G1 X142.121 Y83.029 E21.35091
G1 X142.393 Y83.892 E21.38646
G1 X142.588 Y84.776 E21.42202
G1 X142.732 Y86.124 E21.47528
G1 X142.744 Y86.535 E21.49144
G1 X142.75 Y87.068 E21.51238
G1 X142.749 Y107.48 E22.31434
G1 X142.739 Y108.187 E22.34212
G1 X142.731 Y108.473 E22.35336
G1 X142.677 Y109.753 E22.40369
G1 X142.603 Y112.371 E22.50659
G1 X142.603 Y114.903 E22.60607
G1 X142.675 Y117.46 E22.70657
G1 X142.733 Y118.838 E22.76076
G1 X142.741 Y119.135 E22.77243
G1 X142.75 Y119.882 E22.80178
G1 X142.748 Y122.082 E22.88822
G1 X142.75 Y122.346 E22.89859
G1 X142.75 Y127.674 E23.10792
G1 X142.748 Y128.672 E23.14713
G1 X142.75 Y128.936 E23.1575
G1 X142.749 Y131.989 E23.27745
G1 X142.739 Y132.716 E23.30601
G1 X142.687 Y133.62 E23.34159
G1 X142.555 Y134.515 E23.37713
G1 X142.344 Y135.396 E23.41273
G1 X142.057 Y136.254 E23.44827
G1 X141.695 Y137.084 E23.48385
G1 X141.261 Y137.879 E23.51943
G1 X140.759 Y138.632 E23.55499
G1 X140.192 Y139.338 E23.59056
G1 X139.565 Y139.991 E23.62613
G1 X138.883 Y140.587 E23.66172
G1 X138.151 Y141.12 E23.69729
G1 X137.375 Y141.586 E23.73285
G1 X136.561 Y141.982 E23.76842
G1 X135.715 Y142.304 E23.80398
G1 X134.844 Y142.551 E23.83955
G1 X133.955 Y142.72 E23.87511
G1 X132.778 Y142.821 E23.92152
G1 X132.458 Y142.83 E23.9341
G1 X132.17 Y142.834 E23.94541
G1 X126.262 Y142.833 E24.17753
G1 X125.565 Y142.823 E24.20492
G1 X124.443 Y142.745 E24.2491
G1 X124.026 Y142.693 E24.26561
G1 X121.343 Y142.388 E24.3717
G1 X118.866 Y142.178 E24.46937
G1 X116.289 Y142.032 E24.57078
G1 X113.768 Y141.962 E24.66986
G1 X111.237 Y141.962 E24.7693
G1 X108.7 Y142.035 E24.86902
G1 X106.14 Y142.18 E24.96976
G1 X103.668 Y142.39 E25.06723
G1 X101.932 Y142.6 E25.13593
G1 X101.632 Y142.623 E25.14775
G1 X100.452 Y142.758 E25.19442
G1 X99.575 Y142.821 E25.22896
G1 X99.256 Y142.83 E25.2415
G1 X98.967 Y142.834 E25.25286
G1 X93.075 Y142.833 E25.48434
G1 X92.377 Y142.824 E25.51177
G1 X91.473 Y142.773 E25.54734
G1 X90.577 Y142.641 E25.58293
G1 X89.697 Y142.432 E25.61846
G1 X88.838 Y142.145 E25.65404
G1 X88.008 Y141.784 E25.6896
G1 X87.213 Y141.351 E25.72517
G1 X86.459 Y140.849 E25.76076
G1 X85.753 Y140.283 E25.79631
G1 X85.099 Y139.657 E25.83188
G1 X84.503 Y138.975 E25.86746
G1 X83.969 Y138.244 E25.90303
G1 X83.502 Y137.468 E25.93861
G1 X83.106 Y136.654 E25.97418
G1 X82.782 Y135.809 E26.00973
G1 X82.535 Y134.938 E26.0453
G1 X82.365 Y134.049 E26.08086
G1 X82.263 Y132.852 E26.12806
G1 X82.254 Y132.519 E26.14115
G1 X82.25 Y132.248 E26.1518
G1 X82.248 Y128.618 E26.29442
G1 X82.252 Y127.638 E26.33292
G1 X82.25 Y127.374 E26.34329
G1 X82.25 Y122.046 E26.55262
G1 X82.252 Y121.033 E26.59242
G1 X82.25 Y120.708 E26.60519
G1 X82.25 Y105.918 E27.18627
G1 X82.252 Y104.887 E27.22677
G1 X82.25 Y104.629 E27.23691
G1 X82.251 Y87.023 E27.92862
G1 X82.261 Y86.346 E27.95522
G1 X82.314 Y85.442 E27.9908
G1 X82.447 Y84.546 E28.02639
G1 X82.659 Y83.666 E28.06195
G1 X82.947 Y82.808 E28.09751
G1 X83.31 Y81.978 E28.1331
G1 X83.744 Y81.184 E28.16865
G1 X84.247 Y80.431 E28.20423
G1 X84.815 Y79.726 E28.2398
G1 X85.262 Y79.249 E28.26549
G1 F2700 E24.76549
G0 F6000 X95.835 Y90.097
G0 X96.25 Y90.097
G1 F2700 E28.26549
G1 F900 X128.75 Y90.102 E29.54236
G1 X128.75 Y95.819 E29.76698
G1 X124.336 Y95.821 E29.94039
G1 X123.79 Y95.861 E29.9619
G1 X123.256 Y95.98 E29.9834
G1 X122.744 Y96.176 E30.00494
G1 X122.267 Y96.444 E30.02643
G1 X121.685 Y96.919 E30.05595
G1 X121.246 Y97.358 E30.08034
G1 X120.889 Y97.773 E30.10185
G1 X120.595 Y98.235 E30.12336
G1 X120.372 Y98.734 E30.14484
G1 X120.224 Y99.261 E30.16634
G1 X120.148 Y100.007 E30.1958
G1 X120.148 Y100.385 E30.21065
G1 X119.694 Y100.5 E30.22906
G1 X119.432 Y100.59 E30.23994
G1 X118.942 Y100.779 E30.26057
G1 X118.519 Y100.974 E30.27887
G1 X118.437 Y101.018 E30.28253
G1 X118.053 Y101.254 E30.30024
G1 X117.346 Y101.751 E30.33419
G1 X116.923 Y102.098 E30.35569
G1 X116.554 Y102.502 E30.37718
G1 X116.248 Y102.956 E30.39869
G1 X116.012 Y103.45 E30.4202
G1 X115.936 Y103.696 E30.43032
G1 X115.692 Y104.055 E30.44737
G1 X115.279 Y104.822 E30.4816
G1 X115.156 Y105.071 E30.49251
G1 X115.023 Y105.387 E30.50598
G1 X114.959 Y105.561 E30.51326
G1 X114.858 Y105.878 E30.52633
G1 X114.828 Y105.989 E30.53085
G1 X114.762 Y106.292 E30.54304
G1 X114.284 Y107.461 E30.59266
G1 X110.72 Y107.46 E30.73268
G1 X110.196 Y106.177 E30.78713
G1 X110.107 Y105.82 E30.80158
G1 X110.051 Y105.617 E30.80986
G1 X109.908 Y105.205 E30.82699
G1 X109.835 Y105.029 E30.83448
G1 X109.674 Y104.69 E30.84922
G1 X109.617 Y104.584 E30.85395
G1 X109.443 Y104.292 E30.86731
G1 X109.22 Y103.954 E30.88321
G1 X109.206 Y103.88 E30.88617
G1 X109.03 Y103.361 E30.9077
G1 X108.781 Y102.874 E30.92919
G1 X108.463 Y102.428 E30.95072
G1 X108.084 Y102.034 E30.97219
G1 X107.771 Y101.782 E30.98798
G1 X107.358 Y101.484 E31.00799
G1 X107.118 Y101.328 E31.01924
G1 X106.838 Y101.152 E31.03223
G1 X106.541 Y100.986 E31.0456
G1 X106.481 Y100.956 E31.04823
G1 X106.181 Y100.822 E31.06114
G1 X105.692 Y100.629 E31.0818
G1 X105.359 Y100.515 E31.09563
G1 X105.29 Y100.495 E31.09845
G1 X104.936 Y100.411 E31.11274
G1 X104.859 Y100.397 E31.11582
G1 X104.859 Y100.013 E31.1309
G1 X104.819 Y99.467 E31.15241
G1 X104.7 Y98.933 E31.17391
G1 X104.505 Y98.422 E31.1954
G1 X104.237 Y97.944 E31.21693
G1 X103.77 Y97.37 E31.246
G1 X103.332 Y96.929 E31.27042
G1 X102.919 Y96.57 E31.29192
G1 X102.458 Y96.275 E31.31342
G1 X101.959 Y96.05 E31.33493
G1 X101.432 Y95.9 E31.35645
G1 X100.67 Y95.822 E31.38655
G1 X97.785 Y95.823 E31.4999
G1 X96.25 Y95.821 E31.5602
G1 X96.25 Y90.097 E31.78509
G0 F6000 X95.75 Y89.597
G1 F900 X129.25 Y89.602 E33.10126
G1 X129.25 Y96.319 E33.36516
G1 X124.336 Y96.321 E33.55822
G1 X123.828 Y96.361 E33.57824
G1 X123.332 Y96.48 E33.59828
G1 X122.862 Y96.675 E33.61827
G1 X122.427 Y96.941 E33.63831
G1 X122.039 Y97.273 E33.65837
G1 X121.6 Y97.712 E33.68276
G1 X121.269 Y98.099 E33.70277
G1 X121.003 Y98.534 E33.7228
G1 X120.808 Y99.004 E33.74279
G1 X120.688 Y99.5 E33.76284
G1 X120.648 Y100.008 E33.78286
G1 X120.647 Y100.799 E33.81394
G1 X120.246 Y100.874 E33.82997
G1 X119.848 Y100.975 E33.8461
G1 X119.612 Y101.057 E33.85592
