;FLAVOR:Marlin
;TIME:3897
;Filament used: 3.47187m
;Layer height: 0.22
;MINX:65.112
;MINY:85.42
;MINZ:0.2
;MAXX:148.351
;MAXY:139.578
;MAXZ:26.6
;POSTPROCESSED
;Generated with Cura_SteamEngine 4.13.1
;
;

M82 ;absolute extrusion mode
; Ender 3 Custom Start G-code
M117 Getting the bed up to temp!
M140 S55.0 ; Set Heat Bed temperature
M190 S55.0 ; Wait for Heat Bed temperature
M117 Pre-heating the extruder!
M104 S210; start warming extruder to 160
G28 ; Home all axes
M117 Auto bed-level GO!
G29 ; Auto bed-level (BL-Touch)
G92 E0 ; Reset Extruder
M117 Getting the extruder up to temp!
M104 S210 ; Set Extruder temperature
M109 S210 ; Wait for Extruder temperature
G1 Z2.0 F3000 ; move z up little to prevent scratching of surface
G1 X0.1 Y20 Z0.3 F5000.0 ; move to start-line position
M117 LET THE PURGE BEGIN!
SET_GCODE_OFFSET Z=-.005
G1 X0.1 Y200.0 Z0.3 F1500.0 E15 ; draw 1st line
G1 X0.4 Y200.0 Z0.3 F5000.0 ; move to side a little
G1 X0.4 Y20 Z0.3 F1500.0 E30 ; draw 2nd line
G92 E0 ; reset extruder
G1 Z1.0 F3000 ; move z up little to prevent scratching of surface
G1 X5 Y20 Z0.3 F5000.0 ; Move over to prevent blob squish
; SET_GCODE_OFFSET Z=+.075
M117 Autobots! Roll Out!
; End of custom start GCode
G92 E0
G92 E0
G1 F2700 E-3.5
;LAYER_COUNT:121
;LAYER:0
M107
G0 F6000 X71.389 Y95.164 Z0.2
;TYPE:SKIRT
G1 F2700 E0
G1 F900 X72.12 Y94.635 E0.03545
G1 X72.409 Y94.443 E0.04908
G1 X72.741 Y94.231 E0.06456
G1 X73.089 Y94.017 E0.08061
G1 X73.917 Y93.555 E0.11786
G1 X74.736 Y93.182 E0.15322
G1 X74.947 Y93.096 E0.16217
G1 X75.489 Y92.891 E0.18494
G1 X75.922 Y92.74 E0.20295
G1 X76.83 Y92.466 E0.24022
G1 X78.082 Y92.219 E0.29036
G1 X78.58 Y92.15 E0.31011
G1 X78.914 Y92.109 E0.32333
G1 X79.145 Y92.084 E0.33246
G1 X79.494 Y92.052 E0.34623
G1 X80.485 Y91.977 E0.38527
G1 X81.444 Y91.918 E0.42302
G1 X83.927 Y91.693 E0.52097
G1 X86.431 Y91.395 E0.62005
G1 X88.871 Y91.035 E0.71695
G1 X91.4 Y90.587 E0.81786
G1 X93.826 Y90.088 E0.91517
G1 X96.263 Y89.514 E1.01353
G1 X98.682 Y88.87 E1.11188
G1 X101.103 Y88.153 E1.21108
G1 X103.523 Y87.36 E1.31114
G1 X105.687 Y86.586 E1.40143
G1 X106.522 Y86.275 E1.43644
G1 X107.346 Y86.004 E1.47052
G1 X107.569 Y85.94 E1.47963
G1 X107.943 Y85.839 E1.49485
G1 X108.219 Y85.77 E1.50603
G1 X109.149 Y85.579 E1.54333
G1 X110.09 Y85.467 E1.58056
G1 X110.765 Y85.435 E1.60711
G1 X111.625 Y85.421 E1.64091
G1 X121.28 Y85.42 E2.02024
G1 X122.139 Y85.431 E2.05399
G1 X122.745 Y85.456 E2.07782
G1 X123.14 Y85.485 E2.09338
G1 X125.377 Y85.676 E2.18159
G1 X128.124 Y85.831 E2.28968
G1 X129.068 Y85.924 E2.32695
G1 X129.802 Y86.053 E2.35623
G1 X130.083 Y86.112 E2.36751
G1 X131.002 Y86.346 E2.40477
G1 X131.898 Y86.656 E2.44202
G1 X132.765 Y87.041 E2.47929
G1 X133.596 Y87.498 E2.51655
G1 X134.499 Y88.106 E2.55932
G1 X134.633 Y88.206 E2.56589
G1 X135.118 Y88.588 E2.59015
G1 X135.772 Y89.134 E2.62362
G1 X137.785 Y90.768 E2.72548
G1 X139.765 Y92.284 E2.82346
G1 X140.801 Y93.029 E2.87359
G1 X141.824 Y93.783 E2.92352
G1 X142.563 Y94.377 E2.96077
G1 X143.249 Y95.032 E2.99803
G1 X143.878 Y95.742 E3.0353
G1 X144.696 Y96.888 E3.09062
G1 X144.83 Y97.103 E3.10057
G1 X145.298 Y97.929 E3.13787
G1 X145.694 Y98.791 E3.17514
G1 X146.016 Y99.683 E3.2124
G1 X146.241 Y100.506 E3.24592
G1 X146.38 Y101.109 E3.27023
G1 X146.658 Y102.389 E3.3217
G1 X146.82 Y103.324 E3.35898
G1 X146.903 Y104.269 E3.39625
G1 X146.913 Y104.921 E3.42187
G1 X146.897 Y106.114 E3.46874
G1 X146.868 Y107.459 E3.5216
G1 X146.872 Y109.093 E3.5858
G1 X146.876 Y109.535 E3.60316
G1 X146.864 Y112.295 E3.7116
G1 X146.873 Y112.942 E3.73702
G1 X146.873 Y113.271 E3.74995
G1 X146.868 Y113.618 E3.76358
G1 X146.866 Y116.108 E3.86141
G1 X146.876 Y117.032 E3.89772
G1 X146.864 Y119.725 E4.00352
G1 X146.875 Y120.439 E4.03158
G1 X146.875 Y120.785 E4.04517
G1 X146.869 Y121.16 E4.05991
G1 X146.854 Y121.588 E4.07673
G1 X146.82 Y122.216 E4.10144
G1 X146.761 Y123.023 E4.13323
G1 X146.651 Y123.965 E4.17049
G1 X146.461 Y124.894 E4.20775
G1 X146.194 Y125.804 E4.24501
G1 X145.851 Y126.688 E4.28226
G1 X145.415 Y127.577 E4.32116
G1 X145.126 Y128.106 E4.34484
G1 X143.941 Y130.348 E4.44448
G1 X143.289 Y131.665 E4.50221
G1 X143.021 Y132.189 E4.52534
G1 X142.554 Y133.014 E4.56258
G1 X141.828 Y134.046 E4.61216
G1 X141.703 Y134.204 E4.62007
G1 X141.083 Y134.922 E4.65734
G1 X140.406 Y135.586 E4.6946
G1 X139.675 Y136.19 E4.73185
G1 X138.895 Y136.731 E4.76915
G1 X138.073 Y137.204 E4.80641
G1 X136.835 Y137.756 E4.85966
G1 X136.582 Y137.851 E4.87028
G1 X136.173 Y137.996 E4.88733
G1 X134.553 Y138.534 E4.9544
G1 X133.911 Y138.735 E4.98083
G1 X132.994 Y138.977 E5.01809
G1 X132.294 Y139.108 E5.04607
G1 X131.502 Y139.23 E5.07755
G1 X131.224 Y139.269 E5.08858
G1 X130.743 Y139.331 E5.10763
G1 X130.139 Y139.411 E5.13157
G1 X129.47 Y139.49 E5.15804
G1 X128.496 Y139.563 E5.19641
G1 X128.023 Y139.575 E5.215
G1 X127.721 Y139.578 E5.22687
G1 X124.701 Y139.577 E5.34552
G1 X124.001 Y139.567 E5.37302
G1 X123.054 Y139.513 E5.41029
G1 X122.115 Y139.38 E5.44755
G1 X121.466 Y139.24 E5.47364
G1 X120.987 Y139.112 E5.49312
G1 X118.441 Y138.372 E5.59728
G1 X116.004 Y137.739 E5.69621
G1 X113.538 Y137.171 E5.79563
G1 X111.061 Y136.675 E5.89488
G1 X109.517 Y136.409 E5.95643
G1 X108.863 Y136.287 E5.98257
G1 X108.514 Y136.217 E5.99656
G1 X107.926 Y136.077 E6.0203
G1 X107.573 Y135.983 E6.03466
G1 X106.668 Y135.701 E6.0719
G1 X105.789 Y135.343 E6.10919
G1 X105.191 Y135.047 E6.1354
G1 X104.22 Y134.531 E6.1786
G1 X103.559 Y134.168 E6.20823
G1 X101.308 Y133.012 E6.30765
G1 X99.071 Y131.944 E6.40504
G1 X96.771 Y130.923 E6.50391
G1 X94.442 Y129.967 E6.60282
G1 X92.1 Y129.082 E6.70119
G1 X89.71 Y128.256 E6.80053
G1 X87.357 Y127.516 E6.89744
G1 X84.9 Y126.82 E6.99777
G1 X82.497 Y126.211 E7.09517
G1 X78.723 Y125.397 E7.24685
G1 X77.523 Y125.163 E7.29489
G1 X76.601 Y124.943 E7.33213
G1 X75.994 Y124.752 E7.35713
G1 X75.558 Y124.601 E7.37526
G1 X75.232 Y124.482 E7.38889
G1 X74.975 Y124.384 E7.3997
G1 X74.103 Y124.009 E7.43699
G1 X73.252 Y123.553 E7.47492
G1 X73.078 Y123.45 E7.48287
G1 X72.641 Y123.178 E7.50309
G1 X72.191 Y122.883 E7.52423
G1 X71.084 Y122.055 E7.57854
G1 X70.636 Y121.658 E7.60206
G1 X70.425 Y121.461 E7.6134
G1 X70.188 Y121.233 E7.62632
G1 X69.891 Y120.939 E7.64274
G1 X69.245 Y120.244 E7.68002
G1 X68.848 Y119.751 E7.70489
G1 X68.506 Y119.301 E7.7271
G1 X68.271 Y118.98 E7.74273
G1 X68.096 Y118.732 E7.75465
G1 X67.442 Y117.687 E7.80309
G1 X67.316 Y117.459 E7.81332
G1 X67.063 Y116.975 E7.83478
G1 X66.794 Y116.427 E7.85876
G1 X66.31 Y115.285 E7.90749
G1 X66.142 Y114.819 E7.92696
G1 X66.012 Y114.438 E7.94277
G1 X65.878 Y114.02 E7.96002
G1 X65.64 Y113.163 E7.99496
G1 X65.555 Y112.784 E8.01022
G1 X65.508 Y112.559 E8.01925
G1 X65.446 Y112.24 E8.03202
G1 X65.341 Y111.653 E8.05545
G1 X65.217 Y110.752 E8.09118
G1 X65.19 Y110.472 E8.10223
G1 X65.151 Y109.926 E8.12374
G1 X65.119 Y109.252 E8.15025
G1 X65.112 Y108.344 E8.18593
G1 X65.122 Y108.043 E8.19776
G1 X65.152 Y107.514 E8.21857
G1 X65.203 Y106.881 E8.24352
G1 X65.318 Y105.946 E8.28054
G1 X65.371 Y105.626 E8.29328
G1 X65.462 Y105.144 E8.31255
G1 X65.587 Y104.551 E8.33636
G1 X65.801 Y103.7 E8.37084
G1 X65.848 Y103.54 E8.37739
G1 X65.953 Y103.203 E8.39126
G1 X66.017 Y103.008 E8.39932
G1 X66.115 Y102.721 E8.41124
G1 X66.292 Y102.227 E8.43185
G1 X66.786 Y101.061 E8.4816
G1 X67.012 Y100.601 E8.50174
G1 X67.176 Y100.28 E8.5159
G1 X67.36 Y99.934 E8.5313
G1 X67.995 Y98.883 E8.57954
G1 X68.136 Y98.676 E8.58938
G1 X68.444 Y98.246 E8.61016
G1 X68.775 Y97.806 E8.6318
G1 X69.376 Y97.073 E8.66904
G1 X69.842 Y96.582 E8.69563
G1 X70.212 Y96.215 E8.71611
G1 X70.459 Y95.978 E8.72956
G1 X70.669 Y95.782 E8.74084
G1 X71.389 Y95.164 E8.77812
G0 F6000 X71.715 Y95.544
G1 F900 X72.396 Y95.052 E8.81113
G1 X72.685 Y94.86 E8.82476
G1 X73.003 Y94.657 E8.83958
G1 X73.351 Y94.443 E8.85563
G1 X74.161 Y93.992 E8.89206
G1 X74.925 Y93.645 E8.92503
G1 X75.136 Y93.559 E8.93398
G1 X75.653 Y93.364 E8.95569
G1 X76.086 Y93.213 E8.9737
G1 X76.974 Y92.945 E9.01015
G1 X78.151 Y92.715 E9.05726
G1 X78.649 Y92.646 E9.07702
G1 X78.967 Y92.606 E9.08961
G1 X79.198 Y92.581 E9.09874
G1 X79.533 Y92.551 E9.11195
G1 X80.516 Y92.476 E9.15068
G1 X81.484 Y92.416 E9.18879
G1 X83.96 Y92.192 E9.28646
G1 X86.492 Y91.891 E9.38664
G1 X89 Y91.521 E9.48625
G1 X91.443 Y91.089 E9.58372
G1 X93.963 Y90.569 E9.68481
G1 X96.368 Y90.003 E9.78188
G1 X98.815 Y89.352 E9.88136
G1 X101.285 Y88.62 E9.98258
G1 X103.645 Y87.847 E10.08015
G1 X105.847 Y87.059 E10.17203
G1 X106.696 Y86.743 E10.20762
G1 X107.484 Y86.484 E10.24021
G1 X107.707 Y86.42 E10.24933
G1 X108.065 Y86.324 E10.26389
G1 X108.341 Y86.255 E10.27507
G1 X109.249 Y86.069 E10.31148
G1 X110.17 Y85.962 E10.34791
G1 X110.773 Y85.935 E10.37162
G1 X111.633 Y85.921 E10.40542
G1 X121.28 Y85.92 E10.78443
G1 X122.132 Y85.931 E10.81791
G1 X122.71 Y85.955 E10.84064
G1 X123.097 Y85.983 E10.85588
G1 X125.339 Y86.174 E10.94429
G1 X128.096 Y86.33 E11.05278
G1 X129.018 Y86.422 E11.08918
G1 X129.699 Y86.542 E11.11635
G1 X129.98 Y86.601 E11.12763
G1 X130.878 Y86.831 E11.16405
G1 X131.753 Y87.137 E11.20047
G1 X132.599 Y87.517 E11.23691
G1 X133.409 Y87.969 E11.27335
G1 X134.2 Y88.507 E11.31093
G1 X134.334 Y88.607 E11.3175
G1 X134.797 Y88.972 E11.34067
G1 X135.456 Y89.523 E11.37442
G1 X137.46 Y91.149 E11.47581
G1 X139.454 Y92.676 E11.57448
G1 X140.397 Y93.353 E11.62009
G1 X141.527 Y94.186 E11.67524
G1 X142.249 Y94.767 E11.71165
G1 X142.918 Y95.409 E11.74808
G1 X143.529 Y96.106 E11.7845
G1 X144.272 Y97.153 E11.83494
G1 X144.406 Y97.368 E11.84489
G1 X144.862 Y98.175 E11.88131
G1 X145.247 Y99.019 E11.91776
G1 X145.558 Y99.892 E11.95417
G1 X145.754 Y100.62 E11.98379
G1 X145.891 Y101.215 E12.00778
G1 X146.169 Y102.495 E12.05924
G1 X146.327 Y103.409 E12.09568
G1 X146.405 Y104.333 E12.13211
G1 X146.413 Y104.914 E12.15494
G1 X146.398 Y106.104 E12.2017
G1 X146.368 Y107.492 E12.25624
G1 X146.372 Y109.1 E12.31942
G1 X146.376 Y109.533 E12.33643
G1 X146.363 Y112.3 E12.44514
G1 X146.373 Y112.949 E12.47065
G1 X146.373 Y113.264 E12.48302
G1 X146.368 Y113.611 E12.49666
G1 X146.366 Y116.114 E12.595
G1 X146.376 Y117.03 E12.63099
G1 X146.364 Y119.731 E12.7371
G1 X146.375 Y120.447 E12.76524
G1 X146.375 Y120.777 E12.7782
G1 X146.369 Y121.152 E12.79294
G1 X146.354 Y121.561 E12.80902
G1 X146.32 Y122.189 E12.83373
G1 X146.306 Y122.412 E12.84251
G1 X146.263 Y122.985 E12.86508
G1 X146.154 Y123.906 E12.90152
G1 X145.966 Y124.814 E12.93795
G1 X145.7 Y125.702 E12.97437
G1 X145.359 Y126.564 E13.01079
G1 X144.976 Y127.337 E13.04468
G1 X144.708 Y127.827 E13.06663
G1 X143.49 Y130.131 E13.16902
G1 X142.844 Y131.437 E13.22626
G1 X142.576 Y131.961 E13.24939
G1 X142.118 Y132.767 E13.28581
G1 X141.436 Y133.736 E13.33236
G1 X141.311 Y133.894 E13.34028
G1 X140.705 Y134.595 E13.37668
G1 X140.04 Y135.242 E13.41314
G1 X139.323 Y135.829 E13.44954
G1 X138.557 Y136.353 E13.48601
G1 X137.75 Y136.808 E13.5224
G1 X136.659 Y137.288 E13.56923
G1 X136.406 Y137.383 E13.57985
G1 X136.015 Y137.521 E13.59614
G1 X134.395 Y138.059 E13.66321
G1 X133.763 Y138.257 E13.68923
G1 X132.866 Y138.493 E13.72567
G1 X132.218 Y138.614 E13.75157
G1 X131.426 Y138.736 E13.78305
G1 X131.16 Y138.773 E13.7936
G1 X130.718 Y138.83 E13.81111
G1 X130.081 Y138.915 E13.83636
G1 X129.412 Y138.994 E13.86283
G1 X128.48 Y139.063 E13.89954
G1 X128.017 Y139.075 E13.91774
G1 X127.721 Y139.078 E13.92937
G1 X124.708 Y139.077 E14.04775
G1 X124.008 Y139.067 E14.07525
G1 X123.083 Y139.014 E14.11165
G1 X122.165 Y138.881 E14.1481
G1 X121.584 Y138.754 E14.17146
G1 X121.126 Y138.632 E14.19008
G1 X118.559 Y137.886 E14.29511
G1 X116.104 Y137.248 E14.39477
G1 X113.677 Y136.69 E14.49261
G1 X111.138 Y136.181 E14.59435
G1 X109.609 Y135.918 E14.6553
G1 X108.955 Y135.796 E14.68144
G1 X108.616 Y135.728 E14.69502
G1 X108.055 Y135.594 E14.71768
G1 X107.702 Y135.5 E14.73204
G1 X106.817 Y135.223 E14.76847
G1 X105.959 Y134.871 E14.80491
G1 X105.425 Y134.606 E14.82833
G1 X104.591 Y134.163 E14.86543
G1 X103.819 Y133.739 E14.90003
G1 X101.528 Y132.563 E15.00121
G1 X99.28 Y131.489 E15.09909
G1 X96.984 Y130.471 E15.19777
G1 X94.599 Y129.491 E15.29907
G1 X92.272 Y128.612 E15.3968
G1 X89.876 Y127.784 E15.4964
G1 X87.475 Y127.028 E15.5953
G1 X85.079 Y126.35 E15.69313
G1 X82.591 Y125.72 E15.79396
G1 X78.816 Y124.905 E15.9457
G1 X77.619 Y124.672 E15.99361
G1 X76.717 Y124.456 E16.03005
G1 X76.158 Y124.279 E16.05308
G1 X75.722 Y124.128 E16.07121
G1 X75.41 Y124.015 E16.08425
G1 X75.153 Y123.917 E16.09506
G1 X74.302 Y123.549 E16.13148
G1 X73.507 Y123.123 E16.16692
G1 X73.333 Y123.02 E16.17486
G1 X72.915 Y122.759 E16.19422
G1 X72.465 Y122.464 E16.21536
G1 X71.407 Y121.674 E16.26724
G1 X70.977 Y121.293 E16.28981
G1 X70.766 Y121.096 E16.30115
G1 X70.539 Y120.878 E16.31352
G1 X70.242 Y120.584 E16.32994
G1 X69.612 Y119.904 E16.36636
G1 X69.246 Y119.449 E16.3893
G1 X68.904 Y118.999 E16.41151
G1 X68.68 Y118.692 E16.42644
G1 X68.505 Y118.444 E16.43836
G1 X67.879 Y117.446 E16.48465
G1 X67.753 Y117.218 E16.49488
G1 X67.512 Y116.755 E16.51539
G1 X67.243 Y116.207 E16.53937
G1 X66.78 Y115.116 E16.58594
G1 X66.612 Y114.65 E16.6054
G1 X66.488 Y114.286 E16.62051
G1 X66.354 Y113.868 E16.63775
G1 X66.127 Y113.048 E16.67118
G1 X66.044 Y112.682 E16.68593
G1 X65.997 Y112.457 E16.69496
G1 X65.938 Y112.152 E16.70716
G1 X65.833 Y111.565 E16.73059
G1 X65.715 Y110.704 E16.76473
G1 X65.688 Y110.424 E16.77579
G1 X65.65 Y109.902 E16.79635
G1 X65.618 Y109.228 E16.82286
G1 X65.612 Y108.361 E16.85692
G1 X65.622 Y108.06 E16.86875
G1 X65.651 Y107.554 E16.88867
G1 X65.702 Y106.921 E16.91362
G1 X65.811 Y106.027 E16.949
G1 X65.864 Y105.707 E16.96175
G1 X65.951 Y105.247 E16.98014
G1 X66.076 Y104.654 E17.00395
G1 X66.281 Y103.841 E17.03689
G1 X66.328 Y103.681 E17.04344
G1 X66.428 Y103.359 E17.05669
G1 X66.492 Y103.164 E17.06475
G1 X66.586 Y102.89 E17.07613
G1 X66.763 Y102.396 E17.09675
G1 X67.235 Y101.282 E17.14428
G1 X67.461 Y100.822 E17.16442
G1 X67.618 Y100.515 E17.17797
G1 X67.802 Y100.169 E17.19336
G1 X68.408 Y99.164 E17.23947
G1 X68.549 Y98.957 E17.24931
G1 X68.843 Y98.547 E17.26913
G1 X69.174 Y98.107 E17.29077
G1 X69.763 Y97.39 E17.32722
G1 X70.195 Y96.937 E17.35181
G1 X70.565 Y96.57 E17.37229
G1 X70.8 Y96.343 E17.38513
G1 X71.01 Y96.147 E17.39641
G1 X71.715 Y95.544 E17.43286
G0 F6000 X72.04 Y95.925
G1 F900 X72.673 Y95.468 E17.46353
G1 X72.962 Y95.276 E17.47717
G1 X73.265 Y95.083 E17.49128
G1 X73.613 Y94.869 E17.50733
G1 X74.404 Y94.429 E17.54289
G1 X75.113 Y94.108 E17.57347
G1 X75.324 Y94.022 E17.58242
G1 X75.818 Y93.836 E17.60316
G1 X76.251 Y93.685 E17.62118
G1 X77.118 Y93.425 E17.65674
G1 X78.219 Y93.21 E17.70081
G1 X78.717 Y93.141 E17.72057
G1 X79.021 Y93.104 E17.7326
G1 X79.252 Y93.079 E17.74173
G1 X79.571 Y93.049 E17.75431
G1 X80.546 Y92.975 E17.79273
G1 X81.526 Y92.915 E17.83131
G1 X84.028 Y92.688 E17.93001
G1 X86.553 Y92.388 E18.02991
G1 X89.056 Y92.019 E18.12931
G1 X91.56 Y91.575 E18.22923
G1 X94.04 Y91.064 E18.32871
G1 X96.506 Y90.484 E18.42824
G1 X98.983 Y89.825 E18.52894
G1 X101.404 Y89.107 E18.62815
G1 X103.811 Y88.319 E18.72766
G1 X106.056 Y87.516 E18.82133
G1 X106.871 Y87.212 E18.85551
G1 X107.621 Y86.965 E18.88653
G1 X107.844 Y86.901 E18.89565
G1 X108.186 Y86.809 E18.90956
G1 X108.462 Y86.74 E18.92074
G1 X109.349 Y86.559 E18.95631
G1 X110.249 Y86.458 E18.99189
G1 X110.781 Y86.435 E19.01281
G1 X111.641 Y86.421 E19.0466
G1 X121.28 Y86.42 E19.4253
G1 X122.125 Y86.431 E19.45851
G1 X122.676 Y86.454 E19.48017
G1 X123.055 Y86.481 E19.4951
G1 X125.305 Y86.673 E19.58382
G1 X128.068 Y86.829 E19.69255
G1 X128.968 Y86.92 E19.72809
G1 X129.596 Y87.032 E19.75315
G1 X129.877 Y87.091 E19.76443
G1 X130.754 Y87.316 E19.8
G1 X131.608 Y87.617 E19.83558
G1 X132.431 Y87.993 E19.87113
G1 X133.219 Y88.44 E19.90672
G1 X133.901 Y88.907 E19.9392
G1 X134.035 Y89.007 E19.94577
G1 X134.477 Y89.356 E19.96789
G1 X135.134 Y89.905 E20.00153
G1 X137.158 Y91.547 E20.10393
G1 X139.179 Y93.095 E20.20395
G1 X140.207 Y93.834 E20.25369
G1 X141.23 Y94.588 E20.30362
G1 X141.935 Y95.157 E20.33921
G1 X142.586 Y95.785 E20.37475
G1 X143.179 Y96.469 E20.41032
G1 X143.848 Y97.417 E20.4559
G1 X143.982 Y97.632 E20.46585
G1 X144.426 Y98.421 E20.50142
G1 X144.799 Y99.246 E20.537
G1 X145.098 Y100.101 E20.57258
