;FLAVOR:Marlin
;TIME:2214
;Filament used: 1.72189m
;Layer height: 0.22
;MINX:81.25
;MINY:81.25
;MINZ:0.2
;MAXX:143.749
;MAXY:143.75
;MAXZ:20.44
;POSTPROCESSED
;Generated with Cura_SteamEngine 4.13.1
;
;

M82 ;absolute extrusion mode
; Ender 3 Custom Start G-code
M117 Getting the bed up to temp!
M140 S55.0 ; Set Heat Bed temperature
M190 S55.0 ; Wait for Heat Bed temperature
M117 Pre-heating the extruder!
M104 S210; start warming extruder to 160
G28 ; Home all axes
M117 Auto bed-level GO!
G29 ; Auto bed-level (BL-Touch)
G92 E0 ; Reset Extruder
M117 Getting the extruder up to temp!
M104 S210 ; Set Extruder temperature
M109 S210 ; Wait for Extruder temperature
G1 Z2.0 F3000 ; move z up little to prevent scratching of surface
G1 X0.1 Y20 Z0.3 F5000.0 ; move to start-line position
M117 LET THE PURGE BEGIN!
SET_GCODE_OFFSET Z=-.005
G1 X0.1 Y200.0 Z0.3 F1500.0 E15 ; draw 1st line
G1 X0.4 Y200.0 Z0.3 F5000.0 ; move to side a little
G1 X0.4 Y20 Z0.3 F1500.0 E30 ; draw 2nd line
G92 E0 ; reset extruder
G1 Z1.0 F3000 ; move z up little to prevent scratching of surface
G1 X5 Y20 Z0.3 F5000.0 ; Move over to prevent blob squish
; SET_GCODE_OFFSET Z=+.075
M117 Autobots! Roll Out!
; End of custom start GCode
G92 E0
G92 E0
G1 F2700 E-3.5
;LAYER_COUNT:94
;LAYER:0
M107
G0 F9000 X85.787 Y85.685 Z0.2
;TYPE:SKIRT
G1 F2700 E0
G1 F2100 X86.044 Y85.441 E0.01392
G1 X86.242 Y85.258 E0.02452
G1 X86.515 Y85.011 E0.03898
G1 X87.27 Y84.386 E0.07749
G1 X87.468 Y84.236 E0.08725
G1 X88.161 Y83.751 E0.12048
G1 X88.302 Y83.66 E0.12707
G1 X88.67 Y83.432 E0.14408
G1 X88.898 Y83.297 E0.15449
G1 X90.149 Y82.658 E0.20968
G1 X90.625 Y82.46 E0.22994
G1 X90.959 Y82.33 E0.24402
G1 X91.249 Y82.222 E0.25618
G1 X91.791 Y82.028 E0.27879
G1 X92.696 Y81.746 E0.31604
G1 X93.579 Y81.55 E0.35157
G1 X93.925 Y81.488 E0.36538
G1 X94.2 Y81.442 E0.37634
G1 X94.682 Y81.372 E0.39547
G1 X94.812 Y81.356 E0.40062
G1 X95.982 Y81.274 E0.4467
G1 X97.195 Y81.252 E0.49436
G1 X97.399 Y81.25 E0.50238
G1 X127.793 Y81.25 E1.69651
G1 X128.508 Y81.259 E1.72461
G1 X129.199 Y81.29 E1.75178
G1 X129.935 Y81.346 E1.78078
G1 X130.469 Y81.4 E1.80187
G1 X130.646 Y81.422 E1.80888
G1 X131.581 Y81.578 E1.84612
G1 X132.084 Y81.697 E1.86643
G1 X132.346 Y81.765 E1.87706
G1 X132.683 Y81.858 E1.8908
G1 X132.939 Y81.933 E1.90128
G1 X133.849 Y82.242 E1.93904
G1 X134.297 Y82.416 E1.95792
G1 X135.538 Y82.987 E2.01159
G1 X135.719 Y83.084 E2.01966
G1 X136.44 Y83.506 E2.05248
G1 X136.838 Y83.759 E2.07101
G1 X137.585 Y84.277 E2.10672
G1 X137.765 Y84.413 E2.11559
G1 X138.086 Y84.665 E2.13162
G1 X138.242 Y84.792 E2.13952
G1 X138.787 Y85.266 E2.1679
G1 X138.979 Y85.444 E2.17819
G1 X139.759 Y86.242 E2.22203
G1 X139.973 Y86.484 E2.23472
G1 X140.369 Y86.958 E2.25899
G1 X140.524 Y87.154 E2.26881
G1 X141.082 Y87.923 E2.30613
G1 X141.295 Y88.253 E2.32157
G1 X141.602 Y88.746 E2.34438
G1 X141.991 Y89.422 E2.37503
G1 X142.026 Y89.488 E2.37796
G1 X142.519 Y90.548 E2.42389
G1 X142.63 Y90.823 E2.43554
G1 X142.797 Y91.264 E2.45407
G1 X142.903 Y91.562 E2.4665
G1 X143.09 Y92.134 E2.49014
G1 X143.149 Y92.333 E2.49829
G1 X143.337 Y93.053 E2.52753
G1 X143.365 Y93.177 E2.53252
G1 X143.437 Y93.524 E2.54645
G1 X143.486 Y93.778 E2.55661
G1 X143.65 Y94.957 E2.60338
G1 X143.686 Y95.381 E2.6201
G1 X143.724 Y96.111 E2.64882
G1 X143.747 Y97.276 E2.6946
G1 X143.749 Y97.498 E2.70332
G1 X143.749 Y127.937 E3.89922
G1 X143.741 Y128.491 E3.92099
G1 X143.731 Y128.833 E3.93443
G1 X143.711 Y129.279 E3.95197
G1 X143.652 Y130.03 E3.98157
G1 X143.62 Y130.315 E3.99284
G1 X143.476 Y131.244 E4.02977
G1 X143.438 Y131.436 E4.03746
G1 X143.337 Y131.896 E4.05597
G1 X143.241 Y132.293 E4.07201
G1 X143.073 Y132.91 E4.09714
G1 X142.977 Y133.227 E4.11015
G1 X142.664 Y134.122 E4.1474
G1 X142.355 Y134.829 E4.17771
G1 X142.146 Y135.258 E4.19646
G1 X142.024 Y135.498 E4.20704
G1 X141.881 Y135.769 E4.21908
G1 X141.774 Y135.966 E4.22789
G1 X141.313 Y136.74 E4.26328
G1 X141.225 Y136.875 E4.26961
G1 X140.875 Y137.381 E4.29379
G1 X140.675 Y137.654 E4.30708
G1 X140.083 Y138.394 E4.34431
G1 X139.611 Y138.904 E4.37162
G1 X139.399 Y139.119 E4.38348
G1 X138.881 Y139.611 E4.41155
G1 X138.526 Y139.928 E4.43025
G1 X138.265 Y140.155 E4.44384
G1 X137.923 Y140.442 E4.46138
G1 X137.241 Y140.971 E4.49529
G1 X137.16 Y141.029 E4.4992
G1 X136.022 Y141.745 E4.55202
G1 X135.58 Y141.985 E4.57178
G1 X135.408 Y142.075 E4.57941
G1 X134.356 Y142.558 E4.62489
G1 X133.977 Y142.709 E4.64092
G1 X133.471 Y142.897 E4.66213
G1 X133.218 Y142.984 E4.67264
G1 X132.289 Y143.259 E4.7107
G1 X132.209 Y143.279 E4.71394
G1 X131.492 Y143.434 E4.74276
G1 X130.964 Y143.53 E4.76385
G1 X130.005 Y143.662 E4.80188
G1 X129.888 Y143.673 E4.8065
G1 X129.513 Y143.702 E4.82128
G1 X129.248 Y143.718 E4.83171
G1 X128.893 Y143.733 E4.84567
G1 X128.475 Y143.745 E4.8621
G1 X128.152 Y143.75 E4.87479
G1 X97.031 Y143.748 E6.09749
G1 X96.319 Y143.738 E6.12546
G1 X95.684 Y143.711 E6.15043
G1 X95.401 Y143.691 E6.16158
G1 X95 Y143.655 E6.1774
G1 X94.616 Y143.614 E6.19257
G1 X93.266 Y143.387 E6.24635
G1 X93.098 Y143.348 E6.25313
G1 X92.61 Y143.223 E6.27292
G1 X92.242 Y143.12 E6.28794
G1 X91.244 Y142.789 E6.32925
G1 X90.814 Y142.624 E6.34734
G1 X89.943 Y142.247 E6.38463
G1 X89.262 Y141.889 E6.41486
G1 X88.674 Y141.553 E6.44146
G1 X87.816 Y141.009 E6.48138
G1 X87.647 Y140.891 E6.48948
G1 X87.171 Y140.54 E6.51271
G1 X86.976 Y140.388 E6.52243
G1 X86.097 Y139.627 E6.5681
G1 X85.892 Y139.43 E6.57927
G1 X85.611 Y139.15 E6.59486
G1 X85.45 Y138.984 E6.60395
G1 X85.004 Y138.496 E6.62992
G1 X84.873 Y138.344 E6.6378
G1 X84.4 Y137.757 E6.66742
G1 X84.24 Y137.544 E6.67789
G1 X83.773 Y136.873 E6.71001
G1 X83.618 Y136.632 E6.72126
G1 X83.289 Y136.087 E6.74628
G1 X83.186 Y135.905 E6.75449
G1 X82.747 Y135.044 E6.79246
G1 X82.661 Y134.856 E6.80058
G1 X82.483 Y134.447 E6.81811
G1 X82.293 Y133.984 E6.83777
G1 X81.946 Y133.013 E6.87828
G1 X81.919 Y132.925 E6.8819
G1 X81.77 Y132.392 E6.90364
G1 X81.703 Y132.128 E6.91435
G1 X81.53 Y131.324 E6.94666
G1 X81.516 Y131.245 E6.94981
G1 X81.436 Y130.724 E6.97052
G1 X81.39 Y130.368 E6.98462
G1 X81.345 Y129.964 E7.00059
G1 X81.312 Y129.608 E7.01464
G1 X81.272 Y128.986 E7.03913
G1 X81.26 Y128.662 E7.05186
G1 X81.252 Y128.341 E7.06448
G1 X81.25 Y128.105 E7.07375
G1 X81.251 Y97.044 E8.29409
G1 X81.261 Y96.329 E8.32219
G1 X81.283 Y95.768 E8.34425
G1 X81.297 Y95.549 E8.35287
G1 X81.326 Y95.188 E8.3671
G1 X81.36 Y94.835 E8.38103
G1 X81.554 Y93.572 E8.43123
G1 X81.647 Y93.135 E8.44879
G1 X81.913 Y92.121 E8.48997
G1 X81.988 Y91.881 E8.49985
G1 X82.382 Y90.815 E8.5445
G1 X82.68 Y90.123 E8.5741
G1 X83.168 Y89.137 E8.61733
G1 X83.293 Y88.913 E8.62741
G1 X83.756 Y88.155 E8.6623
G1 X83.842 Y88.026 E8.66839
G1 X84.181 Y87.546 E8.69148
G1 X84.435 Y87.205 E8.70819
G1 X85.253 Y86.227 E8.75828
G1 X85.329 Y86.146 E8.76264
G1 X85.787 Y85.685 E8.78817
G0 F9000 X86.131 Y86.048
G1 F2100 X86.388 Y85.804 E8.8021
G1 X86.578 Y85.628 E8.81227
G1 X86.851 Y85.381 E8.82674
G1 X87.572 Y84.784 E8.86351
G1 X87.77 Y84.634 E8.87327
G1 X88.432 Y84.171 E8.90501
G1 X88.573 Y84.08 E8.91161
G1 X88.925 Y83.862 E8.92787
G1 X89.153 Y83.727 E8.93828
G1 X90.348 Y83.116 E8.99101
G1 X90.424 Y83.083 E8.99427
G1 X90.807 Y82.926 E9.01053
G1 X91.141 Y82.796 E9.02461
G1 X91.417 Y82.693 E9.03619
G1 X91.959 Y82.499 E9.0588
G1 X92.845 Y82.224 E9.09525
G1 X93.668 Y82.042 E9.12837
G1 X94.007 Y81.981 E9.1419
G1 X94.282 Y81.935 E9.15286
G1 X94.743 Y81.869 E9.17115
G1 X94.873 Y81.853 E9.1763
G1 X95.991 Y81.774 E9.22033
G1 X97.399 Y81.75 E9.27566
G1 X127.793 Y81.75 E10.46979
G1 X128.501 Y81.759 E10.49761
G1 X129.161 Y81.789 E10.52357
G1 X129.897 Y81.845 E10.55257
G1 X130.407 Y81.896 E10.57271
G1 X130.584 Y81.918 E10.57971
G1 X131.498 Y82.072 E10.61613
G1 X131.959 Y82.181 E10.63474
G1 X132.221 Y82.249 E10.64538
G1 X132.542 Y82.338 E10.65846
G1 X132.798 Y82.413 E10.66894
G1 X133.668 Y82.708 E10.70504
G1 X134.116 Y82.882 E10.72392
G1 X135.302 Y83.428 E10.77522
G1 X135.483 Y83.525 E10.78328
G1 X136.172 Y83.928 E10.81464
G1 X136.57 Y84.181 E10.83317
G1 X137.283 Y84.676 E10.86727
G1 X137.463 Y84.812 E10.87614
G1 X137.77 Y85.052 E10.89145
G1 X137.926 Y85.179 E10.89935
G1 X138.448 Y85.633 E10.92653
G1 X138.64 Y85.811 E10.93682
G1 X139.384 Y86.573 E10.97866
G1 X139.598 Y86.815 E10.99135
G1 X139.977 Y87.268 E11.01456
G1 X140.132 Y87.464 E11.02437
G1 X140.665 Y88.199 E11.06004
G1 X140.87 Y88.517 E11.07491
G1 X141.177 Y89.01 E11.09773
G1 X141.549 Y89.657 E11.12705
G1 X141.584 Y89.723 E11.12998
G1 X142.056 Y90.735 E11.17386
G1 X142.167 Y91.01 E11.18551
G1 X142.326 Y91.431 E11.20319
G1 X142.432 Y91.729 E11.21562
G1 X142.611 Y92.276 E11.23823
G1 X142.67 Y92.475 E11.24638
G1 X142.849 Y93.163 E11.27431
G1 X142.877 Y93.287 E11.27931
G1 X142.946 Y93.619 E11.29263
G1 X142.995 Y93.873 E11.30279
G1 X143.151 Y95 E11.34749
G1 X143.187 Y95.424 E11.36421
G1 X143.224 Y96.121 E11.39163
G1 X143.247 Y97.286 E11.43741
G1 X143.249 Y97.498 E11.44574
G1 X143.249 Y127.93 E12.64137
G1 X143.241 Y128.484 E12.66314
G1 X143.231 Y128.811 E12.67599
G1 X143.211 Y129.257 E12.69353
G1 X143.155 Y129.974 E12.72179
G1 X143.123 Y130.259 E12.73306
G1 X142.985 Y131.147 E12.76836
G1 X142.947 Y131.339 E12.77605
G1 X142.851 Y131.779 E12.79375
G1 X142.755 Y132.176 E12.80979
G1 X142.595 Y132.765 E12.83377
G1 X142.499 Y133.082 E12.84679
G1 X142.192 Y133.957 E12.88322
G1 X141.904 Y134.613 E12.91137
G1 X141.7 Y135.031 E12.92964
G1 X141.578 Y135.271 E12.94022
G1 X141.442 Y135.531 E12.95175
G1 X141.335 Y135.728 E12.96055
G1 X140.894 Y136.467 E12.99437
G1 X140.806 Y136.602 E13.0007
G1 X140.472 Y137.085 E13.02377
G1 X140.272 Y137.358 E13.03706
G1 X139.692 Y138.082 E13.07351
G1 X139.255 Y138.553 E13.09875
G1 X139.043 Y138.768 E13.11062
G1 X138.548 Y139.238 E13.13744
G1 X138.193 Y139.555 E13.15613
G1 X137.943 Y139.772 E13.16914
G1 X137.601 Y140.059 E13.18668
G1 X136.95 Y140.564 E13.21905
G1 X136.869 Y140.622 E13.22297
G1 X135.782 Y141.306 E13.27342
G1 X135.348 Y141.542 E13.29283
G1 X135.176 Y141.632 E13.30046
G1 X134.171 Y142.094 E13.34392
G1 X133.792 Y142.245 E13.35995
G1 X133.309 Y142.424 E13.38018
G1 X133.056 Y142.511 E13.39069
G1 X132.167 Y142.774 E13.42712
G1 X132.087 Y142.794 E13.43036
G1 X131.403 Y142.942 E13.45785
G1 X130.875 Y143.038 E13.47894
G1 X129.958 Y143.164 E13.5153
G1 X129.841 Y143.175 E13.51992
G1 X129.483 Y143.202 E13.53403
G1 X129.218 Y143.218 E13.54446
G1 X128.878 Y143.234 E13.55783
G1 X128.46 Y143.246 E13.57426
G1 X128.152 Y143.25 E13.58636
G1 X97.038 Y143.248 E14.80878
G1 X96.326 Y143.238 E14.83676
G1 X95.719 Y143.212 E14.86063
G1 X95.436 Y143.192 E14.87178
G1 X95.053 Y143.158 E14.88688
G1 X94.669 Y143.117 E14.90206
G1 X93.379 Y142.9 E14.95345
G1 X93.211 Y142.861 E14.96023
G1 X92.745 Y142.741 E14.97913
G1 X92.377 Y142.638 E14.99415
G1 X91.423 Y142.322 E15.03363
G1 X90.993 Y142.157 E15.05173
G1 X90.142 Y141.788 E15.08817
G1 X89.511 Y141.455 E15.1162
G1 X88.923 Y141.119 E15.14281
G1 X88.102 Y140.599 E15.18099
G1 X87.933 Y140.481 E15.18909
G1 X87.478 Y140.146 E15.21128
G1 X87.283 Y139.994 E15.221
G1 X86.443 Y139.266 E15.26467
G1 X86.238 Y139.069 E15.27584
G1 X85.97 Y138.802 E15.2907
G1 X85.809 Y138.636 E15.29979
G1 X85.383 Y138.17 E15.32459
G1 X85.252 Y138.018 E15.33248
G1 X84.8 Y137.456 E15.36081
G1 X84.64 Y137.243 E15.37128
G1 X84.194 Y136.602 E15.40196
G1 X84.039 Y136.361 E15.41322
G1 X83.724 Y135.841 E15.4371
G1 X83.621 Y135.659 E15.44532
G1 X83.201 Y134.836 E15.48162
G1 X83.115 Y134.648 E15.48974
G1 X82.946 Y134.257 E15.50648
G1 X82.756 Y133.794 E15.52614
G1 X82.424 Y132.866 E15.56487
G1 X82.397 Y132.778 E15.56848
G1 X82.254 Y132.269 E15.58925
G1 X82.187 Y132.005 E15.59996
G1 X82.022 Y131.237 E15.63082
G1 X82.008 Y131.158 E15.63397
G1 X81.932 Y130.66 E15.65376
G1 X81.886 Y130.304 E15.66786
G1 X81.843 Y129.918 E15.68312
G1 X81.81 Y129.562 E15.69717
G1 X81.771 Y128.968 E15.72056
G1 X81.759 Y128.644 E15.7333
G1 X81.752 Y128.337 E15.74536
G1 X81.75 Y128.101 E15.75463
G1 X81.751 Y97.051 E16.97454
G1 X81.761 Y96.336 E17.00264
G1 X81.782 Y95.8 E17.02371
G1 X81.796 Y95.581 E17.03233
G1 X81.824 Y95.236 E17.04593
G1 X81.858 Y94.883 E17.05987
G1 X82.043 Y93.676 E17.10784
G1 X82.136 Y93.239 E17.12539
G1 X82.39 Y92.271 E17.16471
G1 X82.465 Y92.031 E17.17459
G1 X82.841 Y91.011 E17.2173
G1 X83.138 Y90.322 E17.24678
G1 X83.605 Y89.381 E17.28805
G1 X83.73 Y89.157 E17.29813
G1 X84.172 Y88.432 E17.33149
G1 X84.258 Y88.303 E17.33758
G1 X84.582 Y87.844 E17.35966
G1 X84.836 Y87.503 E17.37636
G1 X85.617 Y86.569 E17.4242
G1 X85.693 Y86.488 E17.42856
G1 X86.131 Y86.048 E17.45295
G0 F9000 X86.476 Y86.411
G1 F2100 X86.913 Y85.999 E17.47655
G1 X87.186 Y85.752 E17.49101
G1 X87.873 Y85.183 E17.52606
G1 X88.071 Y85.033 E17.53582
G1 X88.703 Y84.591 E17.56612
G1 X88.844 Y84.5 E17.57271
G1 X89.18 Y84.292 E17.58824
G1 X89.408 Y84.157 E17.59865
G1 X90.548 Y83.575 E17.64894
G1 X90.988 Y83.392 E17.66766
G1 X91.322 Y83.262 E17.68174
G1 X91.586 Y83.164 E17.6928
G1 X92.128 Y82.97 E17.71542
G1 X92.993 Y82.702 E17.751
G1 X93.757 Y82.534 E17.78173
G1 X94.09 Y82.474 E17.79503
G1 X94.365 Y82.428 E17.80598
G1 X94.804 Y82.365 E17.82341
G1 X94.934 Y82.349 E17.82855
G1 X96 Y82.274 E17.87054
G1 X97.399 Y82.25 E17.92551
G1 X127.793 Y82.25 E19.11964
G1 X128.494 Y82.259 E19.14719
G1 X129.123 Y82.288 E19.17193
G1 X129.859 Y82.344 E19.20093
G1 X130.345 Y82.392 E19.22011
G1 X130.522 Y82.414 E19.22712
G1 X131.833 Y82.665 E19.27956
G1 X132.095 Y82.733 E19.2902
G1 X132.402 Y82.817 E19.3027
G1 X132.658 Y82.892 E19.31318
G1 X133.487 Y83.174 E19.34759
G1 X133.935 Y83.348 E19.36647
G1 X135.066 Y83.869 E19.41539
G1 X135.247 Y83.966 E19.42346
G1 X135.904 Y84.35 E19.45336
G1 X136.302 Y84.603 E19.47189
G1 X136.982 Y85.075 E19.50441
G1 X137.162 Y85.211 E19.51327
G1 X137.454 Y85.44 E19.52785
G1 X137.61 Y85.567 E19.53576
G1 X138.108 Y85.999 E19.56166
G1 X138.3 Y86.177 E19.57194
G1 X139.009 Y86.904 E19.61184
G1 X139.223 Y87.146 E19.62453
G1 X139.585 Y87.578 E19.64668
G1 X139.74 Y87.774 E19.65649
G1 X140.248 Y88.475 E19.69051
G1 X140.446 Y88.782 E19.70486
G1 X140.753 Y89.275 E19.72768
G1 X141.107 Y89.891 E19.75559
G1 X141.142 Y89.957 E19.75853
G1 X141.592 Y90.922 E19.80036
G1 X141.703 Y91.197 E19.81201
G1 X141.855 Y91.599 E19.8289
G1 X141.961 Y91.897 E19.84132
G1 X142.131 Y92.418 E19.86285
G1 X142.19 Y92.617 E19.87101
G1 X142.361 Y93.273 E19.89764
G1 X142.389 Y93.397 E19.90264
G1 X142.455 Y93.713 E19.91532
G1 X142.504 Y93.967 E19.92548
G1 X142.653 Y95.042 E19.96812
G1 X142.689 Y95.466 E19.98484
G1 X142.724 Y96.131 E20.011
G1 X142.747 Y97.296 E20.05678
G1 X142.749 Y97.498 E20.06472
G1 X142.749 Y127.923 E21.26007
G1 X142.741 Y128.477 E21.28184
G1 X142.732 Y128.788 E21.29407
G1 X142.712 Y129.234 E21.31161
G1 X142.658 Y129.919 E21.3386
G1 X142.626 Y130.204 E21.34987
G1 X142.495 Y131.05 E21.3835
G1 X142.457 Y131.242 E21.39119
G1 X142.365 Y131.661 E21.40805
G1 X142.269 Y132.058 E21.4241
G1 X142.116 Y132.62 E21.44698
G1 X142.02 Y132.937 E21.45999
G1 X141.72 Y133.791 E21.49555
G1 X141.453 Y134.397 E21.52157
G1 X141.254 Y134.805 E21.53941
G1 X141.132 Y135.045 E21.54998
G1 X141.002 Y135.292 E21.56095
G1 X140.895 Y135.489 E21.56976
G1 X140.475 Y136.194 E21.602
G1 X140.387 Y136.329 E21.60833
G1 X140.069 Y136.79 E21.63033
G1 X139.869 Y137.063 E21.64363
G1 X139.302 Y137.769 E21.67921
G1 X138.899 Y138.202 E21.70245
G1 X138.687 Y138.417 E21.71431
G1 X138.215 Y138.865 E21.73988
G1 X137.86 Y139.182 E21.75857
G1 X137.622 Y139.389 E21.77097
G1 X137.28 Y139.676 E21.78851
G1 X136.658 Y140.158 E21.81942
G1 X136.577 Y140.216 E21.82334
G1 X135.541 Y140.868 E21.87143
G1 X135.116 Y141.099 E21.89044
G1 X134.944 Y141.189 E21.89806
G1 X133.986 Y141.629 E21.93948
G1 X133.607 Y141.78 E21.95551
G1 X133.146 Y141.951 E21.97483
G1 X132.893 Y142.038 E21.98534
G1 X132.046 Y142.289 E22.02005
G1 X131.966 Y142.309 E22.02329
G1 X131.314 Y142.45 E22.0495
G1 X130.786 Y142.546 E22.07058
G1 X129.911 Y142.666 E22.10528
G1 X129.794 Y142.677 E22.1099
G1 X129.453 Y142.703 E22.12333
G1 X129.188 Y142.719 E22.13376
G1 X128.864 Y142.734 E22.14651
G1 X128.446 Y142.746 E22.16294
G1 X128.152 Y142.75 E22.17449
G1 X97.045 Y142.748 E23.39664
G1 X96.333 Y142.738 E23.42461
G1 X95.754 Y142.713 E23.44738
