;FLAVOR:Marlin
;TIME:3182
;Filament used: 2.37916m
;Layer height: 0.2
;MINX:81.21
;MINY:97.7
;MINZ:0.2
;MAXX:143.79
;MAXY:128.165
;MAXZ:16
;Generated with Cura_SteamEngine 4.12.1
M82 ;absolute extrusion mode
; Ender 3 Custom Start G-code
M117 Getting the bed up to temp!
M140 S50 ; Set Heat Bed temperature
M190 S50 ; Wait for Heat Bed temperature
M117 Pre-heating the extruder!
M104 S175; start warming extruder to 160
G28 ; Home all axes
M117 Auto bed-level GO!
G29 ; Auto bed-level (BL-Touch)
G92 E0 ; Reset Extruder
M117 Getting the extruder up to temp!
M104 S200 ; Set Extruder temperature
M109 S200 ; Wait for Extruder temperature
G1 Z2.0 F3000 ; move z up little to prevent scratching of surface
G1 X0.1 Y20 Z0.3 F5000.0 ; move to start-line position
M117 LET THE PURGE BEGIN!
G1 X0.1 Y200.0 Z0.3 F1500.0 E15 ; draw 1st line
G1 X0.4 Y200.0 Z0.3 F5000.0 ; move to side a little
G1 X0.4 Y20 Z0.3 F1500.0 E30 ; draw 2nd line
G92 E0 ; reset extruder
G1 Z1.0 F3000 ; move z up little to prevent scratching of surface
G1 X5 Y20 Z0.3 F5000.0 ; Move over to prevent blob squish
M117 Autobots! Roll Out!
; End of custom start GCode
G92 E0
G92 E0
G1 F2700 E-5
;LAYER_COUNT:80
;LAYER:0
M107
;MESH:usb-box-hw-384.stl
G0 F9000 X140.543 Y104.992 Z0.2
;TYPE:WALL-INNER
G1 F2700 E0
G1 F2100 X140.961 Y104.992 E0.0139
G1 X141.372 Y104.904 E0.02788
G1 X141.753 Y104.733 E0.04177
G1 X142.09 Y104.489 E0.05561
G1 X142.371 Y104.178 E0.06955
G1 X142.581 Y103.814 E0.08353
G1 X142.709 Y103.416 E0.09743
G1 X142.753 Y103 E0.11135
G1 X142.709 Y102.584 E0.12526
G1 X142.581 Y102.186 E0.13917
G1 X142.371 Y101.822 E0.15314
G1 X142.088 Y101.509 E0.16718
G1 X141.75 Y101.265 E0.18104
G1 X141.367 Y101.095 E0.19498
G1 X140.957 Y101.008 E0.20892
G1 X140.539 Y101.008 E0.22282
G1 X140.128 Y101.096 E0.2368
G1 X139.747 Y101.267 E0.25069
G1 X139.41 Y101.511 E0.26453
G1 X139.129 Y101.822 E0.27847
G1 X138.919 Y102.186 E0.29245
G1 X138.791 Y102.584 E0.30635
G1 X138.747 Y103 E0.32027
G1 X138.791 Y103.416 E0.33418
G1 X138.919 Y103.814 E0.34809
G1 X139.129 Y104.178 E0.36206
G1 X139.412 Y104.491 E0.3761
G1 X139.751 Y104.735 E0.38999
G1 X140.133 Y104.904 E0.40388
G1 X140.543 Y104.992 E0.41783
G0 F9000 X140.585 Y104.592
;TYPE:WALL-OUTER
G1 F2100 X140.919 Y104.592 E0.42894
G1 X141.247 Y104.522 E0.44009
G1 X141.552 Y104.385 E0.45121
G1 X141.821 Y104.19 E0.46227
G1 X142.046 Y103.941 E0.47343
G1 X142.213 Y103.651 E0.48456
G1 X142.316 Y103.333 E0.49568
G1 X142.351 Y103 E0.50681
G1 X142.316 Y102.667 E0.51795
G1 X142.213 Y102.349 E0.52907
G1 X142.046 Y102.059 E0.5402
G1 X141.82 Y101.809 E0.55141
G1 X141.55 Y101.614 E0.56248
G1 X141.243 Y101.478 E0.57365
G1 X140.915 Y101.408 E0.58481
G1 X140.581 Y101.408 E0.59591
G1 X140.253 Y101.478 E0.60707
G1 X139.948 Y101.615 E0.61819
G1 X139.679 Y101.81 E0.62924
G1 X139.454 Y102.059 E0.6404
G1 X139.287 Y102.349 E0.65153
G1 X139.184 Y102.667 E0.66265
G1 X139.149 Y103 E0.67379
G1 X139.184 Y103.333 E0.68492
G1 X139.287 Y103.651 E0.69604
G1 X139.454 Y103.941 E0.70717
G1 X139.68 Y104.191 E0.71838
G1 X139.951 Y104.386 E0.72949
G1 X140.257 Y104.522 E0.74062
G1 X140.585 Y104.592 E0.75178
G0 F9000 X140.539 Y105.029
G1 F2700 E-4.24822
G0 F9000 X139.271 Y104.648
G0 X140.259 Y103.543
G0 X130.878 Y103.634
G0 X132.059 Y104.497
G0 X130.941 Y104.972
G0 X129.754 Y105.34
;TYPE:WALL-INNER
G1 F2700 E0.75178
G1 F2100 X130.246 Y105.34 E0.76814
G1 X130.727 Y105.238 E0.7845
G1 X131.177 Y105.038 E0.80088
G1 X131.575 Y104.748 E0.81725
G1 X131.904 Y104.384 E0.83357
G1 X132.15 Y103.958 E0.84993
G1 X132.303 Y103.489 E0.86634
G1 X132.353 Y103 E0.88269
G1 X132.303 Y102.511 E0.89904
G1 X132.15 Y102.042 E0.91545
G1 X131.904 Y101.616 E0.93181
G1 X131.575 Y101.252 E0.94813
G1 X131.177 Y100.962 E0.96451
G1 X130.727 Y100.762 E0.98089
G1 X130.246 Y100.66 E0.99724
G1 X129.754 Y100.66 E1.0136
G1 X129.273 Y100.762 E1.02996
G1 X128.823 Y100.962 E1.04634
G1 X128.425 Y101.252 E1.06272
G1 X128.096 Y101.616 E1.07904
G1 X127.85 Y102.042 E1.0954
G1 X127.697 Y102.511 E1.11181
G1 X127.647 Y103 E1.12815
G1 X127.697 Y103.489 E1.1445
G1 X127.85 Y103.958 E1.16091
G1 X128.096 Y104.384 E1.17727
G1 X128.425 Y104.748 E1.19359
G1 X128.823 Y105.038 E1.20997
G1 X129.273 Y105.238 E1.22635
G1 X129.754 Y105.34 E1.2427
G0 F9000 X129.796 Y104.94
;TYPE:WALL-OUTER
G1 F2100 X130.204 Y104.94 E1.25627
G1 X130.603 Y104.855 E1.26984
G1 X130.976 Y104.69 E1.28341
G1 X131.306 Y104.449 E1.297
G1 X131.579 Y104.147 E1.31054
G1 X131.783 Y103.794 E1.3241
G1 X131.909 Y103.406 E1.33767
G1 X131.951 Y103 E1.35124
G1 X131.909 Y102.594 E1.36482
G1 X131.783 Y102.206 E1.37839
G1 X131.579 Y101.853 E1.39195
G1 X131.306 Y101.551 E1.40549
G1 X130.976 Y101.31 E1.41908
G1 X130.603 Y101.145 E1.43265
G1 X130.204 Y101.06 E1.44621
G1 X129.796 Y101.06 E1.45978
G1 X129.397 Y101.145 E1.47335
G1 X129.024 Y101.31 E1.48692
G1 X128.694 Y101.551 E1.50051
G1 X128.421 Y101.853 E1.51405
G1 X128.217 Y102.206 E1.52761
G1 X128.091 Y102.594 E1.54118
G1 X128.049 Y103 E1.55475
G1 X128.091 Y103.406 E1.56833
G1 X128.217 Y103.794 E1.5819
G1 X128.421 Y104.147 E1.59546
G1 X128.694 Y104.449 E1.609
G1 X129.024 Y104.69 E1.62259
G1 X129.397 Y104.855 E1.63616
G1 X129.796 Y104.94 E1.64972
G0 F9000 X129.75 Y105.377
G1 F2700 E-3.35028
G0 F9000 X129.214 Y105.42
G0 X129.664 Y104.028
G0 X119.869 Y120.868
G0 X120.605 Y119.582
G0 X120.48 Y119.95
G0 X120.991 Y120.418
G0 X121.183 Y120.751
G0 X121.302 Y121.117
G0 X121.342 Y121.5
G0 X121.302 Y121.883
G0 X121.183 Y122.249
G0 X120.991 Y122.582
G0 X120.731 Y122.869
G0 X120.423 Y123.093
G0 X119.293 Y123.492
;TYPE:WALL-INNER
G1 F2700 E1.64972
G1 F2100 X119.711 Y123.492 E1.66363
G1 X120.122 Y123.404 E1.67761
G1 X120.503 Y123.233 E1.6915
G1 X120.84 Y122.989 E1.70533
G1 X121.121 Y122.678 E1.71928
G1 X121.331 Y122.314 E1.73325
G1 X121.459 Y121.916 E1.74716
G1 X121.503 Y121.5 E1.76107
G1 X121.459 Y121.084 E1.77498
G1 X121.331 Y120.686 E1.78889
G1 X121.121 Y120.322 E1.80287
G1 X120.838 Y120.009 E1.8169
G1 X120.5 Y119.765 E1.83077
G1 X120.117 Y119.595 E1.8447
G1 X119.707 Y119.508 E1.85864
G1 X119.289 Y119.508 E1.87255
G1 X118.878 Y119.596 E1.88653
G1 X118.497 Y119.767 E1.90042
G1 X118.16 Y120.011 E1.91425
G1 X117.879 Y120.322 E1.9282
G1 X117.669 Y120.686 E1.94217
G1 X117.541 Y121.084 E1.95608
G1 X117.497 Y121.5 E1.96999
G1 X117.541 Y121.916 E1.9839
G1 X117.669 Y122.314 E1.99781
G1 X117.879 Y122.678 E2.01179
G1 X118.162 Y122.991 E2.02582
G1 X118.501 Y123.235 E2.03971
G1 X118.883 Y123.404 E2.05361
G1 X119.293 Y123.492 E2.06755
G0 F9000 X119.335 Y123.092
;TYPE:WALL-OUTER
G1 F2100 X119.669 Y123.092 E2.07866
G1 X119.997 Y123.022 E2.08982
G1 X120.302 Y122.885 E2.10094
G1 X120.571 Y122.69 E2.11199
G1 X120.796 Y122.441 E2.12315
G1 X120.963 Y122.151 E2.13428
G1 X121.066 Y121.833 E2.1454
G1 X121.101 Y121.5 E2.15654
G1 X121.066 Y121.167 E2.16767
G1 X120.963 Y120.849 E2.17879
G1 X120.796 Y120.559 E2.18992
G1 X120.57 Y120.309 E2.20113
G1 X120.3 Y120.114 E2.21221
G1 X119.993 Y119.978 E2.22338
G1 X119.665 Y119.908 E2.23453
G1 X119.331 Y119.908 E2.24564
G1 X119.003 Y119.978 E2.25679
G1 X118.698 Y120.115 E2.26791
G1 X118.429 Y120.31 E2.27897
G1 X118.204 Y120.559 E2.29013
G1 X118.037 Y120.849 E2.30126
G1 X117.934 Y121.167 E2.31238
G1 X117.899 Y121.5 E2.32351
G1 X117.934 Y121.833 E2.33465
G1 X118.037 Y122.151 E2.34577
G1 X118.204 Y122.441 E2.3569
G1 X118.43 Y122.691 E2.36811
G1 X118.701 Y122.886 E2.37921
G1 X119.007 Y123.022 E2.39035
G1 X119.335 Y123.092 E2.4015
G0 F9000 X119.289 Y123.529
G1 F2700 E-2.5985
G0 F9000 X120.981 Y123.146
G0 X119.991 Y122.044
G0 X129.011 Y122.941
G0 X127.675 Y123.536
G0 X128.671 Y124.232
G0 X129.754 Y124.84
;TYPE:WALL-INNER
G1 F2700 E2.4015
G1 F2100 X130.246 Y124.84 E2.41787
G1 X130.728 Y124.737 E2.43426
G1 X131.176 Y124.538 E2.45056
G1 X131.574 Y124.25 E2.4669
G1 X131.904 Y123.884 E2.48329
G1 X132.15 Y123.458 E2.49966
G1 X132.303 Y122.989 E2.51606
G1 X132.353 Y122.5 E2.53241
G1 X132.303 Y122.011 E2.54876
G1 X132.15 Y121.542 E2.56517
G1 X131.904 Y121.116 E2.58153
G1 X131.574 Y120.75 E2.59792
G1 X131.176 Y120.462 E2.61426
G1 X130.728 Y120.263 E2.63057
G1 X130.246 Y120.16 E2.64696
G1 X129.754 Y120.16 E2.66332
G1 X129.272 Y120.263 E2.67972
G1 X128.824 Y120.462 E2.69602
G1 X128.426 Y120.75 E2.71236
G1 X128.096 Y121.116 E2.72875
G1 X127.85 Y121.542 E2.74511
G1 X127.697 Y122.011 E2.76152
G1 X127.647 Y122.5 E2.77787
G1 X127.697 Y122.989 E2.79422
G1 X127.85 Y123.458 E2.81063
G1 X128.096 Y123.884 E2.82699
G1 X128.426 Y124.25 E2.84338
G1 X128.824 Y124.538 E2.85972
G1 X129.272 Y124.737 E2.87602
G1 X129.754 Y124.84 E2.89242
G0 F9000 X129.796 Y124.44
;TYPE:WALL-OUTER
G1 F2100 X130.204 Y124.44 E2.90599
G1 X130.603 Y124.355 E2.91956
G1 X130.975 Y124.189 E2.93311
G1 X131.305 Y123.951 E2.94664
G1 X131.579 Y123.647 E2.96025
G1 X131.783 Y123.294 E2.97381
G1 X131.909 Y122.906 E2.98738
G1 X131.951 Y122.5 E3.00095
G1 X131.909 Y122.094 E3.01453
G1 X131.783 Y121.706 E3.0281
G1 X131.579 Y121.353 E3.04166
G1 X131.305 Y121.049 E3.05527
G1 X130.975 Y120.811 E3.0688
G1 X130.603 Y120.645 E3.08235
G1 X130.204 Y120.56 E3.09592
G1 X129.796 Y120.56 E3.10949
G1 X129.397 Y120.645 E3.12306
G1 X129.025 Y120.811 E3.13661
G1 X128.695 Y121.049 E3.15014
G1 X128.421 Y121.353 E3.16375
G1 X128.217 Y121.706 E3.17731
G1 X128.091 Y122.094 E3.19088
G1 X128.049 Y122.5 E3.20446
G1 X128.091 Y122.906 E3.21803
G1 X128.217 Y123.294 E3.2316
G1 X128.421 Y123.647 E3.24516
G1 X128.695 Y123.951 E3.25877
G1 X129.025 Y124.189 E3.27231
G1 X129.397 Y124.355 E3.28586
G1 X129.796 Y124.44 E3.29942
G0 F9000 X129.75 Y124.877
G1 F2700 E-1.70058
G0 F9000 X128.728 Y124.704
G0 X128.728 Y126.69
G0 X118.1 Y126.9
;TYPE:WALL-INNER
G1 F2700 E3.29942
G1 F2100 X118.099 Y123.325 E3.41833
G1 X117.652 Y123.082 E3.43525
G1 X117.391 Y122.874 E3.44635
G1 X117.165 Y122.615 E3.45778
G1 X116.988 Y122.318 E3.46928
G1 X116.872 Y122.011 E3.4802
G1 X116.81 Y121.667 E3.49182
G1 X116.81 Y121.333 E3.50293
G1 X116.872 Y120.989 E3.51456
G1 X116.988 Y120.682 E3.52547
G1 X117.168 Y120.381 E3.53714
G1 X117.386 Y120.13 E3.5482
G1 X117.655 Y119.918 E3.55959
G1 X118.1 Y119.674 E3.57507
G1 X118.1 Y98.1 E4.29263
G1 X141.9 Y98.1 E5.08422
G1 X141.9 Y101.069 E5.18297
G1 X142.548 Y101.418 E5.20745
G1 X142.809 Y101.626 E5.21855
G1 X143.033 Y101.884 E5.22991
G1 X143.213 Y102.183 E5.24152
G1 X143.328 Y102.489 E5.25239
G1 X143.39 Y102.833 E5.26402
G1 X143.39 Y103.167 E5.27513
G1 X143.328 Y103.511 E5.28675
G1 X143.214 Y103.814 E5.29752
G1 X143.033 Y104.115 E5.3092
G1 X142.808 Y104.373 E5.32059
G1 X142.543 Y104.585 E5.33187
G1 X141.9 Y104.931 E5.35198
G1 X141.9 Y126.9 E6.08268
G1 X118.1 Y126.9 E6.87427
G0 F9000 X117.7 Y127.3
;TYPE:WALL-OUTER
G1 F2100 X117.699 Y123.563 E6.99856
G1 X117.429 Y123.416 E7.00878
G1 X117.114 Y123.164 E7.0222
G1 X116.838 Y122.848 E7.03616
G1 X116.628 Y122.496 E7.04979
G1 X116.484 Y122.115 E7.06334
G1 X116.41 Y121.705 E7.07719
G1 X116.41 Y121.295 E7.09083
G1 X116.484 Y120.885 E7.10469
G1 X116.628 Y120.504 E7.11823
G1 X116.84 Y120.148 E7.13201
G1 X117.111 Y119.838 E7.14571
G1 X117.433 Y119.583 E7.15937
G1 X117.7 Y119.437 E7.16949
G1 X117.7 Y97.7 E7.89247
G1 X142.3 Y97.7 E8.71067
G1 X142.3 Y100.83 E8.81477
G1 X142.769 Y101.083 E8.8325
G1 X143.089 Y101.338 E8.8461
G1 X143.357 Y101.646 E8.85968
G1 X143.573 Y102.006 E8.87365
G1 X143.716 Y102.385 E8.88712
G1 X143.79 Y102.795 E8.90098
G1 X143.79 Y103.205 E8.91461
G1 X143.716 Y103.615 E8.92847
G1 X143.573 Y103.994 E8.94194
G1 X143.359 Y104.35 E8.95576
G1 X143.085 Y104.664 E8.96962
G1 X142.764 Y104.92 E8.98328
G1 X142.3 Y105.17 E9.00081
G1 X142.3 Y127.3 E9.73685
G1 X117.7 Y127.3 E10.55505
G0 F9000 X117.97 Y127.03
G0 X118.49 Y126.79
G0 X118.49 Y126.51
;TYPE:SKIN
G1 F2100 X118.489 Y123.656 E10.64998
G1 X118.762 Y123.777 E10.65991
G1 X119.252 Y123.882 E10.67658
G1 X119.752 Y123.882 E10.69321
G1 X120.244 Y123.777 E10.70994
G1 X120.7 Y123.572 E10.72657
G1 X121.102 Y123.281 E10.74307
G1 X121.438 Y122.908 E10.75977
G1 X121.69 Y122.473 E10.77649
G1 X121.843 Y121.997 E10.79312
G1 X121.895 Y121.5 E10.80974
G1 X121.843 Y121.003 E10.82636
G1 X121.69 Y120.527 E10.84299
G1 X121.438 Y120.092 E10.85971
G1 X121.099 Y119.717 E10.87653
G1 X120.695 Y119.425 E10.89311
G1 X120.238 Y119.222 E10.90974
G1 X119.748 Y119.118 E10.9264
G1 X119.248 Y119.118 E10.94303
G1 X118.756 Y119.223 E10.95976
G1 X118.49 Y119.343 E10.96947
G1 X118.49 Y98.49 E11.66304
G1 X141.51 Y98.49 E12.42869
G1 X141.51 Y100.732 E12.50326
G1 X141.488 Y100.722 E12.50406
G1 X140.998 Y100.618 E12.52072
G1 X140.498 Y100.618 E12.53735
G1 X140.006 Y100.723 E12.55408
G1 X139.55 Y100.928 E12.57071
G1 X139.148 Y101.219 E12.58722
G1 X138.812 Y101.592 E12.60392
G1 X138.56 Y102.027 E12.62064
G1 X138.407 Y102.503 E12.63727
G1 X138.355 Y103 E12.65389
G1 X138.407 Y103.497 E12.67051
G1 X138.56 Y103.973 E12.68714
G1 X138.812 Y104.408 E12.70386
G1 X139.151 Y104.783 E12.72067
G1 X139.556 Y105.075 E12.73728
G1 X140.012 Y105.277 E12.75387
G1 X140.502 Y105.382 E12.77053
G1 X141.002 Y105.382 E12.78716
G1 X141.494 Y105.277 E12.8039
G1 X141.51 Y105.27 E12.80448
G1 X141.51 Y126.51 E13.51092
G1 X118.49 Y126.51 E14.27657
G1 F2700 E9.27657
G0 F9000 X118.49 Y126.79
G0 X127.749 Y126.69
G0 X128.298 Y124.393
G0 X127.749 Y123.504
G1 F2700 E14.27657
G0 F9000 X127.492 Y123.618
G1 F2100 X127.779 Y124.114 E14.29563
G1 X128.164 Y124.542 E14.31478
G1 X128.629 Y124.878 E14.33386
G1 X129.151 Y125.11 E14.35286
G1 X129.713 Y125.23 E14.37197
G1 X130.287 Y125.23 E14.39106
G1 X130.849 Y125.11 E14.41018
G1 X131.371 Y124.878 E14.42918
G1 X131.836 Y124.542 E14.44826
G1 X132.221 Y124.114 E14.4674
G1 X132.508 Y123.618 E14.48646
G1 X132.687 Y123.071 E14.50561
G1 X132.745 Y122.5 E14.52469
G1 X132.687 Y121.929 E14.54378
G1 X132.508 Y121.382 E14.56293
G1 X132.221 Y120.886 E14.58199
G1 X131.836 Y120.458 E14.60113
G1 X131.371 Y120.122 E14.62021
G1 X130.849 Y119.89 E14.63921
G1 X130.287 Y119.77 E14.65833
G1 X129.713 Y119.77 E14.67742
G1 X129.151 Y119.89 E14.69653
G1 X128.629 Y120.122 E14.71553
G1 X128.164 Y120.458 E14.73461
G1 X127.779 Y120.886 E14.75376
G1 X127.492 Y121.382 E14.77282
G1 X127.313 Y121.929 E14.79196
G1 X127.255 Y122.5 E14.81105
G1 X127.313 Y123.071 E14.83014
G1 X127.492 Y123.618 E14.84928
G1 F2700 E9.84928
G0 F9000 X127.749 Y123.504
G0 X127.844 Y122.19
G0 X128.298 Y120.607
G0 X129.275 Y121.695
G0 X129.664 Y104.028
G0 X129.214 Y105.42
G0 X128.767 Y105.135
G1 F2700 E14.84928
G0 F9000 X128.626 Y105.377
G1 F2100 X129.152 Y105.611 E14.86843
G1 X129.713 Y105.73 E14.88751
G1 X130.287 Y105.73 E14.9066
G1 X130.848 Y105.611 E14.92567
G1 X131.374 Y105.377 E14.94482
G1 X131.838 Y105.039 E14.96391
G1 X132.221 Y104.614 E14.98294
G1 X132.508 Y104.118 E15.002
G1 X132.687 Y103.571 E15.02114
G1 X132.745 Y103 E15.04023
G1 X132.687 Y102.429 E15.05932
G1 X132.508 Y101.882 E15.07846
G1 X132.221 Y101.386 E15.09752
G1 X131.838 Y100.961 E15.11655
G1 X131.374 Y100.623 E15.13565
G1 X130.848 Y100.389 E15.15479
G1 X130.287 Y100.27 E15.17387
G1 X129.713 Y100.27 E15.19296
G1 X129.152 Y100.389 E15.21203
G1 X128.626 Y100.623 E15.23118
G1 X128.162 Y100.961 E15.25027
G1 X127.779 Y101.386 E15.2693
G1 X127.492 Y101.882 E15.28836
G1 X127.313 Y102.429 E15.30751
G1 X127.255 Y103 E15.32659
G1 X127.313 Y103.571 E15.34568
G1 X127.492 Y104.118 E15.36483
G1 X127.779 Y104.614 E15.38389
G1 X128.162 Y105.039 E15.40291
G1 X128.626 Y105.377 E15.42201
G1 F2700 E10.42201
G0 F9000 X128.767 Y105.135
G0 X130.229 Y105.179
G0 X130.677 Y105.084
G0 X131.097 Y104.898
G0 X131.467 Y104.627
G0 X131.64 Y104.436
G0 X132.544 Y103
G0 X131.081 Y103
G0 X140.972 Y102.304
G0 X141.69 Y101.009
G0 X141.79 Y98.922
G1 F2700 E15.42201
G0 F9000 X141.349 Y98.922
G1 F2100 X141.076 Y98.649 E15.43485
G0 F9000 X140.51 Y98.649
G1 F2100 X141.349 Y99.488 E15.47431
G0 F9000 X141.349 Y100.054
G1 F2100 X139.944 Y98.649 E15.5404
G0 F9000 X139.379 Y98.649
G1 F2100 X141.233 Y100.504 E15.62763
G0 F9000 X140.621 Y100.457
G1 F2100 X138.813 Y98.649 E15.71267
G0 F9000 X138.247 Y98.649
G1 F2100 X140.13 Y100.532 E15.80124
G0 F9000 X139.71 Y100.678
G1 F2100 X137.682 Y98.649 E15.89666
G0 F9000 X137.116 Y98.649
G1 F2100 X139.343 Y100.877 E16.00143
G0 F9000 X139.021 Y101.12
G1 F2100 X136.55 Y98.649 E16.11766
G0 F9000 X135.985 Y98.649
