;FLAVOR:Marlin
;TIME:2487
;Filament used: 2.35012m
;Layer height: 0.15
;MINX:74.501
;MINY:87.252
;MINZ:0.15
;MAXX:150.499
;MAXY:140.552
;MAXZ:13.95
;POSTPROCESSED
;Generated with Cura_SteamEngine 4.13.1
;
;

M82 ;absolute extrusion mode
; Ender 3 Custom Start G-code
M117 Getting the bed up to temp!
M140 S55.0 ; Set Heat Bed temperature
M190 S55.0 ; Wait for Heat Bed temperature
M117 Pre-heating the extruder!
M104 S160; start warming extruder to 160
G28 ; Home all axes
M117 Auto bed-level GO!
G29 ; Auto bed-level (BL-Touch)
G92 E0 ; Reset Extruder
M117 Getting the extruder up to temp!
M104 S210 ; Set Extruder temperature
M109 S210 ; Wait for Extruder temperature
G1 Z2.0 F3000 ; move z up little to prevent scratching of surface
G1 X0.1 Y20 Z0.3 F5000.0 ; move to start-line position
M117 LET THE PURGE BEGIN!
G1 X0.1 Y200.0 Z0.3 F1500.0 E15 ; draw 1st line
G1 X0.4 Y200.0 Z0.3 F5000.0 ; move to side a little
G1 X0.4 Y20 Z0.3 F1500.0 E30 ; draw 2nd line
G92 E0 ; reset extruder
G1 Z1.0 F3000 ; move z up little to prevent scratching of surface
G1 X5 Y20 Z0.3 F5000.0 ; Move over to prevent blob squish
M117 Autobots! Roll Out!
; End of custom start GCode
G92 E0
G92 E0
G1 F2100 E-1.5
;LAYER_COUNT:93
;LAYER:0
M107
G0 F9000 X78.387 Y89.879 Z0.15
;TYPE:SKIRT
G1 F2100 E0
G1 X79.127 Y89.303 E0.02211
G1 X79.913 Y88.791 E0.04422
G1 X80.74 Y88.349 E0.06632
G1 X81.602 Y87.979 E0.08844
G1 X82.492 Y87.683 E0.11055
G1 X83.404 Y87.465 E0.13265
G1 X84.331 Y87.324 E0.15475
G1 X85.202 Y87.265 E0.17533
G1 X85.523 Y87.256 E0.1829
G1 X85.831 Y87.252 E0.19016
G1 X138.792 Y87.252 E1.43862
G1 X139.648 Y87.263 E1.4588
G1 X140.584 Y87.317 E1.4809
G1 X141.512 Y87.449 E1.503
G1 X142.426 Y87.661 E1.52512
G1 X143.318 Y87.95 E1.54722
G1 X144.183 Y88.313 E1.56933
G1 X145.013 Y88.749 E1.59143
G1 X145.804 Y89.254 E1.61356
G1 X146.548 Y89.825 E1.63566
G1 X147.241 Y90.457 E1.65777
G1 X147.878 Y91.145 E1.67988
G1 X148.453 Y91.886 E1.70199
G1 X148.964 Y92.672 E1.72409
G1 X149.406 Y93.5 E1.74621
G1 X149.775 Y94.362 E1.76831
G1 X150.07 Y95.252 E1.79042
G1 X150.288 Y96.164 E1.81252
G1 X150.428 Y97.092 E1.83464
G1 X150.486 Y97.953 E1.85499
G1 X150.495 Y98.273 E1.86253
G1 X150.499 Y98.582 E1.86982
G1 X150.498 Y128.952 E2.58573
G1 X150.489 Y129.679 E2.60287
G1 X150.438 Y130.616 E2.62499
G1 X150.306 Y131.544 E2.64709
G1 X150.097 Y132.458 E2.66919
G1 X149.81 Y133.351 E2.6913
G1 X149.448 Y134.217 E2.71343
G1 X149.014 Y135.048 E2.73553
G1 X148.51 Y135.839 E2.75764
G1 X147.941 Y136.584 E2.77974
G1 X147.31 Y137.279 E2.80187
G1 X146.623 Y137.917 E2.82397
G1 X145.884 Y138.494 E2.84607
G1 X145.098 Y139.006 E2.86818
G1 X144.272 Y139.449 E2.89028
G1 X143.41 Y139.821 E2.91241
G1 X142.521 Y140.117 E2.9345
G1 X141.609 Y140.337 E2.95661
G1 X140.682 Y140.478 E2.97871
G1 X139.798 Y140.539 E2.9996
G1 X139.477 Y140.548 E3.00717
G1 X139.169 Y140.552 E3.01443
G1 X86.066 Y140.551 E4.26624
G1 X85.368 Y140.542 E4.28269
G1 X84.432 Y140.49 E4.30479
G1 X83.503 Y140.358 E4.32691
G1 X82.589 Y140.148 E4.34902
G1 X81.696 Y139.861 E4.37113
G1 X80.831 Y139.498 E4.39324
G1 X80 Y139.064 E4.41534
G1 X79.209 Y138.56 E4.43745
G1 X78.464 Y137.99 E4.45956
G1 X77.77 Y137.359 E4.48168
G1 X77.133 Y136.672 E4.50376
G1 X76.556 Y135.932 E4.52588
G1 X76.044 Y135.146 E4.54799
G1 X75.601 Y134.319 E4.57011
G1 X75.23 Y133.458 E4.59221
G1 X74.934 Y132.568 E4.61432
G1 X74.715 Y131.656 E4.63643
G1 X74.574 Y130.729 E4.65853
G1 X74.514 Y129.84 E4.67954
G1 X74.505 Y129.507 E4.68739
G1 X74.501 Y129.21 E4.69439
G1 X74.502 Y98.777 E5.41179
G1 X74.511 Y98.112 E5.42747
G1 X74.564 Y97.176 E5.44957
G1 X74.696 Y96.247 E5.47169
G1 X74.907 Y95.333 E5.4938
G1 X75.195 Y94.441 E5.5159
G1 X75.558 Y93.576 E5.53801
G1 X75.993 Y92.745 E5.56012
G1 X76.497 Y91.955 E5.58221
G1 X77.067 Y91.21 E5.60432
G1 X77.699 Y90.516 E5.62645
G1 X78.387 Y89.879 E5.64855
G0 F9000 X78.775 Y90.075
G1 F2100 X79.511 Y89.522 E5.67026
G1 X80.292 Y89.034 E5.69196
G1 X81.112 Y88.616 E5.71366
G1 X81.966 Y88.271 E5.73537
G1 X82.846 Y88.001 E5.75707
G1 X83.746 Y87.809 E5.77877
G1 X84.66 Y87.695 E5.80048
G1 X85.213 Y87.665 E5.81353
G1 X85.534 Y87.656 E5.8211
G1 X85.831 Y87.652 E5.8281
G1 X138.792 Y87.652 E7.07656
G1 X139.642 Y87.663 E7.0966
G1 X140.561 Y87.716 E7.1183
G1 X141.472 Y87.849 E7.14
G1 X142.368 Y88.06 E7.1617
G1 X143.242 Y88.348 E7.18339
G1 X144.089 Y88.711 E7.20512
G1 X144.9 Y89.146 E7.22681
G1 X145.67 Y89.65 E7.24851
G1 X146.394 Y90.219 E7.27021
G1 X147.066 Y90.849 E7.29193
G1 X147.681 Y91.534 E7.31363
G1 X148.234 Y92.27 E7.33533
G1 X148.721 Y93.051 E7.35702
G1 X149.138 Y93.872 E7.37873
G1 X149.483 Y94.726 E7.40044
G1 X149.752 Y95.606 E7.42214
G1 X149.944 Y96.507 E7.44385
G1 X150.057 Y97.42 E7.46554
G1 X150.086 Y97.964 E7.47838
G1 X150.095 Y98.284 E7.48593
G1 X150.099 Y98.582 E7.49295
G1 X150.098 Y128.947 E8.20875
G1 X150.089 Y129.674 E8.22589
G1 X150.038 Y130.593 E8.24759
G1 X149.907 Y131.505 E8.26931
G1 X149.697 Y132.401 E8.291
G1 X149.411 Y133.276 E8.3127
G1 X149.05 Y134.123 E8.3344
G1 X148.616 Y134.935 E8.35611
G1 X148.114 Y135.707 E8.37782
G1 X147.546 Y136.432 E8.39953
G1 X146.918 Y137.105 E8.42123
G1 X146.234 Y137.721 E8.44292
G1 X145.499 Y138.275 E8.46462
G1 X144.719 Y138.764 E8.48632
G1 X143.899 Y139.183 E8.50803
G1 X143.046 Y139.529 E8.52973
G1 X142.166 Y139.8 E8.55143
G1 X141.266 Y139.993 E8.57313
G1 X140.352 Y140.108 E8.59485
G1 X139.787 Y140.139 E8.60819
G1 X139.466 Y140.148 E8.61576
G1 X139.169 Y140.152 E8.62276
G1 X86.071 Y140.151 E9.87444
G1 X85.373 Y140.142 E9.8909
G1 X84.454 Y140.09 E9.9126
G1 X83.543 Y139.959 E9.93429
G1 X82.647 Y139.749 E9.95599
G1 X81.772 Y139.462 E9.9777
G1 X80.925 Y139.1 E9.99941
G1 X80.113 Y138.666 E10.02111
G1 X79.342 Y138.164 E10.0428
G1 X78.617 Y137.596 E10.06451
G1 X77.944 Y136.967 E10.08623
G1 X77.329 Y136.283 E10.10791
G1 X76.775 Y135.548 E10.12961
G1 X76.287 Y134.767 E10.15132
G1 X75.868 Y133.947 E10.17302
G1 X75.522 Y133.094 E10.19472
G1 X75.252 Y132.214 E10.21642
G1 X75.059 Y131.313 E10.23814
G1 X74.945 Y130.4 E10.25983
G1 X74.914 Y129.829 E10.27331
G1 X74.905 Y129.496 E10.28117
G1 X74.901 Y129.21 E10.28791
G1 X74.902 Y98.783 E11.00517
G1 X74.911 Y98.118 E11.02084
G1 X74.963 Y97.198 E11.04257
G1 X75.095 Y96.287 E11.06427
G1 X75.306 Y95.391 E11.08597
G1 X75.593 Y94.516 E11.10767
G1 X75.956 Y93.67 E11.12937
G1 X76.39 Y92.858 E11.15108
G1 X76.893 Y92.087 E11.17278
G1 X77.462 Y91.363 E11.19449
G1 X78.09 Y90.691 E11.21617
G1 X78.775 Y90.075 E11.23788
G0 F9000 X79.163 Y90.276
G1 F2100 X79.895 Y89.746 E11.25919
G1 X80.67 Y89.283 E11.28047
G1 X81.483 Y88.89 E11.30176
G1 X82.328 Y88.57 E11.32306
G1 X83.197 Y88.327 E11.34433
G1 X84.085 Y88.161 E11.36562
G1 X85.224 Y88.065 E11.39257
G1 X85.545 Y88.056 E11.40014
G1 X85.831 Y88.052 E11.40688
G1 X138.792 Y88.052 E12.65533
G1 X139.636 Y88.063 E12.67523
G1 X140.538 Y88.116 E12.69653
G1 X141.431 Y88.248 E12.71781
G1 X142.309 Y88.459 E12.7391
G1 X143.165 Y88.747 E12.76039
G1 X143.992 Y89.109 E12.78167
G1 X144.784 Y89.544 E12.80297
G1 X145.535 Y90.046 E12.82426
G1 X146.238 Y90.613 E12.84555
G1 X146.888 Y91.24 E12.86684
G1 X147.48 Y91.922 E12.88813
G1 X148.01 Y92.653 E12.90942
G1 X148.472 Y93.429 E12.93071
G1 X148.865 Y94.242 E12.95199
G1 X149.183 Y95.087 E12.97328
G1 X149.426 Y95.957 E12.99457
G1 X149.591 Y96.845 E13.01586
G1 X149.686 Y97.975 E13.04259
G1 X149.695 Y98.295 E13.05014
G1 X149.699 Y98.582 E13.0569
G1 X149.698 Y128.942 E13.77258
G1 X149.689 Y129.669 E13.78972
G1 X149.638 Y130.571 E13.81102
G1 X149.507 Y131.465 E13.83232
G1 X149.298 Y132.343 E13.8536
G1 X149.012 Y133.2 E13.87489
G1 X148.651 Y134.028 E13.89619
G1 X148.219 Y134.82 E13.91745
G1 X147.718 Y135.572 E13.93875
G1 X147.152 Y136.276 E13.96005
G1 X146.527 Y136.927 E13.98132
G1 X145.846 Y137.521 E14.00262
G1 X145.115 Y138.052 E14.02392
G1 X144.341 Y138.516 E14.04519
G1 X143.528 Y138.91 E14.06649
G1 X142.684 Y139.23 E14.08777
G1 X141.814 Y139.475 E14.10908
G1 X140.927 Y139.641 E14.13035
G1 X139.776 Y139.739 E14.15758
G1 X139.455 Y139.748 E14.16515
G1 X139.169 Y139.752 E14.17189
G1 X86.076 Y139.751 E15.42346
G1 X85.378 Y139.742 E15.43991
G1 X84.477 Y139.691 E15.46119
G1 X83.583 Y139.559 E15.48249
G1 X82.705 Y139.35 E15.50377
G1 X81.848 Y139.063 E15.52507
G1 X81.021 Y138.702 E15.54634
G1 X80.228 Y138.269 E15.56764
G1 X79.477 Y137.768 E15.58892
G1 X78.773 Y137.202 E15.61022
G1 X78.122 Y136.576 E15.63151
G1 X77.529 Y135.895 E15.65279
G1 X76.999 Y135.164 E15.67408
G1 X76.535 Y134.389 E15.69537
G1 X76.141 Y133.576 E15.71667
G1 X75.821 Y132.732 E15.73795
G1 X75.577 Y131.862 E15.75925
G1 X75.411 Y130.974 E15.78054
G1 X75.314 Y129.819 E15.80786
G1 X75.305 Y129.486 E15.81572
G1 X75.301 Y129.21 E15.82222
G1 X75.302 Y98.788 E16.53936
G1 X75.311 Y98.123 E16.55504
G1 X75.363 Y97.221 E16.57634
G1 X75.495 Y96.328 E16.59762
G1 X75.705 Y95.45 E16.6189
G1 X75.992 Y94.593 E16.64021
G1 X76.354 Y93.766 E16.66149
G1 X76.787 Y92.974 E16.68276
G1 X77.289 Y92.223 E16.70406
G1 X77.856 Y91.519 E16.72537
G1 X78.482 Y90.869 E16.74664
G1 X79.163 Y90.276 E16.76793
G1 F2100 E15.26793
;MESH:Base-v2.stl
G0 F9000 X103.405 Y103.967
G0 X101.953 Y103.128
G0 X105.633 Y101.533
G0 X108.854 Y103.393
G0 X109.27 Y107.111
G0 X112.49 Y108.972
G0 X115.993 Y107.36
G0 X119.481 Y109.214
;TYPE:WALL-INNER
G1 F2100 E16.76793
G1 X122.854 Y107.266 E16.85975
G1 X122.854 Y103.24 E16.95465
G1 X119.367 Y101.226 E17.04958
G1 X115.929 Y103.212 E17.14317
G1 X112.49 Y101.226 E17.23679
G1 X109.062 Y103.206 E17.33011
G1 X105.633 Y101.226 E17.42345
G1 X102.146 Y103.24 E17.51837
G1 X102.146 Y107.265 E17.61325
G1 X105.63 Y109.278 E17.70811
G1 X105.63 Y112.743 E17.78979
G1 X102.146 Y114.754 E17.88461
G1 X102.146 Y118.78 E17.97952
G1 X105.63 Y120.792 E18.07436
G1 X105.63 Y124.66 E18.16554
G1 X109.118 Y126.674 E18.26049
G1 X112.556 Y124.689 E18.35407
G1 X115.993 Y126.675 E18.44764
G1 X119.481 Y124.661 E18.54259
G1 X119.481 Y120.728 E18.6353
G1 X122.854 Y118.781 E18.72711
G1 X122.854 Y114.755 E18.82202
G1 X119.481 Y112.807 E18.91384
G1 X119.481 Y109.214 E18.99853
G0 F9000 X119.367 Y108.818
;TYPE:WALL-OUTER
G1 F2100 X122.454 Y107.035 E19.08257
G1 X122.454 Y103.471 E19.16658
G1 X119.367 Y101.688 E19.25062
G1 X116.28 Y103.471 E19.33466
G1 X116.28 Y107.034 E19.41865
G1 X119.367 Y108.818 E19.5027
G1 F2100 E18.0027
G0 F9000 X119.267 Y108.99
G0 X119.215 Y112.94
G0 X116.146 Y114.907
G0 X116.146 Y118.627
G0 X119.215 Y120.788
G0 X119.215 Y124.508
G0 X115.893 Y126.385
G1 F2100 E19.5027
G0 F9000 X115.993 Y126.213
G1 F2100 X119.081 Y124.43 E19.58675
G1 X119.081 Y120.866 E19.67077
G1 X115.993 Y119.083 E19.75482
G1 X112.906 Y120.866 E19.83886
G1 X112.906 Y124.429 E19.92285
G1 X115.993 Y126.213 E20.0069
G1 F2100 E18.5069
G0 F9000 X115.893 Y126.385
G0 X119.215 Y124.508
G0 X119.267 Y120.504
G1 F2100 E20.0069
G0 F9000 X119.367 Y120.332
G1 F2100 X122.454 Y118.55 E20.09092
G1 X122.454 Y114.986 E20.17494
G1 X119.367 Y113.203 E20.25897
G1 X116.28 Y114.985 E20.343
G1 X116.28 Y118.549 E20.42701
G1 X119.367 Y120.332 E20.51105
G1 F2100 E19.01105
G0 F9000 X119.267 Y120.504
G0 X116.146 Y118.627
G0 X115.893 Y114.817
G1 F2100 E20.51105
G0 F9000 X115.993 Y114.645
G1 F2100 X119.081 Y112.862 E20.59511
G1 X119.081 Y109.298 E20.67912
G1 X115.993 Y107.515 E20.76318
G1 X112.906 Y109.298 E20.84721
G1 X112.906 Y112.861 E20.93121
G1 X115.993 Y114.645 E21.01525
G1 F2100 E19.51525
G0 F9000 X115.893 Y114.817
G0 X112.772 Y112.938
G0 X112.39 Y108.989
G1 F2100 E21.01525
G0 F9000 X112.49 Y108.817
G1 F2100 X115.578 Y107.036 E21.09929
G1 X115.578 Y103.471 E21.18333
G1 X112.49 Y101.688 E21.26738
G1 X109.404 Y103.471 E21.3514
G1 X109.404 Y107.034 E21.43539
G1 X112.49 Y108.817 E21.5194
G1 F2100 E20.0194
G0 F9000 X112.39 Y108.989
G0 X109.118 Y107.36
G0 X105.533 Y108.99
G1 F2100 E21.5194
G0 F9000 X105.633 Y108.818
G1 F2100 X108.72 Y107.035 E21.60344
G1 X108.72 Y103.471 E21.68746
G1 X105.633 Y101.688 E21.77149
G1 X102.546 Y103.471 E21.85553
G1 X102.546 Y107.034 E21.93952
G1 X105.633 Y108.818 E22.02357
G1 F2100 E20.52357
G0 F9000 X105.533 Y108.99
G0 X105.533 Y113.105
G0 X102.412 Y114.907
G0 X102.412 Y118.627
G0 X105.533 Y120.504
G1 F2100 E22.02357
G0 F9000 X105.633 Y120.332
G1 F2100 X108.72 Y118.55 E22.10759
G1 X108.72 Y114.986 E22.19161
G1 X105.633 Y113.203 E22.27564
G1 X102.546 Y114.985 E22.35967
G1 X102.546 Y118.549 E22.44368
G1 X105.633 Y120.332 E22.52772
G1 F2100 E21.02772
G0 F9000 X105.533 Y120.504
G0 X108.854 Y118.628
G0 X109.018 Y114.817
G1 F2100 E22.52772
G0 F9000 X109.118 Y114.645
G1 F2100 X112.204 Y112.862 E22.61173
G1 X112.204 Y109.297 E22.69577
G1 X109.118 Y107.515 E22.77978
G1 X106.03 Y109.295 E22.8638
G1 X106.03 Y112.861 E22.94786
G1 X109.118 Y114.645 E23.03193
G1 F2100 E21.53193
G0 F9000 X109.018 Y114.817
G0 X109.27 Y118.626
G0 X112.39 Y120.504
G1 F2100 E23.03193
G0 F9000 X112.49 Y120.332
G1 F2100 X115.578 Y118.551 E23.11596
G1 X115.578 Y114.986 E23.2
G1 X112.49 Y113.203 E23.28406
G1 X109.404 Y114.985 E23.36806
G1 X109.404 Y118.549 E23.45207
G1 X112.49 Y120.332 E23.53609
G1 F2100 E22.03609
G0 F9000 X112.39 Y120.504
G0 X112.338 Y124.508
G0 X109.018 Y126.384
G1 F2100 E23.53609
G0 F9000 X109.118 Y126.212
G1 F2100 X112.204 Y124.43 E23.62009
G1 X112.204 Y120.866 E23.70411
G1 X109.118 Y119.083 E23.78813
G1 X106.03 Y120.864 E23.87216
G1 X106.03 Y124.429 E23.9562
G1 X109.118 Y126.212 E24.04025
G1 F2100 E22.54025
G0 F9000 X109.017 Y126.383
G0 X112.556 Y124.892
G0 X115.993 Y126.368
G0 X119.674 Y124.773
G0 X118.222 Y123.935
G0 X119.674 Y130.217
G0 X119.674 Y128.742
G0 X138.899 Y128.952
;TYPE:WALL-INNER
G1 F2100 E24.04025
G1 X86.101 Y128.952 E25.28487
G1 X86.101 Y98.852 E25.99442
G1 X138.899 Y98.852 E27.23903
G1 X138.899 Y128.952 E27.94858
G0 F9000 X139.299 Y129.352
;TYPE:WALL-OUTER
G1 F2100 X85.701 Y129.352 E29.21205
G1 X85.701 Y98.452 E29.94046
G1 X139.299 Y98.452 E31.20394
G1 X139.299 Y129.352 E31.93235
G0 F9000 X139.129 Y129.182
G0 X138.789 Y128.562
G0 X138.509 Y128.562
;TYPE:SKIN
G1 F2100 X86.491 Y128.562 E33.15857
G1 X86.491 Y99.242 E33.84974
G1 X138.509 Y99.242 E35.07596
G1 X138.509 Y128.562 E35.76713
G1 F2100 E34.26713
G0 F9000 X138.789 Y128.562
G0 X122.964 Y128.742
G0 X122.964 Y130.217
G0 X118.222 Y121.361
G0 X119.674 Y120.839
G0 X122.964 Y118.852
G1 F2100 E35.76713
G0 F9000 X123.244 Y119.006
G1 F2100 X123.244 Y114.53 E35.87264
G1 X119.871 Y112.582 E35.96446
G1 X119.871 Y109.439 E36.03855
G1 X123.244 Y107.491 E36.13037
G1 X123.244 Y103.015 E36.23588
G1 X119.367 Y100.776 E36.34142
G1 X115.929 Y102.761 E36.435
G1 X112.49 Y100.776 E36.52861
G1 X109.062 Y102.755 E36.62192
G1 X105.633 Y100.776 E36.71524
G1 X101.756 Y103.015 E36.82078
G1 X101.756 Y107.49 E36.92627
G1 X105.24 Y109.503 E37.02112
G1 X105.24 Y112.518 E37.0922
G1 X101.756 Y114.529 E37.18703
G1 X101.756 Y119.005 E37.29254
G1 X105.24 Y121.017 E37.38738
G1 X105.24 Y124.885 E37.47856
G1 X109.118 Y127.124 E37.58412
G1 X112.556 Y125.14 E37.67769
G1 X115.993 Y127.125 E37.77125
G1 X119.871 Y124.886 E37.87681
G1 X119.871 Y120.953 E37.96952
G1 X123.244 Y119.006 E38.06133
G1 F2100 E36.56133
G0 F9000 X122.964 Y118.852
G0 X123.047 Y114.643
G0 X121.595 Y115.481
G0 X140.164 Y114.643
G0 X138.689 Y114.643
G0 X138.789 Y99.881
G1 F2100 E38.06133
G0 F9000 X138.348 Y99.881
G1 F2100 X137.868 Y99.402 E38.07732
G0 F9000 X137.303 Y99.402
G1 F2100 X138.348 Y100.447 E38.11216
G0 F9000 X138.348 Y101.013
G1 F2100 X136.737 Y99.402 E38.16586
G0 F9000 X136.171 Y99.402
G1 F2100 X138.348 Y101.578 E38.23842
G0 F9000 X138.348 Y102.144
G1 F2100 X135.606 Y99.402 E38.32983
G0 F9000 X135.04 Y99.402
G1 F2100 X138.348 Y102.71 E38.44011
G0 F9000 X138.348 Y103.275
G1 F2100 X134.474 Y99.402 E38.56925
G0 F9000 X133.909 Y99.402
G1 F2100 X138.348 Y103.841 E38.71723
G0 F9000 X138.348 Y104.407
G1 F2100 X133.343 Y99.402 E38.88408
G0 F9000 X132.777 Y99.402
G1 F2100 X138.348 Y104.972 E39.06979
G0 F9000 X138.348 Y105.538
G1 F2100 X132.211 Y99.402 E39.27436
G0 F9000 X131.646 Y99.402
G1 F2100 X138.348 Y106.104 E39.49779
G0 F9000 X138.348 Y106.669
G1 F2100 X131.08 Y99.402 E39.74007
G0 F9000 X130.514 Y99.402
G1 F2100 X138.348 Y107.235 E40.00122
G0 F9000 X138.348 Y107.801
G1 F2100 X129.949 Y99.402 E40.28122
G0 F9000 X129.383 Y99.402
G1 F2100 X138.348 Y108.366 E40.58008
G0 F9000 X138.348 Y108.932
