;FLAVOR:Marlin
;TIME:2028
;Filament used: 1.72544m
;Layer height: 0.15
;MINX:74.5
;MINY:85.848
;MINZ:0.15
;MAXX:150.5
;MAXY:139.152
;MAXZ:11.55
;POSTPROCESSED
;Generated with Cura_SteamEngine 4.13.1
;
;

M82 ;absolute extrusion mode
; Ender 3 Custom Start G-code
M117 Getting the bed up to temp!
M140 S55.0 ; Set Heat Bed temperature
M190 S55.0 ; Wait for Heat Bed temperature
M117 Pre-heating the extruder!
M104 S160; start warming extruder to 160
G28 ; Home all axes
M117 Auto bed-level GO!
G29 ; Auto bed-level (BL-Touch)
G92 E0 ; Reset Extruder
M117 Getting the extruder up to temp!
M104 S210 ; Set Extruder temperature
M109 S210 ; Wait for Extruder temperature
G1 Z2.0 F3000 ; move z up little to prevent scratching of surface
G1 X0.1 Y20 Z0.3 F5000.0 ; move to start-line position
M117 LET THE PURGE BEGIN!
G1 X0.1 Y200.0 Z0.3 F1500.0 E15 ; draw 1st line
G1 X0.4 Y200.0 Z0.3 F5000.0 ; move to side a little
G1 X0.4 Y20 Z0.3 F1500.0 E30 ; draw 2nd line
G92 E0 ; reset extruder
G1 Z1.0 F3000 ; move z up little to prevent scratching of surface
G1 X5 Y20 Z0.3 F5000.0 ; Move over to prevent blob squish
M117 Autobots! Roll Out!
; End of custom start GCode
G92 E0
G92 E0
G1 F2100 E-1.5
;LAYER_COUNT:77
;LAYER:0
M107
G0 F9000 X78.386 Y88.475 Z0.15
;TYPE:SKIRT
G1 F2100 E0
G1 X79.126 Y87.899 E0.02211
G1 X79.912 Y87.387 E0.04422
G1 X80.739 Y86.945 E0.06632
G1 X81.601 Y86.575 E0.08844
G1 X82.491 Y86.279 E0.11055
G1 X83.403 Y86.061 E0.13265
G1 X84.33 Y85.92 E0.15475
G1 X85.201 Y85.861 E0.17533
G1 X85.522 Y85.852 E0.1829
G1 X85.83 Y85.848 E0.19016
G1 X138.793 Y85.848 E1.43867
G1 X139.649 Y85.859 E1.45885
G1 X140.585 Y85.913 E1.48095
G1 X141.513 Y86.045 E1.50304
G1 X142.427 Y86.257 E1.52516
G1 X143.319 Y86.546 E1.54727
G1 X144.184 Y86.909 E1.56938
G1 X145.014 Y87.345 E1.59148
G1 X145.805 Y87.85 E1.6136
G1 X146.549 Y88.421 E1.63571
G1 X147.242 Y89.053 E1.65782
G1 X147.879 Y89.741 E1.67992
G1 X148.454 Y90.482 E1.70203
G1 X148.965 Y91.268 E1.72413
G1 X149.407 Y92.096 E1.74626
G1 X149.776 Y92.958 E1.76836
G1 X150.071 Y93.848 E1.79046
G1 X150.289 Y94.76 E1.81257
G1 X150.429 Y95.688 E1.83469
G1 X150.487 Y96.549 E1.85503
G1 X150.496 Y96.869 E1.86258
G1 X150.5 Y97.178 E1.86987
G1 X150.499 Y127.552 E2.58588
G1 X150.49 Y128.279 E2.60301
G1 X150.439 Y129.216 E2.62514
G1 X150.307 Y130.144 E2.64723
G1 X150.098 Y131.058 E2.66933
G1 X149.811 Y131.951 E2.69144
G1 X149.449 Y132.817 E2.71357
G1 X149.015 Y133.648 E2.73567
G1 X148.511 Y134.439 E2.75778
G1 X147.942 Y135.184 E2.77988
G1 X147.311 Y135.879 E2.80201
G1 X146.624 Y136.517 E2.82411
G1 X145.885 Y137.094 E2.84621
G1 X145.099 Y137.606 E2.86832
G1 X144.273 Y138.049 E2.89042
G1 X143.411 Y138.421 E2.91255
G1 X142.522 Y138.717 E2.93464
G1 X141.61 Y138.937 E2.95675
G1 X140.683 Y139.078 E2.97886
G1 X139.799 Y139.139 E2.99974
G1 X139.478 Y139.148 E3.00731
G1 X139.17 Y139.152 E3.01457
G1 X86.065 Y139.151 E4.26643
G1 X85.367 Y139.142 E4.28288
G1 X84.431 Y139.09 E4.30498
G1 X83.502 Y138.958 E4.3271
G1 X82.588 Y138.748 E4.34921
G1 X81.695 Y138.461 E4.37132
G1 X80.83 Y138.098 E4.39343
G1 X79.999 Y137.664 E4.41553
G1 X79.208 Y137.16 E4.43764
G1 X78.463 Y136.59 E4.45975
G1 X77.769 Y135.959 E4.48186
G1 X77.132 Y135.272 E4.50395
G1 X76.555 Y134.532 E4.52607
G1 X76.043 Y133.746 E4.54818
G1 X75.6 Y132.919 E4.5703
G1 X75.229 Y132.058 E4.5924
G1 X74.933 Y131.168 E4.61451
G1 X74.714 Y130.256 E4.63662
G1 X74.573 Y129.329 E4.65872
G1 X74.513 Y128.44 E4.67973
G1 X74.504 Y128.107 E4.68758
G1 X74.5 Y127.81 E4.69458
G1 X74.501 Y97.373 E5.41208
G1 X74.51 Y96.708 E5.42775
G1 X74.563 Y95.772 E5.44985
G1 X74.695 Y94.843 E5.47197
G1 X74.906 Y93.929 E5.49408
G1 X75.194 Y93.037 E5.51618
G1 X75.557 Y92.172 E5.53829
G1 X75.992 Y91.341 E5.56041
G1 X76.496 Y90.551 E5.5825
G1 X77.066 Y89.806 E5.60461
G1 X77.698 Y89.112 E5.62673
G1 X78.386 Y88.475 E5.64884
G0 F9000 X78.774 Y88.671
G1 F2100 X79.51 Y88.118 E5.67054
G1 X80.291 Y87.63 E5.69225
G1 X81.111 Y87.212 E5.71394
G1 X81.965 Y86.867 E5.73566
G1 X82.845 Y86.597 E5.75735
G1 X83.745 Y86.405 E5.77905
G1 X84.659 Y86.291 E5.80076
G1 X85.212 Y86.261 E5.81382
G1 X85.533 Y86.252 E5.82139
G1 X85.83 Y86.248 E5.82839
G1 X138.793 Y86.248 E7.07689
G1 X139.643 Y86.259 E7.09693
G1 X140.562 Y86.312 E7.11863
G1 X141.473 Y86.445 E7.14033
G1 X142.369 Y86.656 E7.16203
G1 X143.243 Y86.944 E7.18372
G1 X144.09 Y87.307 E7.20545
G1 X144.901 Y87.742 E7.22714
G1 X145.671 Y88.246 E7.24884
G1 X146.395 Y88.815 E7.27054
G1 X147.067 Y89.445 E7.29226
G1 X147.682 Y90.13 E7.31396
G1 X148.235 Y90.866 E7.33566
G1 X148.722 Y91.647 E7.35735
G1 X149.139 Y92.468 E7.37906
G1 X149.484 Y93.322 E7.40077
G1 X149.753 Y94.202 E7.42247
G1 X149.945 Y95.103 E7.44418
G1 X150.058 Y96.016 E7.46587
G1 X150.087 Y96.56 E7.47871
G1 X150.096 Y96.88 E7.48626
G1 X150.1 Y97.178 E7.49328
G1 X150.099 Y127.547 E8.20917
G1 X150.09 Y128.274 E8.22631
G1 X150.039 Y129.193 E8.24801
G1 X149.908 Y130.105 E8.26973
G1 X149.698 Y131.001 E8.29142
G1 X149.412 Y131.876 E8.31312
G1 X149.051 Y132.723 E8.33483
G1 X148.617 Y133.535 E8.35653
G1 X148.115 Y134.307 E8.37824
G1 X147.547 Y135.032 E8.39995
G1 X146.919 Y135.705 E8.42165
G1 X146.235 Y136.321 E8.44335
G1 X145.5 Y136.875 E8.46505
G1 X144.72 Y137.364 E8.48675
G1 X143.9 Y137.783 E8.50845
G1 X143.047 Y138.129 E8.53015
G1 X142.167 Y138.4 E8.55186
G1 X141.267 Y138.593 E8.57356
G1 X140.353 Y138.708 E8.59527
G1 X139.788 Y138.739 E8.60861
G1 X139.467 Y138.748 E8.61618
G1 X139.17 Y138.752 E8.62318
G1 X86.07 Y138.751 E9.87492
G1 X85.372 Y138.742 E9.89137
G1 X84.453 Y138.69 E9.91307
G1 X83.542 Y138.559 E9.93477
G1 X82.646 Y138.349 E9.95646
G1 X81.771 Y138.062 E9.97817
G1 X80.924 Y137.7 E9.99988
G1 X80.112 Y137.266 E10.02159
G1 X79.341 Y136.764 E10.04327
G1 X78.616 Y136.196 E10.06498
G1 X77.943 Y135.567 E10.0867
G1 X77.328 Y134.883 E10.10838
G1 X76.774 Y134.148 E10.13008
G1 X76.286 Y133.367 E10.15179
G1 X75.867 Y132.547 E10.1735
G1 X75.521 Y131.694 E10.19519
G1 X75.251 Y130.814 E10.21689
G1 X75.058 Y129.913 E10.23861
G1 X74.944 Y129 E10.2603
G1 X74.913 Y128.429 E10.27378
G1 X74.904 Y128.096 E10.28164
G1 X74.9 Y127.81 E10.28838
G1 X74.901 Y97.379 E11.00573
G1 X74.91 Y96.714 E11.02141
G1 X74.962 Y95.794 E11.04313
G1 X75.094 Y94.883 E11.06483
G1 X75.305 Y93.987 E11.08653
G1 X75.592 Y93.112 E11.10824
G1 X75.955 Y92.266 E11.12994
G1 X76.389 Y91.454 E11.15164
G1 X76.892 Y90.683 E11.17334
G1 X77.461 Y89.959 E11.19505
G1 X78.089 Y89.287 E11.21673
G1 X78.774 Y88.671 E11.23845
G0 F9000 X79.162 Y88.872
G1 F2100 X79.894 Y88.342 E11.25975
G1 X80.669 Y87.879 E11.28103
G1 X81.482 Y87.486 E11.30232
G1 X82.327 Y87.166 E11.32362
G1 X83.196 Y86.923 E11.34489
G1 X84.084 Y86.757 E11.36619
G1 X85.223 Y86.661 E11.39313
G1 X85.544 Y86.652 E11.4007
G1 X85.83 Y86.648 E11.40744
G1 X138.793 Y86.648 E12.65595
G1 X139.637 Y86.659 E12.67585
G1 X140.539 Y86.712 E12.69714
G1 X141.432 Y86.844 E12.71842
G1 X142.31 Y87.055 E12.73971
G1 X143.166 Y87.343 E12.761
G1 X143.993 Y87.705 E12.78228
G1 X144.785 Y88.14 E12.80358
G1 X145.536 Y88.642 E12.82488
G1 X146.239 Y89.209 E12.84617
G1 X146.889 Y89.836 E12.86746
G1 X147.481 Y90.518 E12.88875
G1 X148.011 Y91.249 E12.91003
G1 X148.473 Y92.025 E12.93132
G1 X148.866 Y92.838 E12.95261
G1 X149.184 Y93.683 E12.97389
G1 X149.427 Y94.553 E12.99518
G1 X149.592 Y95.441 E13.01647
G1 X149.687 Y96.571 E13.04321
G1 X149.696 Y96.891 E13.05075
G1 X149.7 Y97.178 E13.05752
G1 X149.699 Y127.542 E13.77329
G1 X149.69 Y128.269 E13.79043
G1 X149.639 Y129.171 E13.81173
G1 X149.508 Y130.065 E13.83303
G1 X149.299 Y130.943 E13.8543
G1 X149.013 Y131.8 E13.8756
G1 X148.652 Y132.628 E13.89689
G1 X148.22 Y133.42 E13.91816
G1 X147.719 Y134.172 E13.93946
G1 X147.153 Y134.876 E13.96075
G1 X146.528 Y135.527 E13.98203
G1 X145.847 Y136.121 E14.00333
G1 X145.116 Y136.652 E14.02463
G1 X144.342 Y137.116 E14.0459
G1 X143.529 Y137.51 E14.0672
G1 X142.685 Y137.83 E14.08848
G1 X141.815 Y138.075 E14.10978
G1 X140.928 Y138.241 E14.13106
G1 X139.777 Y138.339 E14.15829
G1 X139.456 Y138.348 E14.16586
G1 X139.17 Y138.352 E14.1726
G1 X86.075 Y138.351 E15.42421
G1 X85.377 Y138.342 E15.44067
G1 X84.476 Y138.291 E15.46194
G1 X83.582 Y138.159 E15.48325
G1 X82.704 Y137.95 E15.50452
G1 X81.847 Y137.663 E15.52583
G1 X81.02 Y137.302 E15.5471
G1 X80.227 Y136.869 E15.5684
G1 X79.476 Y136.368 E15.58968
G1 X78.772 Y135.802 E15.61097
G1 X78.121 Y135.176 E15.63226
G1 X77.528 Y134.495 E15.65355
G1 X76.998 Y133.764 E15.67483
G1 X76.534 Y132.989 E15.69613
G1 X76.14 Y132.176 E15.71742
G1 X75.82 Y131.332 E15.7387
G1 X75.576 Y130.462 E15.76
G1 X75.41 Y129.574 E15.7813
G1 X75.313 Y128.419 E15.80862
G1 X75.304 Y128.086 E15.81647
G1 X75.3 Y127.81 E15.82298
G1 X75.301 Y97.384 E16.54021
G1 X75.31 Y96.719 E16.55589
G1 X75.362 Y95.817 E16.57719
G1 X75.494 Y94.924 E16.59847
G1 X75.704 Y94.046 E16.61975
G1 X75.991 Y93.189 E16.64105
G1 X76.353 Y92.362 E16.66234
G1 X76.786 Y91.57 E16.68361
G1 X77.288 Y90.819 E16.70491
G1 X77.855 Y90.115 E16.72622
G1 X78.481 Y89.465 E16.74749
G1 X79.162 Y88.872 E16.76878
G1 F2100 E15.26878
;MESH:Lid_v2.stl
G0 F9000 X89.407 Y102.642
G0 X87.955 Y101.805
G0 X88.414 Y105.789
G0 X91.56 Y107.912
;TYPE:WALL-INNER
G1 F2100 E16.76878
G1 X91.56 Y111.459 E16.85239
G1 X88.148 Y113.429 E16.94526
G1 X88.148 Y117.455 E17.04017
G1 X91.56 Y119.425 E17.13305
G1 X91.56 Y123.334 E17.22519
G1 X95.046 Y125.348 E17.3201
G1 X98.533 Y123.334 E17.41502
G1 X98.533 Y119.422 E17.50724
G1 X98.568 Y119.442 E17.50819
G1 X98.568 Y123.334 E17.5166
G1 X102.055 Y125.348 E17.61152
G1 X105.542 Y123.334 E17.70645
G1 X105.542 Y119.422 E17.79867
G1 X105.621 Y119.468 E17.80082
G1 X105.742 Y119.398 E17.80412
G1 X105.742 Y123.334 E17.85077
G1 X109.228 Y125.348 E17.94567
G1 X112.715 Y123.334 E18.0406
G1 X112.715 Y119.456 E18.13201
G1 X112.815 Y119.398 E18.13474
G1 X112.815 Y123.334 E18.15851
G1 X116.302 Y125.348 E18.25343
G1 X119.758 Y123.352 E18.34751
G1 X123.214 Y125.348 E18.44159
G1 X126.651 Y123.362 E18.53516
G1 X130.089 Y125.348 E18.62876
G1 X133.576 Y123.334 E18.72368
G1 X133.576 Y119.402 E18.81637
G1 X136.948 Y117.455 E18.90816
G1 X136.948 Y113.429 E19.00307
G1 X133.576 Y111.482 E19.09485
G1 X133.576 Y107.889 E19.17955
G1 X136.948 Y105.942 E19.27134
G1 X136.948 Y101.916 E19.36624
G1 X133.462 Y99.903 E19.46114
G1 X130.025 Y101.888 E19.5547
G1 X126.587 Y99.903 E19.64828
G1 X123.159 Y101.882 E19.74159
G1 X119.731 Y99.903 E19.8349
G1 X116.243 Y101.915 E19.92982
G1 X116.243 Y105.763 E20.02053
G1 X116.181 Y105.799 E20.02222
G1 X116.181 Y101.916 E20.03716
G1 X112.694 Y99.903 E20.13207
G1 X109.208 Y101.916 E20.22697
G1 X109.208 Y105.741 E20.31713
G1 X109.107 Y105.799 E20.31988
G1 X109.107 Y101.916 E20.34356
G1 X105.621 Y99.903 E20.43845
G1 X102.133 Y101.915 E20.53337
G1 X102.133 Y105.774 E20.62434
G1 X102.1 Y105.755 E20.62524
G1 X102.1 Y101.916 E20.63308
G1 X98.613 Y99.903 E20.72799
G1 X95.126 Y101.916 E20.8229
G1 X95.126 Y105.775 E20.91387
G1 X95.121 Y105.772 E20.91401
G1 X95.121 Y101.916 E20.91511
G1 X91.634 Y99.903 E21.01003
G1 X88.148 Y101.916 E21.10492
G1 X88.148 Y105.942 E21.19983
G1 X91.56 Y107.912 E21.2927
G0 F9000 X91.634 Y107.493
;TYPE:WALL-OUTER
G1 F2100 X94.721 Y105.711 E21.37673
G1 X94.721 Y102.147 E21.46074
G1 X91.634 Y100.365 E21.54476
G1 X88.548 Y102.147 E21.62877
G1 X88.548 Y105.711 E21.71278
G1 X91.634 Y107.493 E21.79679
G0 F9000 X91.534 Y107.665
G0 X95.046 Y106.036
G0 X98.533 Y107.909
;TYPE:WALL-INNER
G1 F2100 X98.568 Y107.929 E21.79774
G1 X98.568 Y111.442 E21.88055
G1 X98.533 Y111.462 E21.8815
G1 X98.533 Y107.909 E21.88928
G0 F9000 X98.613 Y107.493
;TYPE:WALL-OUTER
G1 F2100 X101.7 Y105.711 E21.9733
G1 X101.7 Y102.147 E22.05732
G1 X98.613 Y100.365 E22.14134
G1 X95.526 Y102.147 E22.22537
G1 X95.526 Y105.711 E22.30938
G1 X98.613 Y107.493 E22.3934
G0 F9000 X98.514 Y107.665
G0 X102.055 Y106.036
G0 X105.742 Y107.885
;TYPE:WALL-INNER
G1 F2100 X105.742 Y111.486 E22.47829
G1 X105.621 Y111.416 E22.48159
G1 X105.542 Y111.462 E22.48374
G1 X105.542 Y107.909 E22.52555
G1 X105.621 Y107.955 E22.5277
G1 X105.742 Y107.885 E22.531
G0 F9000 X105.621 Y107.493
;TYPE:WALL-OUTER
G1 F2100 X108.707 Y105.711 E22.615
G1 X108.707 Y102.147 E22.69902
G1 X105.621 Y100.365 E22.78302
G1 X102.533 Y102.146 E22.86705
G1 X102.533 Y105.712 E22.95112
G1 X105.621 Y107.493 E23.03515
G0 F9000 X105.522 Y107.665
G0 X109.228 Y106.036
G0 X112.815 Y107.885
;TYPE:WALL-INNER
G1 F2100 X112.815 Y111.486 E23.12004
G1 X112.715 Y111.428 E23.12276
G1 X112.715 Y107.943 E23.1439
G1 X112.815 Y107.885 E23.14662
G0 F9000 X112.694 Y107.493
;TYPE:WALL-OUTER
G1 F2100 X115.781 Y105.711 E23.23065
G1 X115.781 Y102.147 E23.31466
G1 X112.694 Y100.365 E23.39868
G1 X109.608 Y102.147 E23.48269
G1 X109.608 Y105.711 E23.5667
G1 X112.694 Y107.493 E23.65071
G1 F2100 E22.15071
G0 F9000 X112.594 Y107.665
G0 X116.302 Y106.036
G0 X119.096 Y107.665
G0 X120.421 Y107.665
G0 X123.214 Y106.035
G0 X126.008 Y107.665
G0 X127.296 Y107.665
G0 X130.089 Y106.036
G0 X133.362 Y107.665
G1 F2100 E23.65071
G0 F9000 X133.462 Y107.493
G1 F2100 X136.548 Y105.711 E23.73471
G1 X136.548 Y102.147 E23.81873
G1 X133.462 Y100.365 E23.90273
G1 X130.376 Y102.147 E23.98673
G1 X130.376 Y105.711 E24.07075
G1 X133.462 Y107.493 E24.15475
G1 F2100 E22.65475
G0 F9000 X133.362 Y107.665
G0 X130.089 Y106.036
G0 X126.487 Y107.666
G1 F2100 E24.15475
G0 F9000 X126.587 Y107.494
G1 F2100 X129.673 Y105.711 E24.23877
G1 X129.673 Y102.147 E24.32278
G1 X126.587 Y100.365 E24.40679
G1 X123.5 Y102.147 E24.49081
G1 X123.5 Y105.711 E24.57483
G1 X126.587 Y107.494 E24.65886
G1 F2100 E23.15886
G0 F9000 X126.487 Y107.666
G0 X126.434 Y111.615
G0 X123.366 Y113.582
G0 X123.366 Y117.302
G0 X126.434 Y119.461
G0 X126.434 Y123.18
G0 X123.114 Y125.058
G1 F2100 E24.65886
G0 F9000 X123.214 Y124.886
G1 F2100 X126.3 Y123.103 E24.74288
G1 X126.3 Y119.539 E24.82689
G1 X123.214 Y117.757 E24.9109
G1 X120.127 Y119.539 E24.99492
G1 X120.127 Y123.103 E25.07894
G1 X123.214 Y124.886 E25.16297
G1 F2100 E23.66297
G0 F9000 X123.114 Y125.058
G0 X126.651 Y123.565
G0 X129.989 Y125.058
G1 F2100 E25.16297
G0 F9000 X130.089 Y124.886
G1 F2100 X133.176 Y123.103 E25.24701
G1 X133.176 Y119.539 E25.33102
G1 X130.089 Y117.757 E25.41505
G1 X127.002 Y119.539 E25.49907
G1 X127.002 Y123.103 E25.58309
G1 X130.089 Y124.886 E25.66712
G1 F2100 E24.16712
G0 F9000 X129.989 Y125.058
G0 X133.31 Y123.181
G0 X133.362 Y119.178
G1 F2100 E25.66712
G0 F9000 X133.462 Y119.006
G1 F2100 X136.548 Y117.224 E25.75113
G1 X136.548 Y113.66 E25.83514
G1 X133.462 Y111.878 E25.91915
G1 X130.376 Y113.66 E26.00315
G1 X130.376 Y117.224 E26.08717
G1 X133.462 Y119.006 E26.17117
G1 F2100 E24.67117
G0 F9000 X133.362 Y119.178
G0 X130.242 Y117.302
G0 X129.99 Y113.491
G1 F2100 E26.17117
G0 F9000 X130.089 Y113.319
G1 F2100 X133.176 Y111.537 E26.25519
G1 X133.176 Y107.973 E26.33921
G1 X130.089 Y106.191 E26.42323
G1 X127.002 Y107.973 E26.50726
G1 X127.002 Y111.537 E26.59127
G1 X130.089 Y113.319 E26.6753
G1 F2100 E25.1753
G0 F9000 X129.99 Y113.491
G0 X129.807 Y117.301
G0 X126.487 Y119.179
G1 F2100 E26.6753
G0 F9000 X126.587 Y119.007
G1 F2100 X129.673 Y117.224 E26.75931
G1 X129.673 Y113.66 E26.84333
G1 X126.587 Y111.878 E26.92733
G1 X123.5 Y113.66 E27.01136
G1 X123.5 Y117.224 E27.09537
G1 X126.587 Y119.007 E27.17941
G1 F2100 E25.67941
G0 F9000 X126.487 Y119.179
G0 X123.366 Y117.302
G0 X123.115 Y113.491
G1 F2100 E27.17941
G0 F9000 X123.214 Y113.319
G1 F2100 X126.3 Y111.537 E27.26341
G1 X126.3 Y107.973 E27.34743
G1 X123.214 Y106.19 E27.43144
G1 X120.127 Y107.973 E27.51548
G1 X120.127 Y111.537 E27.59949
G1 X123.214 Y113.319 E27.68352
G1 F2100 E26.18352
G0 F9000 X123.115 Y113.491
G0 X119.993 Y111.615
G0 X119.632 Y107.665
G1 F2100 E27.68352
G0 F9000 X119.731 Y107.493
G1 F2100 X122.817 Y105.711 E27.76752
G1 X122.817 Y102.147 E27.85154
G1 X119.731 Y100.365 E27.93554
G1 X116.643 Y102.146 E28.01957
G1 X116.643 Y105.712 E28.10363
G1 X119.731 Y107.493 E28.18767
G0 F9000 X119.632 Y107.665
G0 X119.523 Y111.615
G0 X116.181 Y113.711
;TYPE:WALL-INNER
G1 F2100 X116.243 Y113.747 E28.18936
G1 X116.243 Y117.329 E28.2738
G1 X116.181 Y117.365 E28.27549
G1 X116.181 Y113.711 E28.28959
G0 F9000 X116.302 Y113.319
;TYPE:WALL-OUTER
G1 F2100 X119.389 Y111.537 E28.37361
G1 X119.389 Y107.973 E28.45763
