;FLAVOR:Marlin
;TIME:6228
;Filament used: 4.3551m
;Layer height: 0.2
;MINX:74.5
;MINY:44.198
;MINZ:0.2
;MAXX:150.5
;MAXY:199.56
;MAXZ:19
;Generated with Cura_SteamEngine 4.12.1
M82 ;absolute extrusion mode
; Ender 3 Custom Start G-code
M117 Getting the bed up to temp!
M140 S50 ; Set Heat Bed temperature
M190 S50 ; Wait for Heat Bed temperature
M117 Pre-heating the extruder!
M104 S175; start warming extruder to 160
G28 ; Home all axes
M117 Auto bed-level GO!
G29 ; Auto bed-level (BL-Touch)
G92 E0 ; Reset Extruder
M117 Getting the extruder up to temp!
M104 S200 ; Set Extruder temperature
M109 S200 ; Wait for Extruder temperature
G1 Z2.0 F3000 ; move z up little to prevent scratching of surface
G1 X0.1 Y20 Z0.3 F5000.0 ; move to start-line position
M117 LET THE PURGE BEGIN!
G1 X0.1 Y200.0 Z0.3 F1500.0 E15 ; draw 1st line
G1 X0.4 Y200.0 Z0.3 F5000.0 ; move to side a little
G1 X0.4 Y20 Z0.3 F1500.0 E30 ; draw 2nd line
G92 E0 ; reset extruder
G1 Z1.0 F3000 ; move z up little to prevent scratching of surface
G1 X5 Y20 Z0.3 F5000.0 ; Move over to prevent blob squish
M117 Autobots! Roll Out!
; End of custom start GCode
G92 E0
G92 E0
G1 F2700 E-5
;LAYER_COUNT:70
;LAYER:0
M107
G0 F6000 X76.497 Y48.901 Z0.2
;TYPE:SKIRT
G1 F2700 E0
G1 F1200 X77.067 Y48.156 E0.0312
G1 X77.699 Y47.462 E0.06242
G1 X78.387 Y46.825 E0.0936
G1 X79.127 Y46.249 E0.12479
G1 X79.913 Y45.737 E0.15599
G1 X80.74 Y45.295 E0.18718
G1 X81.602 Y44.925 E0.21838
G1 X82.492 Y44.629 E0.24958
G1 X83.404 Y44.411 E0.28077
G1 X84.331 Y44.27 E0.31195
G1 X85.202 Y44.211 E0.34099
G1 X85.523 Y44.202 E0.35167
G1 X85.831 Y44.198 E0.36191
G1 X138.792 Y44.198 E2.1234
G1 X139.648 Y44.209 E2.15188
G1 X140.584 Y44.263 E2.18306
G1 X141.512 Y44.395 E2.21424
G1 X142.426 Y44.607 E2.24544
G1 X143.318 Y44.896 E2.27663
G1 X144.183 Y45.259 E2.30783
G1 X145.013 Y45.695 E2.33901
G1 X145.804 Y46.2 E2.37023
G1 X146.548 Y46.771 E2.40142
G1 X147.241 Y47.403 E2.43261
G1 X147.878 Y48.091 E2.4638
G1 X148.453 Y48.832 E2.49499
G1 X148.964 Y49.618 E2.52618
G1 X149.406 Y50.446 E2.55739
G1 X149.775 Y51.308 E2.58858
G1 X150.07 Y52.198 E2.61977
G1 X150.288 Y53.11 E2.65095
G1 X150.428 Y54.038 E2.68217
G1 X150.486 Y54.899 E2.71087
G1 X150.495 Y55.219 E2.72152
G1 X150.499 Y55.528 E2.7318
G1 X150.498 Y85.898 E3.74191
G1 X150.489 Y86.625 E3.76609
G1 X150.438 Y87.562 E3.7973
G1 X150.306 Y88.49 E3.82848
G1 X150.097 Y89.404 E3.85966
G1 X149.81 Y90.297 E3.89086
G1 X149.448 Y91.163 E3.92208
G1 X149.014 Y91.994 E3.95326
G1 X148.51 Y92.785 E3.98445
G1 X147.941 Y93.53 E4.01563
G1 X147.31 Y94.225 E4.04685
G1 X146.623 Y94.863 E4.07804
G1 X145.884 Y95.44 E4.10922
G1 X145.098 Y95.952 E4.14042
G1 X144.272 Y96.395 E4.17159
G1 X143.41 Y96.767 E4.20282
G1 X142.521 Y97.063 E4.23399
G1 X141.609 Y97.283 E4.26519
G1 X140.682 Y97.424 E4.29638
G1 X139.798 Y97.485 E4.32585
G1 X139.477 Y97.494 E4.33653
G1 X139.169 Y97.498 E4.34677
G1 X86.066 Y97.497 E6.11299
G1 X85.368 Y97.488 E6.1362
G1 X84.432 Y97.436 E6.16738
G1 X83.503 Y97.304 E6.19859
G1 X82.589 Y97.094 E6.22978
G1 X81.696 Y96.807 E6.26098
G1 X80.831 Y96.444 E6.29218
G1 X80 Y96.01 E6.32336
G1 X79.209 Y95.506 E6.35456
G1 X78.464 Y94.936 E6.38576
G1 X77.77 Y94.305 E6.41696
G1 X77.133 Y93.618 E6.44812
G1 X76.556 Y92.878 E6.47933
G1 X76.044 Y92.092 E6.51053
G1 X75.601 Y91.265 E6.54173
G1 X75.23 Y90.404 E6.57291
G1 X74.934 Y89.514 E6.60411
G1 X74.715 Y88.602 E6.6353
G1 X74.574 Y87.675 E6.66649
G1 X74.514 Y86.786 E6.69613
G1 X74.505 Y86.453 E6.70721
G1 X74.501 Y86.156 E6.71708
G1 X74.502 Y55.723 E7.72929
G1 X74.511 Y55.058 E7.75141
G1 X74.564 Y54.122 E7.78259
G1 X74.696 Y53.193 E7.8138
G1 X74.907 Y52.279 E7.845
G1 X75.195 Y51.387 E7.87618
G1 X75.558 Y50.522 E7.90738
G1 X75.993 Y49.691 E7.93857
G1 X76.497 Y48.901 E7.96974
G0 F6000 X76.893 Y49.033
G1 F1200 X77.462 Y48.309 E8.00037
G1 X78.09 Y47.637 E8.03096
G1 X78.775 Y47.021 E8.0616
G1 X79.511 Y46.468 E8.09222
G1 X80.292 Y45.98 E8.12285
G1 X81.112 Y45.562 E8.15346
G1 X81.966 Y45.217 E8.1841
G1 X82.846 Y44.947 E8.21471
G1 X83.746 Y44.755 E8.24532
G1 X84.66 Y44.641 E8.27596
G1 X85.213 Y44.611 E8.29438
G1 X85.534 Y44.602 E8.30506
G1 X85.831 Y44.598 E8.31493
G1 X138.792 Y44.598 E10.07642
G1 X139.642 Y44.609 E10.1047
G1 X140.561 Y44.662 E10.13532
G1 X141.472 Y44.795 E10.16594
G1 X142.368 Y45.006 E10.19655
G1 X143.242 Y45.294 E10.22716
G1 X144.089 Y45.657 E10.25781
G1 X144.9 Y46.092 E10.28842
G1 X145.67 Y46.596 E10.31903
G1 X146.394 Y47.165 E10.34965
G1 X147.066 Y47.795 E10.38029
G1 X147.681 Y48.48 E10.41091
G1 X148.234 Y49.216 E10.44153
G1 X148.721 Y49.997 E10.47214
G1 X149.138 Y50.818 E10.50277
G1 X149.483 Y51.672 E10.5334
G1 X149.752 Y52.552 E10.56401
G1 X149.944 Y53.453 E10.59465
G1 X150.057 Y54.366 E10.62525
G1 X150.086 Y54.91 E10.64337
G1 X150.095 Y55.23 E10.65401
G1 X150.099 Y55.528 E10.66393
G1 X150.098 Y85.893 E11.67387
G1 X150.089 Y86.62 E11.69805
G1 X150.038 Y87.539 E11.72866
G1 X149.907 Y88.451 E11.75931
G1 X149.697 Y89.347 E11.78992
G1 X149.411 Y90.222 E11.82054
G1 X149.05 Y91.069 E11.85116
G1 X148.616 Y91.881 E11.88178
G1 X148.114 Y92.653 E11.91241
G1 X147.546 Y93.378 E11.94304
G1 X146.918 Y94.051 E11.97366
G1 X146.234 Y94.667 E12.00427
G1 X145.499 Y95.221 E12.03489
G1 X144.719 Y95.71 E12.06551
G1 X143.899 Y96.129 E12.09613
G1 X143.046 Y96.475 E12.12675
G1 X142.166 Y96.746 E12.15738
G1 X141.266 Y96.939 E12.18799
G1 X140.352 Y97.054 E12.21863
G1 X139.787 Y97.085 E12.23745
G1 X139.466 Y97.094 E12.24813
G1 X139.169 Y97.098 E12.25801
G1 X86.071 Y97.097 E14.02406
G1 X85.373 Y97.088 E14.04727
G1 X84.454 Y97.036 E14.07789
G1 X83.543 Y96.905 E14.1085
G1 X82.647 Y96.695 E14.13911
G1 X81.772 Y96.408 E14.16974
G1 X80.925 Y96.046 E14.20037
G1 X80.113 Y95.612 E14.231
G1 X79.342 Y95.11 E14.2616
G1 X78.617 Y94.542 E14.29223
G1 X77.944 Y93.913 E14.32287
G1 X77.329 Y93.229 E14.35346
G1 X76.775 Y92.494 E14.38407
G1 X76.287 Y91.713 E14.4147
G1 X75.868 Y90.893 E14.44533
G1 X75.522 Y90.04 E14.47595
G1 X75.252 Y89.16 E14.50656
G1 X75.059 Y88.259 E14.53721
G1 X74.945 Y87.346 E14.56781
G1 X74.914 Y86.775 E14.58683
G1 X74.905 Y86.442 E14.59791
G1 X74.901 Y86.156 E14.60743
G1 X74.902 Y55.729 E15.61943
G1 X74.911 Y55.064 E15.64155
G1 X74.963 Y54.144 E15.6722
G1 X75.095 Y53.233 E15.70282
G1 X75.306 Y52.337 E15.73343
G1 X75.593 Y51.462 E15.76406
G1 X75.956 Y50.616 E15.79468
G1 X76.39 Y49.804 E15.8253
G1 X76.893 Y49.033 E15.85592
G0 F6000 X77.289 Y49.169
G1 F1200 X77.856 Y48.465 E15.88599
G1 X78.482 Y47.815 E15.916
G1 X79.163 Y47.222 E15.94603
G1 X79.895 Y46.692 E15.97609
G1 X80.67 Y46.229 E16.00612
G1 X81.483 Y45.836 E16.03615
G1 X82.328 Y45.516 E16.06621
G1 X83.197 Y45.273 E16.09622
G1 X84.085 Y45.107 E16.12626
G1 X85.224 Y45.011 E16.16428
G1 X85.545 Y45.002 E16.17496
G1 X85.831 Y44.998 E16.18448
G1 X138.792 Y44.998 E17.94597
G1 X139.636 Y45.009 E17.97404
G1 X140.538 Y45.062 E18.00409
G1 X141.431 Y45.194 E18.03412
G1 X142.309 Y45.405 E18.06415
G1 X143.165 Y45.693 E18.09419
G1 X143.992 Y46.055 E18.12421
G1 X144.784 Y46.49 E18.15427
G1 X145.535 Y46.992 E18.18431
G1 X146.238 Y47.559 E18.21435
G1 X146.888 Y48.186 E18.24439
G1 X147.48 Y48.868 E18.27443
G1 X148.01 Y49.599 E18.30446
G1 X148.472 Y50.375 E18.3345
G1 X148.865 Y51.188 E18.36453
G1 X149.183 Y52.033 E18.39456
G1 X149.426 Y52.903 E18.4246
G1 X149.591 Y53.791 E18.45464
G1 X149.686 Y54.921 E18.49236
G1 X149.695 Y55.241 E18.50301
G1 X149.699 Y55.528 E18.51255
G1 X149.698 Y85.888 E19.52233
G1 X149.689 Y86.615 E19.54651
G1 X149.638 Y87.517 E19.57656
G1 X149.507 Y88.411 E19.60662
G1 X149.298 Y89.289 E19.63663
G1 X149.012 Y90.146 E19.66668
G1 X148.651 Y90.974 E19.69673
G1 X148.219 Y91.766 E19.72673
G1 X147.718 Y92.518 E19.75679
G1 X147.152 Y93.222 E19.78683
G1 X146.527 Y93.873 E19.81685
G1 X145.846 Y94.467 E19.8469
G1 X145.115 Y94.998 E19.87695
G1 X144.341 Y95.462 E19.90697
G1 X143.528 Y95.856 E19.93702
G1 X142.684 Y96.176 E19.96704
G1 X141.814 Y96.421 E19.9971
G1 X140.927 Y96.587 E20.02711
G1 X139.776 Y96.685 E20.06553
G1 X139.455 Y96.694 E20.07621
G1 X139.169 Y96.698 E20.08573
G1 X86.076 Y96.697 E21.85161
G1 X85.378 Y96.688 E21.87483
G1 X84.477 Y96.637 E21.90484
G1 X83.583 Y96.505 E21.9349
G1 X82.705 Y96.296 E21.96492
G1 X81.848 Y96.009 E21.99498
G1 X81.021 Y95.648 E22.02499
G1 X80.228 Y95.215 E22.05504
G1 X79.477 Y94.714 E22.08507
G1 X78.773 Y94.148 E22.11511
G1 X78.122 Y93.522 E22.14515
G1 X77.529 Y92.841 E22.17518
G1 X76.999 Y92.11 E22.20521
G1 X76.535 Y91.335 E22.23526
G1 X76.141 Y90.522 E22.26531
G1 X75.821 Y89.678 E22.29533
G1 X75.577 Y88.808 E22.32538
G1 X75.411 Y87.92 E22.35543
G1 X75.314 Y86.765 E22.39398
G1 X75.305 Y86.432 E22.40506
G1 X75.301 Y86.156 E22.41424
G1 X75.302 Y55.734 E23.42608
G1 X75.311 Y55.069 E23.4482
G1 X75.363 Y54.167 E23.47825
G1 X75.495 Y53.274 E23.50827
G1 X75.705 Y52.396 E23.5383
G1 X75.992 Y51.539 E23.56836
G1 X76.354 Y50.712 E23.59838
G1 X76.787 Y49.92 E23.62841
G1 X77.289 Y49.169 E23.65845
G1 F2700 E18.65845
;MESH:Base-v2.stl
G0 F6000 X103.405 Y60.913
G0 X101.953 Y60.074
G0 X105.633 Y58.479
G0 X108.854 Y60.339
G0 X109.27 Y64.057
G0 X112.49 Y65.918
G0 X115.993 Y64.306
G0 X119.481 Y66.16
;TYPE:WALL-INNER
G1 F2700 E23.65845
G1 F1200 X122.854 Y64.212 E23.788
G1 X122.854 Y60.186 E23.92191
G1 X119.367 Y58.172 E24.05584
G1 X115.929 Y60.158 E24.1879
G1 X112.875 Y58.394 E24.3052
G1 X112.487 Y58.174 E24.32004
G1 X109.062 Y60.152 E24.45158
G1 X105.633 Y58.172 E24.58328
G1 X102.146 Y60.186 E24.71721
G1 X102.146 Y64.211 E24.85109
G1 X105.63 Y66.224 E24.98492
G1 X105.63 Y69.689 E25.10016
G1 X102.146 Y71.7 E25.23396
G1 X102.146 Y75.726 E25.36786
G1 X105.63 Y77.738 E25.50168
G1 X105.63 Y81.606 E25.63033
G1 X109.118 Y83.62 E25.76429
G1 X112.556 Y81.635 E25.89633
G1 X115.993 Y83.621 E26.02836
G1 X119.481 Y81.607 E26.16232
G1 X119.481 Y77.674 E26.29313
G1 X122.854 Y75.727 E26.42266
G1 X122.854 Y71.701 E26.55657
G1 X119.481 Y69.753 E26.68612
G1 X119.481 Y66.16 E26.80562
G0 F6000 X119.367 Y65.764
;TYPE:WALL-OUTER
G1 F1200 X122.454 Y63.981 E26.92419
G1 X122.454 Y60.417 E27.04273
G1 X119.367 Y58.634 E27.1613
G1 X116.28 Y60.417 E27.27987
G1 X116.28 Y63.98 E27.39838
G1 X119.367 Y65.764 E27.51697
G1 F2700 E22.51697
G0 F6000 X119.267 Y65.936
G0 X119.215 Y69.886
G0 X116.146 Y71.853
G0 X116.146 Y75.573
G0 X119.215 Y77.734
G0 X119.215 Y81.454
G0 X118.302 Y81.981
G0 X115.893 Y83.331
G1 F2700 E27.51697
G0 F6000 X115.993 Y83.159
G1 F1200 X119.081 Y81.376 E27.63556
G1 X119.081 Y77.812 E27.7541
G1 X115.993 Y76.029 E27.8727
G1 X112.906 Y77.812 E27.99127
G1 X112.906 Y81.375 E28.10978
G1 X115.993 Y83.159 E28.22836
G1 F2700 E23.22836
G0 F6000 X115.893 Y83.331
G0 X119.215 Y81.454
G0 X119.267 Y77.45
G1 F2700 E28.22836
G0 F6000 X119.367 Y77.278
G1 F1200 X122.454 Y75.496 E28.34692
G1 X122.454 Y71.932 E28.46546
G1 X119.367 Y70.149 E28.58403
G1 X116.28 Y71.931 E28.70258
G1 X116.28 Y75.495 E28.82112
G1 X119.367 Y77.278 E28.93969
G1 F2700 E23.93969
G0 F6000 X119.267 Y77.45
G0 X116.146 Y75.573
G0 X115.893 Y71.763
G1 F2700 E28.93969
G0 F6000 X115.993 Y71.591
G1 F1200 X119.081 Y69.808 E29.05829
G1 X119.081 Y66.244 E29.17683
G1 X115.993 Y64.461 E29.29542
G1 X112.906 Y66.244 E29.41399
G1 X112.906 Y69.807 E29.5325
G1 X115.993 Y71.591 E29.65109
G1 F2700 E24.65109
G0 F6000 X115.893 Y71.763
G0 X112.772 Y69.884
G0 X112.39 Y65.935
G1 F2700 E29.65109
G0 F6000 X112.49 Y65.763
G1 F1200 X115.578 Y63.982 E29.76965
G1 X115.578 Y60.417 E29.88822
G1 X112.677 Y58.741 E29.99966
G1 X112.489 Y58.635 E30.00683
G1 X109.404 Y60.417 E30.12533
G1 X109.404 Y63.98 E30.24384
G1 X112.49 Y65.763 E30.36238
G1 F2700 E25.36238
G0 F6000 X112.39 Y65.935
G0 X109.118 Y64.306
G0 X105.533 Y65.936
G1 F2700 E30.36238
G0 F6000 X105.633 Y65.764
G1 F1200 X108.72 Y63.981 E30.48095
G1 X108.72 Y60.417 E30.59949
G1 X105.633 Y58.634 E30.71806
G1 X102.546 Y60.417 E30.83662
G1 X102.546 Y63.98 E30.95513
G1 X105.633 Y65.764 E31.07372
G1 F2700 E26.07372
G0 F6000 X105.533 Y65.936
G0 X105.533 Y70.051
G0 X102.412 Y71.853
G0 X102.412 Y75.573
G0 X105.533 Y77.45
G1 F2700 E31.07372
G0 F6000 X105.633 Y77.278
G1 F1200 X108.72 Y75.496 E31.19227
G1 X108.72 Y71.932 E31.31081
G1 X105.633 Y70.149 E31.42938
G1 X102.546 Y71.931 E31.54793
G1 X102.546 Y75.495 E31.66647
G1 X105.633 Y77.278 E31.78504
G1 F2700 E26.78504
G0 F6000 X105.533 Y77.45
G0 X108.854 Y75.574
G0 X109.018 Y71.763
G1 F2700 E31.78504
G0 F6000 X109.118 Y71.591
G1 F1200 X112.204 Y69.808 E31.90358
G1 X112.204 Y66.243 E32.02215
G1 X109.118 Y64.461 E32.14068
G1 X106.03 Y66.241 E32.25923
G1 X106.03 Y69.807 E32.37783
G1 X109.118 Y71.591 E32.49645
G1 F2700 E27.49645
G0 F6000 X109.018 Y71.763
G0 X109.27 Y75.572
G0 X112.39 Y77.45
G1 F2700 E32.49645
G0 F6000 X112.49 Y77.278
G1 F1200 X115.578 Y75.497 E32.61501
G1 X115.578 Y71.932 E32.73359
G1 X112.49 Y70.149 E32.85218
G1 X109.404 Y71.931 E32.97071
G1 X109.404 Y75.495 E33.08925
G1 X112.49 Y77.278 E33.20779
G1 F2700 E28.20779
G0 F6000 X112.39 Y77.45
G0 X112.338 Y81.454
G0 X111.426 Y81.98
G0 X109.018 Y83.33
G1 F2700 E33.20779
G0 F6000 X109.118 Y83.158
G1 F1200 X112.204 Y81.376 E33.32631
G1 X112.204 Y77.812 E33.44485
G1 X109.118 Y76.029 E33.56339
G1 X106.03 Y77.81 E33.68196
G1 X106.03 Y81.375 E33.80053
G1 X109.118 Y83.158 E33.91913
G1 F2700 E28.91913
G0 F6000 X109.017 Y83.329
G0 X112.556 Y81.838
G0 X115.993 Y83.314
G0 X119.674 Y81.719
G0 X118.222 Y80.881
G0 X119.674 Y87.163
G0 X119.674 Y85.688
G0 X138.899 Y85.898
;TYPE:WALL-INNER
G1 F2700 E33.91913
G1 F1200 X86.101 Y85.898 E35.6752
G1 X86.101 Y55.798 E36.67633
G1 X138.899 Y55.798 E38.4324
G1 X138.899 Y85.898 E39.43353
G0 F6000 X139.299 Y86.298
;TYPE:WALL-OUTER
G1 F1200 X85.701 Y86.298 E41.2162
G1 X85.701 Y55.398 E42.24394
G1 X139.299 Y55.398 E44.02662
G1 X139.299 Y86.298 E45.05436
G0 F6000 X139.129 Y86.128
G0 X138.789 Y85.508
G0 X138.509 Y85.508
;TYPE:SKIN
G1 F1200 X86.491 Y85.508 E46.78448
G1 X86.491 Y56.188 E47.75967
G1 X138.509 Y56.188 E49.4898
G1 X138.509 Y85.508 E50.46498
G1 F2700 E45.46498
G0 F6000 X138.789 Y85.508
G0 X138.689 Y75.798
G0 X140.164 Y75.798
G0 X121.595 Y75.001
G0 X123.044 Y75.798
G1 F2700 E50.46498
G0 F6000 X123.244 Y75.952
G1 F1200 X123.244 Y71.476 E50.61385
G1 X119.871 Y69.528 E50.74341
G1 X119.871 Y66.385 E50.84794
G1 X123.244 Y64.437 E50.97749
G1 X123.244 Y59.961 E51.12637
G1 X119.367 Y57.722 E51.27528
G1 X115.929 Y59.707 E51.40731
G1 X113.068 Y58.055 E51.5172
G1 X112.485 Y57.725 E51.53948
G1 X109.062 Y59.701 E51.67093
G1 X105.633 Y57.722 E51.80262
G1 X101.756 Y59.961 E51.95152
G1 X101.756 Y64.436 E52.10036
G1 X105.24 Y66.449 E52.23419
G1 X105.24 Y69.464 E52.33447
G1 X101.756 Y71.475 E52.46827
G1 X101.756 Y75.951 E52.61714
G1 X105.24 Y77.963 E52.75095
G1 X105.24 Y81.831 E52.8796
G1 X109.118 Y84.07 E53.02854
G1 X112.556 Y82.086 E53.16056
G1 X115.993 Y84.071 E53.29257
G1 X119.871 Y81.832 E53.44151
G1 X119.871 Y77.899 E53.57232
G1 X123.244 Y75.952 E53.70186
G1 F2700 E48.70186
G0 F6000 X122.964 Y75.798
G0 X123.047 Y71.589
G0 X121.595 Y72.427
G0 X140.164 Y71.589
G0 X138.689 Y71.589
G0 X138.789 Y56.889
G1 F2700 E53.70186
G0 F6000 X138.348 Y56.889
G1 F1200 X137.806 Y56.347 E53.72735
G0 F6000 X137.24 Y56.347
G1 F1200 X138.348 Y57.455 E53.77947
G0 F6000 X138.348 Y58.02
G1 F1200 X136.675 Y56.347 E53.85816
G0 F6000 X136.109 Y56.347
G1 F1200 X138.348 Y58.586 E53.96348
G0 F6000 X138.348 Y59.152
G1 F1200 X135.543 Y56.347 E54.09542
G0 F6000 X134.978 Y56.347
G1 F1200 X138.348 Y59.717 E54.25393
G0 F6000 X138.348 Y60.283
G1 F1200 X134.412 Y56.347 E54.43907
G0 F6000 X133.846 Y56.347
G1 F1200 X138.348 Y60.849 E54.65083
G0 F6000 X138.348 Y61.415
G1 F1200 X133.281 Y56.347 E54.88919
G0 F6000 X132.715 Y56.347
G1 F1200 X138.348 Y61.98 E55.15415
G0 F6000 X138.348 Y62.546
G1 F1200 X132.149 Y56.347 E55.44573
G0 F6000 X131.584 Y56.347
G1 F1200 X138.348 Y63.112 E55.76391
G0 F6000 X138.348 Y63.677
G1 F1200 X131.018 Y56.347 E56.10869
G0 F6000 X130.452 Y56.347
G1 F1200 X138.348 Y64.243 E56.4801
G0 F6000 X138.348 Y64.809
G1 F1200 X129.887 Y56.347 E56.8781
G0 F6000 X129.321 Y56.347
G1 F1200 X138.348 Y65.374 E57.3027
G0 F6000 X138.348 Y65.94
G1 F1200 X128.755 Y56.347 E57.75393
G0 F6000 X128.189 Y56.347
G1 F1200 X138.348 Y66.506 E58.23177
G0 F6000 X138.348 Y67.071
G1 F1200 X127.624 Y56.347 E58.7362
G0 F6000 X127.058 Y56.347
