;FLAVOR:Marlin
;TIME:2325
;Filament used: 1.79621m
;Layer height: 0.2
;MINX:80
;MINY:96.501
;MINZ:0.2
;MAXX:154.989
;MAXY:138.499
;MAXZ:9.8
;Generated with Cura_SteamEngine 4.8.0
M82 ;absolute extrusion mode
; Ender 3 Custom Start G-code
M117 Getting the bed up to temp!
M140 S50 ; Set Heat Bed temperature
M190 S50 ; Wait for Heat Bed temperature
M117 Pre-heating the extruder!
M104 S175; start warming extruder to 160
G28 ; Home all axes
M117 Auto bed-level GO!
G29 ; Auto bed-level (BL-Touch)
M420 S1;
G92 E0 ; Reset Extruder
M117 Getting the extruder up to temp!
M104 S190 ; Set Extruder temperature
M109 S190 ; Wait for Extruder temperature
G1 Z2.0 F3000 ; move z up little to prevent scratching of surface
G1 X0.1 Y20 Z0.3 F5000.0 ; move to start-line position
M117 LET THE PURGE BEGIN!
G1 X0.1 Y200.0 Z0.3 F1500.0 E15 ; draw 1st line
G1 X0.4 Y200.0 Z0.3 F5000.0 ; move to side a little
G1 X0.4 Y20 Z0.3 F1500.0 E30 ; draw 2nd line
G92 E0 ; reset extruder
G1 Z1.0 F3000 ; move z up little to prevent scratching of surface
G1 X5 Y20 Z0.3 F5000.0 ; Move over to prevent blob squish
M117 Autobots! Roll Out!
; End of custom start GCode
G92 E0
G92 E0
G1 F2700 E-5
;LAYER_COUNT:49
;LAYER:0
M107
G0 F6000 X84.082 Y99.229 Z0.2
;TYPE:SKIRT
G1 F2700 E0
G1 F1200 X84.822 Y98.653 E0.03119
G1 X85.609 Y98.142 E0.0624
G1 X86.614 Y97.617 E0.10011
G1 X86.819 Y97.523 E0.10761
G1 X87.688 Y97.169 E0.13882
G1 X88.508 Y96.91 E0.16742
G1 X89.422 Y96.699 E0.19862
G1 X90.35 Y96.567 E0.2298
G1 X91.055 Y96.52 E0.2533
G1 X91.375 Y96.509 E0.26395
G1 X91.7 Y96.503 E0.27476
G1 X92.113 Y96.501 E0.2885
G1 X137.988 Y96.501 E1.81431
G1 X138.24 Y96.504 E1.82269
G1 X138.763 Y96.516 E1.84009
G1 X139.099 Y96.529 E1.85127
G1 X139.267 Y96.538 E1.85687
G1 X139.736 Y96.573 E1.87251
G1 X140.026 Y96.601 E1.8822
G1 X140.955 Y96.731 E1.9134
G1 X141.679 Y96.889 E1.93805
G1 X142.281 Y97.042 E1.95871
G1 X143.179 Y97.311 E1.98988
G1 X143.793 Y97.546 E2.01175
G1 X143.959 Y97.615 E2.01773
G1 X144.414 Y97.816 E2.03427
G1 X144.712 Y97.956 E2.04522
G1 X145.863 Y98.583 E2.08882
G1 X146.3 Y98.856 E2.10596
G1 X146.931 Y99.281 E2.13126
G1 X147.164 Y99.45 E2.14083
G1 X147.747 Y99.904 E2.16541
G1 X148.044 Y100.157 E2.17839
G1 X148.361 Y100.438 E2.19248
G1 X149.042 Y101.097 E2.224
G1 X149.341 Y101.412 E2.23844
G1 X149.56 Y101.649 E2.24917
G1 X149.739 Y101.849 E2.2581
G1 X150.196 Y102.395 E2.28178
G1 X150.349 Y102.59 E2.29003
G1 X150.62 Y102.95 E2.30501
G1 X150.852 Y103.272 E2.31821
G1 X151.237 Y103.844 E2.34115
G1 X151.556 Y104.351 E2.36107
G1 X151.753 Y104.676 E2.37371
G1 X151.927 Y104.975 E2.38522
G1 X152.21 Y105.493 E2.40485
G1 X152.336 Y105.739 E2.41404
G1 X152.446 Y105.96 E2.42225
G1 X152.646 Y106.373 E2.43751
G1 X152.816 Y106.741 E2.451
G1 X152.914 Y106.964 E2.4591
G1 X153.074 Y107.347 E2.4729
G1 X153.174 Y107.6 E2.48195
G1 X153.32 Y107.99 E2.4958
G1 X153.658 Y108.95 E2.52965
G1 X153.88 Y109.655 E2.55424
G1 X154.097 Y110.435 E2.58116
G1 X154.182 Y110.761 E2.59237
G1 X154.236 Y110.981 E2.5999
G1 X154.313 Y111.318 E2.6114
G1 X154.433 Y111.883 E2.63061
G1 X154.492 Y112.178 E2.64062
G1 X154.563 Y112.564 E2.65367
G1 X154.619 Y112.898 E2.66494
G1 X154.7 Y113.43 E2.68284
G1 X154.743 Y113.749 E2.69354
G1 X154.81 Y114.296 E2.71187
G1 X154.841 Y114.573 E2.72114
G1 X154.877 Y114.945 E2.73357
G1 X154.903 Y115.267 E2.74432
G1 X154.941 Y115.832 E2.76315
G1 X154.956 Y116.108 E2.77234
G1 X154.972 Y116.489 E2.78503
G1 X154.981 Y116.781 E2.79474
G1 X154.989 Y117.3 E2.81201
G1 X154.989 Y117.632 E2.82305
G1 X154.981 Y118.176 E2.84115
G1 X154.972 Y118.474 E2.85106
G1 X154.949 Y119.023 E2.86934
G1 X154.932 Y119.329 E2.87953
G1 X154.908 Y119.673 E2.891
G1 X154.883 Y119.971 E2.90095
G1 X154.825 Y120.568 E2.9209
G1 X154.792 Y120.868 E2.93093
G1 X154.745 Y121.244 E2.94354
G1 X154.709 Y121.504 E2.95227
G1 X154.636 Y121.993 E2.96871
G1 X154.578 Y122.346 E2.98061
G1 X154.481 Y122.877 E2.99856
G1 X154.422 Y123.174 E3.00864
G1 X154.347 Y123.529 E3.0207
G1 X154.277 Y123.839 E3.03127
G1 X154.139 Y124.41 E3.05081
G1 X154.044 Y124.777 E3.06342
G1 X154 Y124.935 E3.06888
G1 X153.909 Y125.244 E3.07959
G1 X153.666 Y126.027 E3.10686
G1 X153.425 Y126.72 E3.13126
G1 X153.073 Y127.634 E3.16384
G1 X152.929 Y127.989 E3.17658
G1 X152.733 Y128.439 E3.1929
G1 X152.619 Y128.686 E3.20195
G1 X152.422 Y129.09 E3.2169
G1 X152.169 Y129.584 E3.23536
G1 X151.862 Y130.143 E3.25657
G1 X151.681 Y130.451 E3.26846
G1 X151.521 Y130.714 E3.27869
G1 X151.352 Y130.984 E3.28929
G1 X150.984 Y131.535 E3.31133
G1 X150.641 Y132.016 E3.33098
G1 X150.466 Y132.254 E3.3408
G1 X150.337 Y132.425 E3.34793
G1 X149.845 Y133.032 E3.37391
G1 X149.674 Y133.228 E3.38256
G1 X149.368 Y133.564 E3.39768
G1 X149.094 Y133.853 E3.41093
G1 X148.426 Y134.5 E3.44186
G1 X148.125 Y134.768 E3.45526
G1 X147.871 Y134.988 E3.46644
G1 X147.65 Y135.173 E3.47602
G1 X146.877 Y135.763 E3.50837
G1 X146.755 Y135.848 E3.51331
G1 X146.315 Y136.14 E3.53088
G1 X145.99 Y136.344 E3.54364
G1 X144.898 Y136.946 E3.58511
G1 X144.41 Y137.18 E3.60311
G1 X143.237 Y137.661 E3.64528
G1 X142.97 Y137.753 E3.65467
G1 X142.164 Y137.997 E3.68268
G1 X141.888 Y138.069 E3.69217
G1 X140.971 Y138.267 E3.72337
G1 X140.258 Y138.365 E3.74731
G1 X139.676 Y138.426 E3.76677
G1 X139.199 Y138.466 E3.78269
G1 X138.644 Y138.488 E3.80117
G1 X137.8 Y138.499 E3.82924
G1 X92.04 Y138.498 E5.35122
G1 X91.369 Y138.488 E5.37354
G1 X90.433 Y138.434 E5.40473
G1 X89.225 Y138.244 E5.4454
G1 X88.964 Y138.188 E5.45428
G1 X88.057 Y137.953 E5.48544
G1 X87.172 Y137.64 E5.51666
G1 X86.318 Y137.254 E5.54783
G1 X85.499 Y136.796 E5.57904
G1 X84.722 Y136.271 E5.61023
G1 X84.134 Y135.802 E5.63525
G1 X83.964 Y135.657 E5.64268
G1 X83.277 Y135.019 E5.67386
G1 X82.647 Y134.324 E5.70506
G1 X82.078 Y133.578 E5.73627
G1 X81.575 Y132.787 E5.76745
G1 X80.962 Y131.552 E5.8133
G1 X80.88 Y131.357 E5.82034
G1 X80.554 Y130.478 E5.85152
G1 X80.303 Y129.574 E5.88273
G1 X80.159 Y128.838 E5.90767
G1 X80.15 Y128.782 E5.90956
G1 X80.041 Y127.851 E5.94073
G1 X80.012 Y127.182 E5.96301
G1 X80 Y126.203 E5.99557
G1 X80.001 Y108.511 E6.58401
G1 X80.011 Y107.864 E6.60553
G1 X80.066 Y106.928 E6.63671
G1 X80.258 Y105.709 E6.67776
G1 X80.314 Y105.45 E6.68657
G1 X80.552 Y104.543 E6.71776
G1 X80.865 Y103.659 E6.74895
G1 X81.253 Y102.805 E6.78015
G1 X81.712 Y101.987 E6.81135
G1 X82.239 Y101.211 E6.84255
G1 X82.629 Y100.717 E6.86348
G1 X82.762 Y100.558 E6.87037
G1 X83.393 Y99.865 E6.90155
G1 X84.082 Y99.229 E6.93273
G0 F6000 X84.367 Y99.512
G1 F1200 X85.096 Y98.949 E6.96337
G1 X85.871 Y98.453 E6.99397
G1 X86.781 Y97.981 E7.02807
G1 X86.986 Y97.887 E7.03557
G1 X87.839 Y97.54 E7.0662
G1 X88.614 Y97.296 E7.09322
G1 X89.511 Y97.09 E7.12383
G1 X90.423 Y96.962 E7.15446
G1 X91.069 Y96.92 E7.17599
G1 X91.389 Y96.909 E7.18664
G1 X91.702 Y96.903 E7.19706
G1 X92.115 Y96.901 E7.21079
G1 X137.988 Y96.901 E8.73654
G1 X138.231 Y96.904 E8.74462
G1 X138.754 Y96.916 E8.76202
G1 X139.078 Y96.928 E8.7728
G1 X139.246 Y96.937 E8.7784
G1 X139.698 Y96.971 E8.79347
G1 X139.988 Y96.999 E8.80316
G1 X140.899 Y97.127 E8.83376
G1 X141.58 Y97.277 E8.85695
G1 X142.182 Y97.43 E8.87761
G1 X143.064 Y97.695 E8.90824
G1 X143.64 Y97.915 E8.92875
G1 X143.806 Y97.984 E8.93473
G1 X144.244 Y98.178 E8.95066
G1 X144.542 Y98.318 E8.96161
G1 X145.651 Y98.922 E9.00362
G1 X146.088 Y99.195 E9.02075
G1 X146.696 Y99.604 E9.04513
G1 X146.929 Y99.773 E9.0547
G1 X147.491 Y100.211 E9.0784
G1 X147.778 Y100.457 E9.09097
G1 X148.095 Y100.738 E9.10506
G1 X148.752 Y101.372 E9.13543
G1 X149.051 Y101.687 E9.14987
G1 X149.262 Y101.916 E9.16023
G1 X149.441 Y102.116 E9.16916
G1 X149.881 Y102.642 E9.19196
G1 X150.034 Y102.837 E9.20021
G1 X150.295 Y103.184 E9.21465
G1 X150.527 Y103.506 E9.22785
G1 X150.899 Y104.057 E9.24996
G1 X151.218 Y104.564 E9.26989
G1 X151.408 Y104.877 E9.28206
G1 X151.582 Y105.176 E9.29357
G1 X151.854 Y105.676 E9.3125
G1 X152.086 Y106.134 E9.32958
G1 X152.286 Y106.547 E9.34484
G1 X152.45 Y106.902 E9.35785
G1 X152.548 Y107.125 E9.36595
G1 X152.702 Y107.494 E9.37925
G1 X152.802 Y107.747 E9.3883
G1 X152.942 Y108.123 E9.40164
G1 X153.28 Y109.083 E9.43549
G1 X153.494 Y109.762 E9.45917
G1 X153.711 Y110.542 E9.4861
G1 X153.793 Y110.856 E9.49689
G1 X153.847 Y111.076 E9.50443
G1 X153.922 Y111.401 E9.51552
G1 X154.042 Y111.966 E9.53473
G1 X154.098 Y112.25 E9.54436
G1 X154.169 Y112.636 E9.55741
G1 X154.223 Y112.958 E9.56827
G1 X154.304 Y113.49 E9.58617
G1 X154.346 Y113.797 E9.59648
G1 X154.413 Y114.344 E9.6148
G1 X154.443 Y114.612 E9.62377
G1 X154.479 Y114.984 E9.6362
G1 X154.504 Y115.294 E9.64655
G1 X154.542 Y115.859 E9.66538
G1 X154.557 Y116.125 E9.67424
G1 X154.573 Y116.506 E9.68693
G1 X154.581 Y116.788 E9.69631
G1 X154.589 Y117.307 E9.71358
G1 X154.589 Y117.626 E9.72419
G1 X154.581 Y118.17 E9.74228
G1 X154.573 Y118.458 E9.75186
G1 X154.55 Y119.007 E9.77014
G1 X154.533 Y119.301 E9.77993
G1 X154.509 Y119.645 E9.7914
G1 X154.485 Y119.932 E9.80098
G1 X154.427 Y120.529 E9.82093
G1 X154.395 Y120.819 E9.83064
G1 X154.348 Y121.195 E9.84324
G1 X154.314 Y121.445 E9.85163
G1 X154.241 Y121.934 E9.86808
G1 X154.184 Y122.274 E9.87954
G1 X154.087 Y122.805 E9.89749
G1 X154.031 Y123.091 E9.90719
G1 X153.956 Y123.446 E9.91926
G1 X153.888 Y123.745 E9.92945
G1 X153.75 Y124.316 E9.94899
G1 X153.658 Y124.67 E9.96116
G1 X153.527 Y125.126 E9.97694
G1 X153.284 Y125.909 E10.00421
G1 X153.052 Y126.577 E10.02773
G1 X152.7 Y127.491 E10.0603
G1 X152.561 Y127.833 E10.07258
G1 X152.498 Y127.981 E10.07793
G1 X152.369 Y128.271 E10.08849
G1 X152.255 Y128.518 E10.09754
G1 X152.066 Y128.908 E10.11195
G1 X151.813 Y129.402 E10.13041
G1 X151.517 Y129.941 E10.15086
G1 X151.336 Y130.249 E10.16274
G1 X151.182 Y130.502 E10.1726
G1 X151.013 Y130.772 E10.18319
G1 X150.658 Y131.302 E10.20441
G1 X150.315 Y131.783 E10.22406
G1 X150.147 Y132.013 E10.23353
G1 X150.018 Y132.184 E10.24065
G1 X149.543 Y132.769 E10.26572
G1 X149.372 Y132.965 E10.27437
G1 X149.077 Y133.289 E10.28894
G1 X148.803 Y133.578 E10.30219
G1 X148.16 Y134.202 E10.33199
G1 X147.859 Y134.47 E10.34539
G1 X147.614 Y134.681 E10.35615
G1 X147.393 Y134.866 E10.36573
G1 X146.649 Y135.435 E10.39689
G1 X146.527 Y135.52 E10.40183
G1 X146.102 Y135.801 E10.41878
G1 X145.777 Y136.005 E10.43154
G1 X144.725 Y136.585 E10.4715
G1 X144.237 Y136.819 E10.4895
G1 X143.107 Y137.283 E10.53012
G1 X142.84 Y137.375 E10.53952
G1 X142.063 Y137.61 E10.56652
G1 X141.787 Y137.682 E10.576
G1 X140.887 Y137.875 E10.60662
G1 X140.216 Y137.967 E10.62914
G1 X139.634 Y138.028 E10.64861
G1 X139.173 Y138.067 E10.664
G1 X138.638 Y138.088 E10.6818
G1 X137.8 Y138.099 E10.70968
G1 X92.046 Y138.098 E12.23146
G1 X91.375 Y138.088 E12.25378
G1 X90.456 Y138.034 E12.2844
G1 X89.309 Y137.853 E12.32302
G1 X89.048 Y137.797 E12.3319
G1 X88.157 Y137.565 E12.36252
G1 X87.29 Y137.257 E12.39313
G1 X86.453 Y136.874 E12.42374
G1 X85.651 Y136.42 E12.45439
G1 X84.893 Y135.899 E12.48499
G1 X84.393 Y135.498 E12.5063
G1 X84.223 Y135.353 E12.51373
G1 X83.549 Y134.726 E12.54435
G1 X82.932 Y134.042 E12.57499
G1 X82.377 Y133.308 E12.6056
G1 X81.888 Y132.528 E12.63622
G1 X81.331 Y131.397 E12.67815
G1 X81.249 Y131.202 E12.68518
G1 X80.929 Y130.339 E12.7158
G1 X80.686 Y129.451 E12.74642
G1 X80.554 Y128.775 E12.76933
G1 X80.545 Y128.719 E12.77121
G1 X80.439 Y127.805 E12.80182
G1 X80.412 Y127.177 E12.82272
G1 X80.4 Y126.203 E12.85512
G1 X80.401 Y108.517 E13.44336
G1 X80.411 Y107.87 E13.46488
G1 X80.465 Y106.951 E13.4955
G1 X80.649 Y105.794 E13.53447
G1 X80.705 Y105.535 E13.54328
G1 X80.939 Y104.644 E13.57392
G1 X81.249 Y103.777 E13.60454
G1 X81.633 Y102.941 E13.63514
G1 X82.088 Y102.14 E13.66578
G1 X82.611 Y101.382 E13.69641
G1 X82.935 Y100.974 E13.71374
G1 X83.068 Y100.815 E13.72063
G1 X83.689 Y100.135 E13.75126
G1 X84.367 Y99.512 E13.78189
G0 F6000 X84.651 Y99.795
G1 F1200 X85.368 Y99.247 E13.8119
G1 X86.131 Y98.764 E13.84194
G1 X86.948 Y98.344 E13.87249
G1 X87.153 Y98.25 E13.87999
G1 X87.989 Y97.911 E13.91
G1 X88.721 Y97.681 E13.93552
G1 X89.601 Y97.48 E13.96554
G1 X90.496 Y97.357 E13.99559
G1 X91.083 Y97.32 E14.01515
G1 X91.403 Y97.309 E14.0258
G1 X91.704 Y97.303 E14.03581
G1 X92.117 Y97.301 E14.04955
G1 X137.988 Y97.301 E15.57523
G1 X138.222 Y97.304 E15.58301
G1 X138.745 Y97.316 E15.60041
G1 X139.057 Y97.328 E15.61079
G1 X139.225 Y97.337 E15.61639
G1 X139.659 Y97.369 E15.63086
G1 X139.949 Y97.397 E15.64055
G1 X140.843 Y97.524 E15.67059
G1 X141.481 Y97.664 E15.69231
G1 X142.083 Y97.817 E15.71297
G1 X142.948 Y98.078 E15.74302
G1 X143.486 Y98.284 E15.76218
G1 X143.652 Y98.353 E15.76816
G1 X144.074 Y98.54 E15.78351
G1 X144.372 Y98.68 E15.79446
G1 X145.439 Y99.261 E15.83487
G1 X145.876 Y99.534 E15.85201
G1 X146.461 Y99.928 E15.87547
G1 X146.694 Y100.097 E15.88504
G1 X147.235 Y100.518 E15.90784
G1 X147.513 Y100.756 E15.92001
G1 X147.83 Y101.037 E15.9341
G1 X148.462 Y101.648 E15.96334
G1 X148.761 Y101.963 E15.97779
G1 X148.963 Y102.183 E15.98772
G1 X149.142 Y102.383 E15.99665
G1 X149.567 Y102.889 E16.01863
G1 X149.72 Y103.084 E16.02687
G1 X149.971 Y103.417 E16.04074
G1 X150.203 Y103.739 E16.05394
G1 X150.56 Y104.27 E16.07522
G1 X150.879 Y104.777 E16.09514
G1 X151.062 Y105.079 E16.10689
G1 X151.236 Y105.378 E16.1184
G1 X151.498 Y105.858 E16.13658
G1 X151.726 Y106.308 E16.15336
G1 X151.926 Y106.721 E16.16862
G1 X152.084 Y107.063 E16.18116
G1 X152.182 Y107.286 E16.18926
G1 X152.33 Y107.641 E16.20205
G1 X152.43 Y107.894 E16.2111
G1 X152.565 Y108.256 E16.22395
G1 X152.903 Y109.216 E16.2578
G1 X153.109 Y109.869 E16.28057
G1 X153.326 Y110.649 E16.3075
G1 X153.405 Y110.952 E16.31792
G1 X153.459 Y111.172 E16.32545
G1 X153.53 Y111.484 E16.33609
G1 X153.65 Y112.049 E16.3553
G1 X153.705 Y112.323 E16.3646
G1 X153.776 Y112.709 E16.37765
G1 X153.828 Y113.019 E16.38811
G1 X153.909 Y113.551 E16.40601
G1 X153.949 Y113.846 E16.41591
G1 X154.016 Y114.393 E16.43424
G1 X154.045 Y114.65 E16.44284
G1 X154.081 Y115.022 E16.45527
G1 X154.105 Y115.321 E16.46525
G1 X154.143 Y115.886 E16.48408
G1 X154.157 Y116.142 E16.49261
G1 X154.173 Y116.523 E16.50529
G1 X154.181 Y116.794 E16.51431
G1 X154.189 Y117.313 E16.53157
G1 X154.189 Y117.62 E16.54178
G1 X154.181 Y118.164 E16.55988
G1 X154.173 Y118.441 E16.5691
G1 X154.15 Y118.99 E16.58737
G1 X154.134 Y119.273 E16.5968
G1 X154.11 Y119.617 E16.60827
G1 X154.087 Y119.893 E16.61748
G1 X154.029 Y120.49 E16.63743
G1 X153.998 Y120.769 E16.64677
G1 X153.951 Y121.145 E16.65937
G1 X153.918 Y121.386 E16.66746
G1 X153.845 Y121.875 E16.6839
G1 X153.791 Y122.202 E16.69493
G1 X153.694 Y122.733 E16.71288
G1 X153.64 Y123.008 E16.7222
G1 X153.565 Y123.363 E16.73427
G1 X153.5 Y123.651 E16.74409
G1 X153.362 Y124.222 E16.76363
G1 X153.273 Y124.562 E16.77532
G1 X153.145 Y125.007 E16.79072
G1 X152.902 Y125.79 E16.81799
G1 X152.679 Y126.433 E16.84062
G1 X152.327 Y127.347 E16.8732
G1 X152.193 Y127.676 E16.88501
G1 X152.13 Y127.824 E16.89036
G1 X152.006 Y128.103 E16.90052
G1 X151.892 Y128.35 E16.90957
G1 X151.71 Y128.726 E16.92346
G1 X151.457 Y129.22 E16.94192
G1 X151.172 Y129.738 E16.96158
G1 X150.991 Y130.046 E16.97347
G1 X150.843 Y130.29 E16.98296
G1 X150.674 Y130.56 E16.99355
G1 X150.333 Y131.07 E17.01396
G1 X149.99 Y131.551 E17.03361
G1 X149.828 Y131.772 E17.04272
G1 X149.699 Y131.943 E17.04985
G1 X149.242 Y132.506 E17.07396
G1 X149.071 Y132.702 E17.08261
G1 X148.787 Y133.014 E17.09665
G1 X148.513 Y133.303 E17.10989
G1 X147.894 Y133.903 E17.13857
G1 X147.593 Y134.171 E17.15197
G1 X147.357 Y134.374 E17.16232
G1 X147.136 Y134.559 E17.17191
G1 X146.42 Y135.107 E17.2019
G1 X146.298 Y135.192 E17.20684
G1 X145.89 Y135.462 E17.22312
G1 X145.565 Y135.666 E17.23588
G1 X144.552 Y136.224 E17.27434
G1 X144.064 Y136.458 E17.29235
G1 X142.977 Y136.905 E17.33144
G1 X142.71 Y136.997 E17.34083
G1 X141.962 Y137.223 E17.36682
G1 X141.686 Y137.295 E17.37631
G1 X140.803 Y137.484 E17.40634
G1 X140.174 Y137.569 E17.42745
G1 X139.592 Y137.63 E17.44691
G1 X139.147 Y137.667 E17.46177
G1 X138.632 Y137.688 E17.47891
G1 X137.8 Y137.699 E17.50658
G1 X92.052 Y137.698 E19.02817
G1 X91.381 Y137.688 E19.05049
G1 X90.479 Y137.634 E19.08054
G1 X89.393 Y137.462 E19.11711
G1 X89.132 Y137.406 E19.12599
G1 X88.258 Y137.178 E19.15603
G1 X87.408 Y136.873 E19.18607
G1 X86.588 Y136.494 E19.21612
