;FLAVOR:Marlin
;TIME:4877
;Filament used: 4.64606m
;Layer height: 0.2
;MINX:84.888
;MINY:30.047
;MINZ:0.2
;MAXX:151.812
;MAXY:195.047
;MAXZ:3.2
;POSTPROCESSED
;Generated with Cura_SteamEngine 4.13.1
;
;

M82 ;absolute extrusion mode
; Ender 3 Custom Start G-code
M117 Getting the bed up to temp!
M140 S60 ; Set Heat Bed temperature
M190 S60 ; Wait for Heat Bed temperature
M117 Pre-heating the extruder!
M104 S210; start warming extruder to 160
G28 ; Home all axes
M117 Auto bed-level GO!
G29 ; Auto bed-level (BL-Touch)
G92 E0 ; Reset Extruder
M117 Getting the extruder up to temp!
M104 S210 ; Set Extruder temperature
M109 S210 ; Wait for Extruder temperature
G1 Z2.0 F3000 ; move z up little to prevent scratching of surface
G1 X0.1 Y20 Z0.3 F5000.0 ; move to start-line position
M117 LET THE PURGE BEGIN!
SET_GCODE_OFFSET Z=-.005
G1 X0.1 Y200.0 Z0.3 F1500.0 E15 ; draw 1st line
G1 X0.4 Y200.0 Z0.3 F5000.0 ; move to side a little
G1 X0.4 Y20 Z0.3 F1500.0 E30 ; draw 2nd line
G92 E0 ; reset extruder
G1 Z1.0 F3000 ; move z up little to prevent scratching of surface
G1 X5 Y20 Z0.3 F5000.0 ; Move over to prevent blob squish
; SET_GCODE_OFFSET Z=+.075
M117 Autobots! Roll Out!
; End of custom start GCode
G92 E0
G92 E0
G1 F2700 E-3.5
;LAYER_COUNT:16
;LAYER:0
M107
G0 F9000 X85.954 Y36.358 Z0.2
;TYPE:SKIRT
G1 F2700 E0
G1 F2100 X86.39 Y35.528 E0.03118
G1 X86.896 Y34.738 E0.06239
G1 X87.467 Y33.994 E0.09358
G1 X88.1 Y33.301 E0.1248
G1 X88.789 Y32.665 E0.15598
G1 X89.529 Y32.09 E0.18715
G1 X90.317 Y31.58 E0.21837
G1 X91.144 Y31.139 E0.24954
G1 X92.006 Y30.77 E0.28073
G1 X92.897 Y30.476 E0.31194
G1 X93.809 Y30.258 E0.34313
G1 X94.737 Y30.12 E0.37433
G1 X95.522 Y30.064 E0.40051
G1 X95.843 Y30.053 E0.41119
G1 X96.22 Y30.047 E0.42373
G1 X105.278 Y30.047 E0.725
G1 X107.031 Y30.053 E0.78331
G1 X107.822 Y30.047 E0.80961
G1 X116.978 Y30.047 E1.11414
G1 X118.731 Y30.053 E1.17245
G1 X119.522 Y30.047 E1.19876
G1 X128.678 Y30.047 E1.50329
G1 X130.431 Y30.053 E1.56159
G1 X131.222 Y30.047 E1.5879
G1 X140.263 Y30.048 E1.88861
G1 X140.961 Y30.058 E1.91183
G1 X141.897 Y30.112 E1.94301
G1 X142.825 Y30.244 E1.97419
G1 X143.739 Y30.456 E2.00539
G1 X144.631 Y30.745 E2.03658
G1 X145.496 Y31.108 E2.06778
G1 X146.326 Y31.544 E2.09896
G1 X147.117 Y32.049 E2.13018
G1 X147.861 Y32.62 E2.16137
G1 X148.554 Y33.252 E2.19256
G1 X149.191 Y33.94 E2.22375
G1 X149.766 Y34.681 E2.25495
G1 X150.277 Y35.467 E2.28613
G1 X150.719 Y36.295 E2.31734
G1 X151.088 Y37.157 E2.34853
G1 X151.383 Y38.047 E2.37972
G1 X151.601 Y38.959 E2.4109
G1 X151.741 Y39.887 E2.44212
G1 X151.799 Y40.748 E2.47082
G1 X151.808 Y41.068 E2.48147
G1 X151.812 Y41.377 E2.49175
G1 X151.81 Y183.474 E7.21791
G1 X151.8 Y184.19 E7.24173
G1 X151.747 Y185.126 E7.27291
G1 X151.614 Y186.054 E7.30409
G1 X151.403 Y186.968 E7.33529
G1 X151.115 Y187.861 E7.3665
G1 X150.751 Y188.725 E7.39768
G1 X150.316 Y189.556 E7.42888
G1 X149.811 Y190.346 E7.46006
G1 X149.241 Y191.091 E7.49126
G1 X148.609 Y191.784 E7.52246
G1 X147.921 Y192.421 E7.55364
G1 X147.181 Y192.997 E7.58483
G1 X146.394 Y193.508 E7.61604
G1 X145.567 Y193.95 E7.64723
G1 X144.705 Y194.32 E7.67843
G1 X143.815 Y194.615 E7.70961
G1 X142.903 Y194.833 E7.7408
G1 X141.975 Y194.973 E7.77202
G1 X141.178 Y195.03 E7.79859
G1 X140.857 Y195.041 E7.80928
G1 X140.48 Y195.047 E7.82182
G1 X131.422 Y195.047 E8.12309
G1 X129.669 Y195.041 E8.18139
G1 X128.878 Y195.047 E8.2077
G1 X119.722 Y195.047 E8.51223
G1 X117.969 Y195.041 E8.57054
G1 X117.178 Y195.047 E8.59685
G1 X108.022 Y195.047 E8.90138
G1 X106.269 Y195.041 E8.95968
G1 X105.478 Y195.047 E8.98599
G1 X96.453 Y195.046 E9.28616
G1 X95.755 Y195.037 E9.30938
G1 X94.819 Y194.985 E9.34056
G1 X93.89 Y194.853 E9.37177
G1 X92.976 Y194.643 E9.40296
G1 X92.083 Y194.356 E9.43416
G1 X91.218 Y193.993 E9.46536
G1 X90.387 Y193.559 E9.49654
G1 X89.596 Y193.055 E9.52774
G1 X88.851 Y192.485 E9.55894
G1 X88.157 Y191.854 E9.59013
G1 X87.52 Y191.167 E9.62129
G1 X86.943 Y190.427 E9.6525
G1 X86.431 Y189.641 E9.6837
G1 X85.988 Y188.814 E9.71491
G1 X85.617 Y187.953 E9.74609
G1 X85.321 Y187.063 E9.77729
G1 X85.102 Y186.151 E9.80848
G1 X84.961 Y185.224 E9.83967
G1 X84.9 Y184.315 E9.86997
G1 X84.891 Y183.958 E9.88185
G1 X84.888 Y183.681 E9.89106
G1 X84.89 Y41.555 E14.61819
G1 X84.9 Y40.892 E14.64024
G1 X84.954 Y39.956 E14.67143
G1 X85.088 Y39.028 E14.70261
G1 X85.3 Y38.114 E14.73382
G1 X85.59 Y37.222 E14.76502
G1 X85.954 Y36.358 E14.7962
G0 F9000 X86.352 Y36.452
G1 F2100 X86.788 Y35.641 E14.82682
G1 X87.292 Y34.871 E14.85743
G1 X87.861 Y34.148 E14.88803
G1 X88.491 Y33.476 E14.91867
G1 X89.177 Y32.862 E14.94929
G1 X89.914 Y32.31 E14.97992
G1 X90.695 Y31.823 E15.01053
G1 X91.516 Y31.406 E15.04116
G1 X92.37 Y31.063 E15.07177
G1 X93.251 Y30.794 E15.1024
G1 X94.152 Y30.603 E15.13304
G1 X95.065 Y30.491 E15.16363
G1 X95.536 Y30.464 E15.17932
G1 X95.857 Y30.453 E15.19001
G1 X96.22 Y30.447 E15.20208
G1 X105.277 Y30.447 E15.50332
G1 X107.033 Y30.453 E15.56172
G1 X107.825 Y30.447 E15.58807
G1 X116.977 Y30.447 E15.89246
G1 X118.733 Y30.453 E15.95087
G1 X119.525 Y30.447 E15.97721
G1 X128.677 Y30.447 E16.28161
G1 X130.433 Y30.453 E16.34001
G1 X131.225 Y30.447 E16.36636
G1 X140.257 Y30.448 E16.66676
G1 X140.955 Y30.458 E16.68998
G1 X141.874 Y30.511 E16.7206
G1 X142.785 Y30.644 E16.75122
G1 X143.681 Y30.855 E16.78183
G1 X144.555 Y31.143 E16.81244
G1 X145.402 Y31.506 E16.84309
G1 X146.213 Y31.941 E16.8737
G1 X146.983 Y32.445 E16.90431
G1 X147.707 Y33.014 E16.93493
G1 X148.379 Y33.644 E16.96557
G1 X148.994 Y34.329 E16.99619
G1 X149.547 Y35.065 E17.02681
G1 X150.034 Y35.846 E17.05742
G1 X150.451 Y36.667 E17.08805
G1 X150.796 Y37.521 E17.11868
G1 X151.065 Y38.401 E17.14929
G1 X151.257 Y39.302 E17.17993
G1 X151.37 Y40.215 E17.21053
G1 X151.399 Y40.759 E17.22865
G1 X151.408 Y41.079 E17.23929
G1 X151.412 Y41.377 E17.24921
G1 X151.41 Y183.468 E21.97517
G1 X151.4 Y184.184 E21.99899
G1 X151.347 Y185.103 E22.02961
G1 X151.215 Y186.014 E22.06022
G1 X151.004 Y186.91 E22.09084
G1 X150.716 Y187.785 E22.12148
G1 X150.353 Y188.631 E22.1521
G1 X149.918 Y189.443 E22.18273
G1 X149.415 Y190.213 E22.21332
G1 X148.846 Y190.938 E22.24398
G1 X148.217 Y191.61 E22.27459
G1 X147.532 Y192.225 E22.30521
G1 X146.796 Y192.778 E22.33583
G1 X146.015 Y193.265 E22.36644
G1 X145.195 Y193.683 E22.39705
G1 X144.341 Y194.027 E22.42768
G1 X143.461 Y194.297 E22.45829
G1 X142.56 Y194.489 E22.48893
G1 X141.647 Y194.602 E22.51953
G1 X141.164 Y194.63 E22.53562
G1 X140.843 Y194.641 E22.54631
G1 X140.48 Y194.647 E22.55838
G1 X131.423 Y194.647 E22.85962
G1 X129.667 Y194.641 E22.91802
G1 X128.875 Y194.647 E22.94437
G1 X119.723 Y194.647 E23.24876
G1 X117.967 Y194.641 E23.30717
G1 X117.175 Y194.647 E23.33351
G1 X108.023 Y194.647 E23.63791
G1 X106.267 Y194.641 E23.69631
G1 X105.475 Y194.647 E23.72265
G1 X96.458 Y194.646 E24.02256
G1 X95.76 Y194.637 E24.04578
G1 X94.841 Y194.585 E24.07639
G1 X93.93 Y194.454 E24.10701
G1 X93.034 Y194.244 E24.13761
G1 X92.159 Y193.957 E24.16824
G1 X91.312 Y193.595 E24.19888
G1 X90.5 Y193.161 E24.2295
G1 X89.729 Y192.659 E24.2601
G1 X89.004 Y192.091 E24.29073
G1 X88.331 Y191.462 E24.32137
G1 X87.716 Y190.778 E24.35197
G1 X87.162 Y190.043 E24.38258
G1 X86.674 Y189.262 E24.41321
G1 X86.255 Y188.442 E24.44384
G1 X85.909 Y187.589 E24.47445
G1 X85.639 Y186.709 E24.50507
G1 X85.446 Y185.808 E24.53572
G1 X85.332 Y184.895 E24.56632
G1 X85.3 Y184.305 E24.58597
G1 X85.291 Y183.948 E24.59785
G1 X85.288 Y183.681 E24.60673
G1 X85.29 Y41.561 E29.33366
G1 X85.3 Y40.898 E29.35571
G1 X85.354 Y39.979 E29.38633
G1 X85.487 Y39.068 E29.41695
G1 X85.699 Y38.172 E29.44758
G1 X85.988 Y37.298 E29.47819
G1 X86.352 Y36.452 E29.50883
G0 F9000 X86.75 Y36.549
G1 F2100 X87.185 Y35.757 E29.53888
G1 X87.688 Y35.007 E29.56892
G1 X88.255 Y34.304 E29.59896
G1 X88.882 Y33.655 E29.62897
G1 X89.565 Y33.063 E29.65903
G1 X90.297 Y32.534 E29.68907
G1 X91.073 Y32.072 E29.71911
G1 X91.886 Y31.68 E29.74913
G1 X92.732 Y31.362 E29.77919
G1 X93.602 Y31.12 E29.80922
G1 X94.49 Y30.956 E29.83926
G1 X95.55 Y30.864 E29.87465
G1 X95.871 Y30.853 E29.88533
G1 X96.22 Y30.847 E29.89694
G1 X105.275 Y30.847 E30.19811
G1 X107.034 Y30.853 E30.25661
G1 X107.828 Y30.847 E30.28302
G1 X116.975 Y30.847 E30.58725
G1 X118.734 Y30.853 E30.64576
G1 X119.528 Y30.847 E30.67217
G1 X128.675 Y30.847 E30.9764
G1 X130.434 Y30.853 E31.0349
G1 X131.228 Y30.847 E31.06131
G1 X140.251 Y30.848 E31.36142
G1 X140.949 Y30.858 E31.38464
G1 X141.851 Y30.911 E31.41469
G1 X142.744 Y31.043 E31.44471
G1 X143.622 Y31.254 E31.47475
G1 X144.478 Y31.542 E31.50479
G1 X145.305 Y31.904 E31.53481
G1 X146.097 Y32.339 E31.56486
G1 X146.848 Y32.841 E31.59491
G1 X147.551 Y33.408 E31.62495
G1 X148.201 Y34.035 E31.65499
G1 X148.793 Y34.717 E31.68502
G1 X149.323 Y35.448 E31.71506
G1 X149.785 Y36.224 E31.74509
G1 X150.178 Y37.037 E31.77513
G1 X150.496 Y37.882 E31.80516
G1 X150.739 Y38.752 E31.8352
G1 X150.904 Y39.64 E31.86524
G1 X150.999 Y40.77 E31.90296
G1 X151.008 Y41.09 E31.9136
G1 X151.012 Y41.377 E31.92315
G1 X151.01 Y183.462 E36.64892
G1 X151 Y184.178 E36.67273
G1 X150.947 Y185.08 E36.70279
G1 X150.815 Y185.973 E36.73281
G1 X150.605 Y186.852 E36.76287
G1 X150.317 Y187.708 E36.79291
G1 X149.955 Y188.535 E36.82293
G1 X149.521 Y189.327 E36.85297
G1 X149.019 Y190.078 E36.88302
G1 X148.452 Y190.781 E36.91306
G1 X147.826 Y191.431 E36.94307
G1 X147.144 Y192.024 E36.97313
G1 X146.413 Y192.553 E37.00314
G1 X145.637 Y193.016 E37.0332
G1 X144.824 Y193.409 E37.06323
G1 X143.979 Y193.728 E37.09327
G1 X143.109 Y193.971 E37.12331
G1 X142.222 Y194.137 E37.15333
G1 X141.15 Y194.23 E37.18912
G1 X140.829 Y194.241 E37.1998
G1 X140.48 Y194.247 E37.21141
G1 X131.425 Y194.247 E37.51258
G1 X129.666 Y194.241 E37.57109
G1 X128.872 Y194.247 E37.59749
G1 X119.725 Y194.247 E37.90172
G1 X117.966 Y194.241 E37.96023
G1 X117.172 Y194.247 E37.98664
G1 X108.025 Y194.247 E38.29087
G1 X106.266 Y194.241 E38.34937
G1 X105.472 Y194.247 E38.37578
G1 X96.463 Y194.246 E38.67542
G1 X95.765 Y194.237 E38.69864
G1 X94.864 Y194.186 E38.72866
G1 X93.97 Y194.054 E38.75871
G1 X93.092 Y193.845 E38.78873
G1 X92.235 Y193.558 E38.81879
G1 X91.408 Y193.197 E38.8488
G1 X90.615 Y192.764 E38.87886
G1 X89.864 Y192.263 E38.90888
G1 X89.16 Y191.697 E38.93893
G1 X88.509 Y191.071 E38.96897
G1 X87.916 Y190.39 E38.999
G1 X87.386 Y189.659 E39.02903
G1 X86.922 Y188.884 E39.05907
G1 X86.528 Y188.071 E39.08912
G1 X86.208 Y187.227 E39.11914
G1 X85.964 Y186.357 E39.1492
G1 X85.798 Y185.469 E39.17924
G1 X85.7 Y184.295 E39.21843
G1 X85.691 Y183.938 E39.2303
G1 X85.688 Y183.681 E39.23885
G1 X85.69 Y41.567 E43.96558
G1 X85.7 Y40.904 E43.98764
G1 X85.754 Y40.003 E44.01766
G1 X85.887 Y39.109 E44.04772
G1 X86.098 Y38.231 E44.07775
G1 X86.387 Y37.376 E44.10777
G1 X86.75 Y36.549 E44.13781
G1 F2700 E40.63781
;MESH:slot_cover_143mm_original.stl(2)
G0 F9000 X95.223 Y41.857
G0 X96.699 Y41.857
G0 X104.93 Y41.829
G0 X105.111 Y183.447
;TYPE:WALL-INNER
G1 F2700 E44.13781
G1 F2100 X96.488 Y183.447 E44.42461
G1 X96.489 Y41.647 E49.1409
G1 X105.112 Y41.647 E49.4277
G1 X105.111 Y183.447 E54.14399
G0 F9000 X105.511 Y183.847
;TYPE:WALL-OUTER
G1 F2100 X96.088 Y183.847 E54.4574
G1 X96.089 Y41.247 E59.2003
G1 X105.512 Y41.247 E59.51371
G1 X105.511 Y183.847 E64.2566
G0 F9000 X105.241 Y183.577
G0 X104.721 Y183.337
G0 X104.721 Y183.057
;TYPE:SKIN
G1 F2100 X96.878 Y183.057 E64.51746
G1 X96.879 Y42.037 E69.2078
G1 X104.722 Y42.037 E69.46866
G1 X104.721 Y183.057 E74.15901
G0 F9000 X104.721 Y183.337
G0 X97.477 Y183.337
G0 X97.477 Y182.895
G1 F2100 X97.037 Y182.456 E74.17968
G0 F9000 X97.037 Y181.89
G1 F2100 X98.043 Y182.895 E74.22698
G0 F9000 X98.608 Y182.895
G1 F2100 X97.037 Y181.324 E74.30087
G0 F9000 X97.037 Y180.759
G1 F2100 X99.174 Y182.895 E74.40137
G0 F9000 X99.74 Y182.895
G1 F2100 X97.037 Y180.193 E74.52848
G0 F9000 X97.037 Y179.627
G1 F2100 X100.305 Y182.895 E74.6822
G0 F9000 X100.871 Y182.895
G1 F2100 X97.037 Y179.062 E74.86252
G0 F9000 X97.037 Y178.496
G1 F2100 X101.437 Y182.895 E75.06945
G0 F9000 X102.002 Y182.895
G1 F2100 X97.037 Y177.93 E75.30299
G0 F9000 X97.037 Y177.365
G1 F2100 X102.568 Y182.895 E75.56313
G0 F9000 X103.134 Y182.895
G1 F2100 X97.037 Y176.799 E75.84989
G0 F9000 X97.037 Y176.233
G1 F2100 X103.7 Y182.895 E76.16328
G0 F9000 X104.265 Y182.895
G1 F2100 X97.037 Y175.667 E76.50326
G0 F9000 X97.037 Y175.102
G1 F2100 X104.561 Y182.625 E76.85714
G0 F9000 X104.561 Y182.06
G1 F2100 X97.037 Y174.536 E77.21105
G0 F9000 X97.037 Y173.97
G1 F2100 X104.561 Y181.494 E77.56495
G0 F9000 X104.561 Y180.928
G1 F2100 X97.037 Y173.405 E77.91883
G0 F9000 X97.037 Y172.839
G1 F2100 X104.561 Y180.363 E78.27274
G0 F9000 X104.561 Y179.797
G1 F2100 X97.037 Y172.273 E78.62665
G0 F9000 X97.037 Y171.708
G1 F2100 X104.561 Y179.231 E78.98053
G0 F9000 X104.561 Y178.666
G1 F2100 X97.037 Y171.142 E79.33443
G0 F9000 X97.037 Y170.576
G1 F2100 X104.561 Y178.1 E79.68834
G0 F9000 X104.561 Y177.534
G1 F2100 X97.037 Y170.011 E80.04222
G0 F9000 X97.037 Y169.445
G1 F2100 X104.561 Y176.969 E80.39613
G0 F9000 X104.561 Y176.403
G1 F2100 X97.037 Y168.879 E80.75003
G0 F9000 X97.037 Y168.314
G1 F2100 X104.561 Y175.837 E81.10392
G0 F9000 X104.561 Y175.271
G1 F2100 X97.037 Y167.748 E81.4578
G0 F9000 X97.037 Y167.182
G1 F2100 X104.561 Y174.706 E81.81171
G0 F9000 X104.561 Y174.14
G1 F2100 X97.037 Y166.616 E82.16561
G0 F9000 X97.037 Y166.051
G1 F2100 X104.561 Y173.574 E82.51949
G0 F9000 X104.561 Y173.009
G1 F2100 X97.037 Y165.485 E82.8734
G0 F9000 X97.037 Y164.919
G1 F2100 X104.561 Y172.443 E83.22731
G0 F9000 X104.561 Y171.877
G1 F2100 X97.037 Y164.354 E83.58119
G0 F9000 X97.037 Y163.788
G1 F2100 X104.561 Y171.312 E83.93509
G0 F9000 X104.561 Y170.746
G1 F2100 X97.037 Y163.222 E84.289
G0 F9000 X97.037 Y162.657
G1 F2100 X104.561 Y170.18 E84.64288
G0 F9000 X104.561 Y169.615
G1 F2100 X97.037 Y162.091 E84.99679
G0 F9000 X97.037 Y161.525
G1 F2100 X104.561 Y169.049 E85.35069
G0 F9000 X104.561 Y168.483
G1 F2100 X97.037 Y160.96 E85.70458
G0 F9000 X97.037 Y160.394
G1 F2100 X104.561 Y167.918 E86.05848
G0 F9000 X104.561 Y167.352
G1 F2100 X97.037 Y159.828 E86.41239
G0 F9000 X97.037 Y159.263
G1 F2100 X104.561 Y166.786 E86.76627
G0 F9000 X104.561 Y166.221
G1 F2100 X97.037 Y158.697 E87.12018
G0 F9000 X97.037 Y158.131
G1 F2100 X104.561 Y165.655 E87.47408
G0 F9000 X104.561 Y165.089
G1 F2100 X97.037 Y157.566 E87.82796
G0 F9000 X97.037 Y157
G1 F2100 X104.561 Y164.523 E88.18185
G0 F9000 X104.561 Y163.958
G1 F2100 X97.037 Y156.434 E88.53575
G0 F9000 X97.037 Y155.868
G1 F2100 X104.561 Y163.392 E88.88966
G0 F9000 X104.561 Y162.826
G1 F2100 X97.037 Y155.303 E89.24354
G0 F9000 X97.037 Y154.737
G1 F2100 X104.561 Y162.261 E89.59745
G0 F9000 X104.561 Y161.695
G1 F2100 X97.037 Y154.171 E89.95135
G0 F9000 X97.037 Y153.606
G1 F2100 X104.561 Y161.129 E90.30524
G0 F9000 X104.561 Y160.564
G1 F2100 X97.037 Y153.04 E90.65914
G0 F9000 X97.037 Y152.474
G1 F2100 X104.561 Y159.998 E91.01305
G0 F9000 X104.561 Y159.432
G1 F2100 X97.037 Y151.909 E91.36693
G0 F9000 X97.037 Y151.343
G1 F2100 X104.561 Y158.867 E91.72084
G0 F9000 X104.561 Y158.301
G1 F2100 X97.037 Y150.777 E92.07474
G0 F9000 X97.037 Y150.212
G1 F2100 X104.561 Y157.735 E92.42862
G0 F9000 X104.561 Y157.17
G1 F2100 X97.037 Y149.646 E92.78253
G0 F9000 X97.037 Y149.08
G1 F2100 X104.561 Y156.604 E93.13644
G0 F9000 X104.561 Y156.038
G1 F2100 X97.037 Y148.515 E93.49032
G0 F9000 X97.037 Y147.949
G1 F2100 X104.561 Y155.472 E93.8442
G0 F9000 X104.561 Y154.907
G1 F2100 X97.037 Y147.383 E94.19811
G0 F9000 X97.037 Y146.817
G1 F2100 X104.561 Y154.341 E94.55201
G0 F9000 X104.561 Y153.775
G1 F2100 X97.037 Y146.252 E94.90589
G0 F9000 X97.037 Y145.686
G1 F2100 X104.561 Y153.21 E95.2598
G0 F9000 X104.561 Y152.644
G1 F2100 X97.037 Y145.12 E95.61371
G0 F9000 X97.037 Y144.555
G1 F2100 X104.561 Y152.078 E95.96759
G0 F9000 X104.561 Y151.513
G1 F2100 X97.037 Y143.989 E96.32149
G0 F9000 X97.037 Y143.423
G1 F2100 X104.561 Y150.947 E96.6754
G0 F9000 X104.561 Y150.381
G1 F2100 X97.037 Y142.858 E97.02928
G0 F9000 X97.037 Y142.292
G1 F2100 X104.561 Y149.816 E97.38319
G0 F9000 X104.561 Y149.25
G1 F2100 X97.037 Y141.726 E97.73709
G0 F9000 X97.037 Y141.161
G1 F2100 X104.561 Y148.684 E98.09098
