;FLAVOR:Marlin
;TIME:10860
;Filament used: 19.5412m
;Layer height: 0.2
;MINX:41.9
;MINY:50.335
;MINZ:0.2
;MAXX:183.1
;MAXY:184.6
;MAXZ:26.6
;POSTPROCESSED
;Generated with Cura_SteamEngine 4.13.1
;
;

M82 ;absolute extrusion mode
; Ender 3 Custom Start G-code
M117 Getting the bed up to temp!
M140 S50 ; Set Heat Bed temperature
M190 S50 ; Wait for Heat Bed temperature
M117 Pre-heating the extruder!
M104 S210; start warming extruder to 160
G28 ; Home all axes
M117 Auto bed-level GO!
G29 ; Auto bed-level (BL-Touch)
G92 E0 ; Reset Extruder
M117 Getting the extruder up to temp!
M104 S210 ; Set Extruder temperature
M109 S210 ; Wait for Extruder temperature
G1 Z2.0 F3000 ; move z up little to prevent scratching of surface
G1 X0.1 Y20 Z0.3 F5000.0 ; move to start-line position
M117 LET THE PURGE BEGIN!
G1 X0.1 Y200.0 Z0.3 F1500.0 E15 ; draw 1st line
G1 X0.4 Y200.0 Z0.3 F5000.0 ; move to side a little
G1 X0.4 Y20 Z0.3 F1500.0 E30 ; draw 2nd line
G92 E0 ; reset extruder
G1 Z1.0 F3000 ; move z up little to prevent scratching of surface
G1 X5 Y20 Z0.3 F5000.0 ; Move over to prevent blob squish
M117 Autobots! Roll Out!
; End of custom start GCode
G92 E0
G92 E0
G1 F2100 E-1.5
;LAYER_COUNT:133
;LAYER:0
M107
G0 F6000 X45.799 Y54.616 Z0.2
;TYPE:SKIRT
G1 F2100 E0
G1 F1200 X46.54 Y54.041 E0.0312
G1 X47.327 Y53.531 E0.06239
G1 X48.155 Y53.09 E0.09359
G1 X49.017 Y52.721 E0.12478
G1 X49.908 Y52.427 E0.15598
G1 X50.82 Y52.209 E0.18717
G1 X51.747 Y52.071 E0.21834
G1 X52.601 Y52.013 E0.24681
G1 X52.921 Y52.004 E0.25746
G1 X53.23 Y52 E0.26774
G1 X171.393 Y52 E4.19785
G1 X172.249 Y52.011 E4.22633
G1 X173.185 Y52.065 E4.25751
G1 X174.113 Y52.197 E4.28869
G1 X175.027 Y52.409 E4.31989
G1 X175.919 Y52.698 E4.35108
G1 X176.784 Y53.061 E4.38228
G1 X177.614 Y53.497 E4.41346
G1 X178.405 Y54.002 E4.44468
G1 X179.149 Y54.573 E4.47587
G1 X179.842 Y55.205 E4.50706
G1 X180.479 Y55.893 E4.53825
G1 X181.054 Y56.634 E4.56945
G1 X181.565 Y57.42 E4.60063
G1 X182.007 Y58.248 E4.63184
G1 X182.376 Y59.11 E4.66303
G1 X182.671 Y60 E4.69422
G1 X182.889 Y60.912 E4.7254
G1 X183.029 Y61.84 E4.75662
G1 X183.087 Y62.701 E4.78532
G1 X183.096 Y63.021 E4.79597
G1 X183.1 Y63.33 E4.80625
G1 X183.099 Y170.449 E8.36904
G1 X183.089 Y171.154 E8.39249
G1 X183.065 Y171.735 E8.41183
G1 X183.045 Y172.033 E8.42176
G1 X182.943 Y172.965 E8.45295
G1 X182.829 Y173.584 E8.47388
G1 X182.738 Y174.012 E8.48844
G1 X182.505 Y174.92 E8.51961
G1 X182.262 Y175.631 E8.54461
G1 X182.091 Y176.081 E8.56062
G1 X181.72 Y176.943 E8.59183
G1 X181.28 Y177.767 E8.6229
G1 X181.143 Y177.999 E8.63186
G1 X180.619 Y178.803 E8.66378
G1 X180.456 Y179.031 E8.6731
G1 X179.761 Y179.906 E8.71027
G1 X179.598 Y180.091 E8.71847
G1 X178.641 Y181.051 E8.76355
G1 X178.421 Y181.246 E8.77333
G1 X177.582 Y181.92 E8.80912
G1 X177.502 Y181.978 E8.81241
G1 X177.002 Y182.32 E8.83256
G1 X176.662 Y182.539 E8.84601
G1 X175.986 Y182.94 E8.87215
G1 X175.114 Y183.371 E8.9045
G1 X174.873 Y183.477 E8.91326
G1 X174.325 Y183.701 E8.93295
G1 X174.203 Y183.747 E8.93729
G1 X173.312 Y184.04 E8.96848
G1 X172.711 Y184.192 E8.9891
G1 X172.212 Y184.303 E9.00611
G1 X170.918 Y184.51 E9.04969
G1 X170.718 Y184.53 E9.05638
G1 X170.128 Y184.573 E9.07605
G1 X169.694 Y184.588 E9.0905
G1 X168.768 Y184.6 E9.1213
G1 X56.051 Y184.599 E12.87028
G1 X55.345 Y184.589 E12.89376
G1 X54.762 Y184.565 E12.91317
G1 X54.465 Y184.545 E12.92307
G1 X53.533 Y184.442 E12.95426
G1 X52.918 Y184.33 E12.97505
G1 X52.485 Y184.238 E12.98977
G1 X51.577 Y184.004 E13.02096
G1 X50.845 Y183.754 E13.04669
G1 X50.4 Y183.584 E13.06253
G1 X49.539 Y183.212 E13.09373
G1 X48.733 Y182.78 E13.12414
G1 X48.501 Y182.643 E13.1331
G1 X47.668 Y182.099 E13.16619
G1 X47.436 Y181.932 E13.1757
G1 X46.565 Y181.235 E13.21281
G1 X46.38 Y181.071 E13.22103
G1 X45.431 Y180.12 E13.26571
G1 X45.235 Y179.898 E13.27556
G1 X44.625 Y179.143 E13.30785
G1 X44.569 Y179.067 E13.31099
G1 X44.171 Y178.489 E13.33433
G1 X43.948 Y178.142 E13.34805
G1 X43.475 Y177.332 E13.37924
G1 X43.122 Y176.6 E13.40627
G1 X43.011 Y176.346 E13.41549
G1 X42.802 Y175.832 E13.43395
G1 X42.757 Y175.713 E13.43818
G1 X42.463 Y174.822 E13.46939
G1 X42.309 Y174.213 E13.49028
G1 X42.197 Y173.71 E13.50742
G1 X42.032 Y172.786 E13.53864
G1 X41.97 Y172.21 E13.55791
G1 X41.947 Y171.927 E13.56735
G1 X41.912 Y171.194 E13.59176
G1 X41.9 Y170.268 E13.62256
G1 X41.901 Y63.509 E17.17338
G1 X41.911 Y62.844 E17.1955
G1 X41.965 Y61.907 E17.22671
G1 X42.099 Y60.979 E17.2579
G1 X42.311 Y60.065 E17.28911
G1 X42.6 Y59.173 E17.32029
G1 X42.965 Y58.309 E17.35149
G1 X43.401 Y57.479 E17.38267
G1 X43.907 Y56.689 E17.41387
G1 X44.478 Y55.945 E17.44507
G1 X45.11 Y55.252 E17.47626
G1 X45.799 Y54.616 E17.50745
G0 F6000 X46.188 Y54.813
G1 F1200 X46.924 Y54.261 E17.53805
G1 X47.706 Y53.774 E17.56869
G1 X48.527 Y53.358 E17.5993
G1 X49.381 Y53.014 E17.62992
G1 X50.261 Y52.745 E17.66053
G1 X51.162 Y52.554 E17.69116
G1 X52.076 Y52.442 E17.72179
G1 X52.612 Y52.413 E17.73964
G1 X52.932 Y52.404 E17.75029
G1 X53.23 Y52.4 E17.7602
G1 X171.393 Y52.4 E21.69032
G1 X172.243 Y52.411 E21.71859
G1 X173.162 Y52.464 E21.74921
G1 X174.073 Y52.597 E21.77983
G1 X174.969 Y52.808 E21.81045
G1 X175.843 Y53.096 E21.84106
G1 X176.69 Y53.459 E21.8717
G1 X177.501 Y53.894 E21.90231
G1 X178.271 Y54.398 E21.93292
G1 X178.995 Y54.967 E21.96355
G1 X179.667 Y55.597 E21.99419
G1 X180.282 Y56.282 E22.0248
G1 X180.835 Y57.018 E22.05542
G1 X181.322 Y57.799 E22.08604
G1 X181.739 Y58.62 E22.11666
G1 X182.084 Y59.474 E22.1473
G1 X182.353 Y60.354 E22.1779
G1 X182.545 Y61.255 E22.20854
G1 X182.658 Y62.168 E22.23914
G1 X182.687 Y62.712 E22.25726
G1 X182.696 Y63.032 E22.26791
G1 X182.7 Y63.33 E22.27782
G1 X182.699 Y170.443 E25.84041
G1 X182.689 Y171.148 E25.86386
G1 X182.666 Y171.708 E25.88251
G1 X182.646 Y172.006 E25.89244
G1 X182.545 Y172.921 E25.92306
G1 X182.438 Y173.5 E25.94264
G1 X182.347 Y173.928 E25.9572
G1 X182.117 Y174.82 E25.98783
G1 X181.888 Y175.489 E26.01135
G1 X181.717 Y175.939 E26.02736
G1 X181.353 Y176.785 E26.058
G1 X180.935 Y177.564 E26.0874
G1 X180.798 Y177.796 E26.09636
G1 X180.294 Y178.571 E26.12711
G1 X180.131 Y178.799 E26.13643
G1 X179.461 Y179.642 E26.17225
G1 X179.298 Y179.827 E26.18045
G1 X178.376 Y180.751 E26.22386
G1 X178.156 Y180.946 E26.23364
G1 X177.347 Y181.596 E26.26816
G1 X177.267 Y181.654 E26.27144
G1 X176.785 Y181.983 E26.29085
G1 X176.445 Y182.202 E26.3043
G1 X175.793 Y182.59 E26.32954
G1 X174.953 Y183.005 E26.3607
G1 X174.712 Y183.111 E26.36946
G1 X174.184 Y183.326 E26.38842
G1 X174.062 Y183.372 E26.39276
G1 X173.187 Y183.659 E26.42338
G1 X172.624 Y183.801 E26.4427
G1 X172.125 Y183.912 E26.4597
G1 X170.878 Y184.112 E26.5017
G1 X170.678 Y184.132 E26.50839
G1 X170.11 Y184.174 E26.52733
G1 X169.688 Y184.188 E26.54138
G1 X168.768 Y184.2 E26.57198
G1 X56.057 Y184.199 E30.32076
G1 X55.351 Y184.189 E30.34424
G1 X54.789 Y184.166 E30.36295
G1 X54.492 Y184.146 E30.37285
G1 X53.577 Y184.044 E30.40347
G1 X53.001 Y183.939 E30.42295
G1 X52.568 Y183.847 E30.43767
G1 X51.677 Y183.616 E30.46829
G1 X50.988 Y183.38 E30.49251
G1 X50.543 Y183.21 E30.50835
G1 X49.698 Y182.844 E30.53898
G1 X48.936 Y182.435 E30.56775
G1 X48.704 Y182.298 E30.57671
G1 X47.901 Y181.774 E30.6086
G1 X47.669 Y181.607 E30.61811
G1 X46.83 Y180.936 E30.65384
G1 X46.645 Y180.772 E30.66206
G1 X45.731 Y179.856 E30.7051
G1 X45.535 Y179.634 E30.71495
G1 X44.947 Y178.906 E30.74607
G1 X44.891 Y178.83 E30.74921
G1 X44.508 Y178.273 E30.7717
G1 X44.285 Y177.926 E30.78542
G1 X43.821 Y177.13 E30.81606
G1 X43.489 Y176.44 E30.84153
G1 X43.378 Y176.186 E30.85075
G1 X43.176 Y175.69 E30.86856
G1 X43.131 Y175.571 E30.87279
G1 X42.843 Y174.697 E30.9034
G1 X42.699 Y174.126 E30.92299
G1 X42.587 Y173.623 E30.94012
G1 X42.427 Y172.716 E30.97076
G1 X42.369 Y172.178 E30.98876
G1 X42.346 Y171.895 E30.9982
G1 X42.312 Y171.188 E31.02174
G1 X42.3 Y170.268 E31.05234
G1 X42.301 Y63.515 E34.60296
G1 X42.311 Y62.85 E34.62508
G1 X42.365 Y61.931 E34.6557
G1 X42.498 Y61.02 E34.68632
G1 X42.71 Y60.124 E34.71695
G1 X42.999 Y59.249 E34.7476
G1 X43.363 Y58.404 E34.7782
G1 X43.798 Y57.593 E34.80881
G1 X44.303 Y56.822 E34.83946
G1 X44.872 Y56.099 E34.87006
G1 X45.502 Y55.427 E34.9007
G1 X46.188 Y54.813 E34.93132
G0 F6000 X46.575 Y55.014
G1 F1200 X47.307 Y54.485 E34.96136
G1 X48.083 Y54.023 E34.9914
G1 X48.897 Y53.632 E35.02143
G1 X49.742 Y53.313 E35.05147
G1 X50.612 Y53.071 E35.08151
G1 X51.5 Y52.907 E35.11154
G1 X52.623 Y52.813 E35.14902
G1 X52.943 Y52.804 E35.15967
G1 X53.23 Y52.8 E35.16922
G1 X171.393 Y52.8 E39.09933
G1 X172.237 Y52.811 E39.12741
G1 X173.139 Y52.864 E39.15746
G1 X174.032 Y52.996 E39.18748
G1 X174.91 Y53.207 E39.21752
G1 X175.766 Y53.495 E39.24756
G1 X176.593 Y53.857 E39.27758
G1 X177.385 Y54.292 E39.30764
G1 X178.136 Y54.794 E39.33768
G1 X178.839 Y55.361 E39.36772
G1 X179.489 Y55.988 E39.39776
G1 X180.081 Y56.67 E39.4278
G1 X180.611 Y57.401 E39.45783
G1 X181.073 Y58.177 E39.48787
G1 X181.466 Y58.99 E39.5179
G1 X181.784 Y59.835 E39.54793
G1 X182.027 Y60.705 E39.57797
G1 X182.192 Y61.593 E39.60801
G1 X182.287 Y62.723 E39.64573
G1 X182.296 Y63.043 E39.65638
G1 X182.3 Y63.33 E39.66592
G1 X182.299 Y170.438 E43.22835
G1 X182.289 Y171.143 E43.2518
G1 X182.267 Y171.681 E43.26971
G1 X182.247 Y171.979 E43.27964
G1 X182.147 Y172.877 E43.3097
G1 X182.047 Y173.417 E43.32796
G1 X181.956 Y173.845 E43.34252
G1 X181.729 Y174.719 E43.37255
G1 X181.514 Y175.347 E43.39463
G1 X181.343 Y175.797 E43.41064
G1 X180.985 Y176.626 E43.44067
G1 X180.591 Y177.36 E43.46838
G1 X180.454 Y177.592 E43.47734
G1 X179.969 Y178.338 E43.50694
G1 X179.806 Y178.566 E43.51626
G1 X179.161 Y179.377 E43.55072
G1 X178.998 Y179.562 E43.55892
G1 X178.111 Y180.452 E43.60072
G1 X177.891 Y180.647 E43.61049
G1 X177.112 Y181.272 E43.64371
G1 X177.032 Y181.33 E43.647
G1 X176.568 Y181.647 E43.66569
G1 X176.228 Y181.866 E43.67914
G1 X175.601 Y182.239 E43.7034
G1 X174.792 Y182.639 E43.73342
G1 X174.551 Y182.745 E43.74218
G1 X174.043 Y182.952 E43.76042
G1 X173.921 Y182.998 E43.76476
G1 X173.062 Y183.279 E43.79482
G1 X172.537 Y183.411 E43.81283
G1 X172.038 Y183.522 E43.82983
G1 X170.838 Y183.714 E43.87025
G1 X170.638 Y183.734 E43.87693
G1 X170.091 Y183.774 E43.89517
G1 X169.682 Y183.788 E43.90879
G1 X168.768 Y183.8 E43.93919
G1 X56.063 Y183.799 E47.68777
G1 X55.357 Y183.789 E47.71126
G1 X54.816 Y183.767 E47.72926
G1 X54.519 Y183.747 E47.73917
G1 X53.621 Y183.646 E47.76922
G1 X53.084 Y183.547 E47.78738
G1 X52.651 Y183.455 E47.80211
G1 X51.777 Y183.229 E47.83213
G1 X51.131 Y183.006 E47.85486
G1 X50.686 Y182.836 E47.87071
G1 X49.857 Y182.477 E47.90075
G1 X49.14 Y182.091 E47.92784
G1 X48.908 Y181.954 E47.9368
G1 X48.135 Y181.449 E47.96751
G1 X47.903 Y181.282 E47.97702
G1 X47.096 Y180.637 E48.01138
G1 X46.911 Y180.473 E48.0196
G1 X46.031 Y179.591 E48.06104
G1 X45.835 Y179.369 E48.07089
G1 X45.269 Y178.669 E48.10083
G1 X45.213 Y178.593 E48.10397
G1 X44.844 Y178.056 E48.12564
G1 X44.621 Y177.709 E48.13936
G1 X44.167 Y176.929 E48.16938
G1 X43.856 Y176.279 E48.19334
G1 X43.745 Y176.025 E48.20256
G1 X43.55 Y175.549 E48.21967
G1 X43.505 Y175.43 E48.2239
G1 X43.224 Y174.572 E48.25393
G1 X43.09 Y174.039 E48.27221
G1 X42.978 Y173.536 E48.28935
G1 X42.821 Y172.647 E48.31938
G1 X42.768 Y172.145 E48.33617
G1 X42.745 Y171.862 E48.34561
G1 X42.712 Y171.182 E48.36825
G1 X42.7 Y170.268 E48.39865
G1 X42.701 Y63.521 E51.94907
G1 X42.711 Y62.856 E51.97119
G1 X42.765 Y61.954 E52.00125
G1 X42.898 Y61.061 E52.03128
G1 X43.109 Y60.183 E52.06131
G1 X43.398 Y59.327 E52.09136
G1 X43.761 Y58.5 E52.1214
G1 X44.195 Y57.709 E52.15141
G1 X44.698 Y56.958 E52.18147
G1 X45.266 Y56.256 E52.21151
G1 X45.893 Y55.606 E52.24154
G1 X46.575 Y55.014 E52.27158
G1 F2100 E50.77158
;MESH:Drawer_Bottom_Version_2.stl
G0 F6000 X53.32 Y62.335
G0 X53.32 Y63.42
G0 X53.695 Y171.286
G0 X53.878 Y171.844
G0 X54.217 Y172.303
G0 X54.601 Y172.574
G0 X55.517 Y173
;TYPE:WALL-INNER
G1 F2100 E52.27158
G1 F1200 X55.195 Y172.976 E52.28232
G1 X54.892 Y172.905 E52.29267
G1 X54.612 Y172.791 E52.30273
G1 X54.335 Y172.625 E52.31347
G1 X54.104 Y172.431 E52.3235
G1 X54.073 Y172.399 E52.32498
G1 X53.892 Y172.188 E52.33423
G1 X53.734 Y171.937 E52.34409
G1 X53.709 Y171.889 E52.34589
G1 X53.6 Y171.624 E52.35542
G1 X53.526 Y171.314 E52.36602
G1 X53.5 Y170.988 E52.3769
G1 X53.5 Y63.6 E55.94864
G1 X171.5 Y63.6 E59.87334
G1 X171.5 Y170.983 E63.44491
G1 X171.476 Y171.305 E63.45565
G1 X171.405 Y171.608 E63.466
G1 X171.291 Y171.89 E63.47612
G1 X171.125 Y172.166 E63.48683
G1 X170.931 Y172.396 E63.49684
G1 X170.901 Y172.425 E63.49823
G1 X170.675 Y172.618 E63.50811
G1 X170.425 Y172.772 E63.51788
G1 X170.396 Y172.788 E63.51898
G1 X170.156 Y172.888 E63.52763
G1 X170.122 Y172.9 E63.52882
G1 X169.818 Y172.974 E63.53923
G1 X169.482 Y173 E63.55044
G1 X55.517 Y173 E67.34093
G0 F6000 X55.502 Y173.4
;TYPE:WALL-OUTER
G1 F1200 X55.136 Y173.373 E67.35314
G1 X54.768 Y173.286 E67.36571
G1 X54.433 Y173.151 E67.37773
G1 X54.11 Y172.957 E67.39026
G1 X54.061 Y172.919 E67.39232
G1 X53.829 Y172.723 E67.40242
G1 X53.784 Y172.676 E67.40459
G1 X53.579 Y172.438 E67.41503
G1 X53.54 Y172.383 E67.41728
G1 X53.385 Y172.133 E67.42706
G1 X53.349 Y172.064 E67.42965
G1 X53.235 Y171.791 E67.43949
G1 X53.214 Y171.73 E67.44163
G1 X53.142 Y171.436 E67.4517
G1 X53.129 Y171.369 E67.45397
G1 X53.105 Y171.074 E67.46382
G1 X53.1 Y170.988 E67.46668
G1 X53.1 Y63.2 E71.05172
G1 X171.9 Y63.2 E75.00303
G1 X171.9 Y171 E78.58847
G1 X171.873 Y171.364 E78.60061
G1 X171.786 Y171.732 E78.61319
G1 X171.652 Y172.064 E78.6251
G1 X171.616 Y172.128 E78.62754
G1 X171.457 Y172.39 E78.63773
G1 X171.419 Y172.439 E78.63979
G1 X171.223 Y172.671 E78.6499
G1 X171.176 Y172.716 E78.65206
G1 X170.94 Y172.919 E78.66241
G1 X170.885 Y172.959 E78.66468
G1 X170.635 Y173.113 E78.67444
G1 X170.567 Y173.15 E78.67702
G1 X170.301 Y173.261 E78.6866
G1 X170.23 Y173.286 E78.68911
G1 X169.944 Y173.356 E78.6989
G1 X169.869 Y173.371 E78.70144
G1 X169.574 Y173.395 E78.71129
G1 X169.488 Y173.4 E78.71415
G1 X55.502 Y173.4 E82.50534
G0 F6000 X55.518 Y172.961
G0 X55.533 Y172.61
;TYPE:SKIN
G1 F1200 X55.257 Y172.59 E82.51455
G1 X55.006 Y172.53 E82.52313
G1 X54.792 Y172.443 E82.53081
G1 X54.557 Y172.302 E82.53993
G1 X54.355 Y172.129 E82.54877
G1 X54.207 Y171.956 E82.55635
G1 X54.068 Y171.735 E82.56503
G1 X53.972 Y171.503 E82.57338
G1 X53.911 Y171.245 E82.5822
G1 X53.89 Y170.988 E82.59078
G1 X53.89 Y63.99 E86.14954
G1 X171.11 Y63.99 E90.0483
G1 X171.11 Y170.983 E93.6069
G1 X171.091 Y171.235 E93.6153
G1 X171.03 Y171.497 E93.62425
G1 X170.943 Y171.714 E93.63203
G1 X170.809 Y171.936 E93.64065
G1 X170.634 Y172.14 E93.64959
G1 X170.443 Y172.304 E93.65796
G1 X170.228 Y172.435 E93.66634
G1 X169.999 Y172.529 E93.67457
G1 X169.753 Y172.588 E93.68298
G1 X169.478 Y172.61 E93.69216
G1 X55.533 Y172.61 E97.48199
G0 F6000 X55.512 Y172.889
G0 X54.692 Y172.639
G0 X54.195 Y172.279
G0 X53.928 Y171.906
G0 X53.626 Y171.195
G0 X54.063 Y171.16
G1 F1200 X55.338 Y172.435 E97.54196
G0 F6000 X55.918 Y172.449
G1 F1200 X54.049 Y170.581 E97.62985
G0 F6000 X54.049 Y170.015
G1 F1200 X56.483 Y172.449 E97.74434
G0 F6000 X57.049 Y172.449
G1 F1200 X54.049 Y169.449 E97.88545
G0 F6000 X54.049 Y168.883
G1 F1200 X57.615 Y172.449 E98.05318
G0 F6000 X58.18 Y172.449
G1 F1200 X54.049 Y168.318 E98.24749
G0 F6000 X54.049 Y167.752
G1 F1200 X58.746 Y172.449 E98.46842
G0 F6000 X59.312 Y172.449
G1 F1200 X54.049 Y167.186 E98.71598
G0 F6000 X54.049 Y166.621
G1 F1200 X59.877 Y172.449 E98.99011
G0 F6000 X60.443 Y172.449
G1 F1200 X54.049 Y166.055 E99.29086
G0 F6000 X54.049 Y165.489
G1 F1200 X61.009 Y172.449 E99.61824
G0 F6000 X61.574 Y172.449
G1 F1200 X54.049 Y164.924 E99.97219
G0 F6000 X54.049 Y164.358
G1 F1200 X62.14 Y172.449 E100.35277
G0 F6000 X62.706 Y172.449
G1 F1200 X54.049 Y163.792 E100.75997
G0 F6000 X54.049 Y163.227
G1 F1200 X63.271 Y172.449 E101.19374
G0 F6000 X63.837 Y172.449
G1 F1200 X54.049 Y162.661 E101.65414
G0 F6000 X54.049 Y162.095
G1 F1200 X64.403 Y172.449 E102.14116
G0 F6000 X64.968 Y172.449
G1 F1200 X54.049 Y161.53 E102.65476
G0 F6000 X54.049 Y160.964
G1 F1200 X65.534 Y172.449 E103.19498
G0 F6000 X66.1 Y172.449
G1 F1200 X54.049 Y160.398 E103.76182
G0 F6000 X54.049 Y159.833
