;FLAVOR:Marlin
;TIME:714
;Filament used: 0.536702m
;Layer height: 0.2
;MINX:90.25
;MINY:95
;MINZ:0.2
;MAXX:134.75
;MAXY:130
;MAXZ:11
;POSTPROCESSED
;Generated with Cura_SteamEngine 4.13.1
;
;

M82 ;absolute extrusion mode
; Ender 3 Custom Start G-code
M117 Getting the bed up to temp!
M140 S50 ; Set Heat Bed temperature
M190 S50 ; Wait for Heat Bed temperature
M117 Pre-heating the extruder!
M104 S210; start warming extruder to 160
G28 ; Home all axes
M117 Auto bed-level GO!
G29 ; Auto bed-level (BL-Touch)
G92 E0 ; Reset Extruder
M117 Getting the extruder up to temp!
M104 S210 ; Set Extruder temperature
M109 S210 ; Wait for Extruder temperature
G1 Z2.0 F3000 ; move z up little to prevent scratching of surface
G1 X0.1 Y20 Z0.3 F5000.0 ; move to start-line position
M117 LET THE PURGE BEGIN!
G1 X0.1 Y200.0 Z0.3 F1500.0 E15 ; draw 1st line
G1 X0.4 Y200.0 Z0.3 F5000.0 ; move to side a little
G1 X0.4 Y20 Z0.3 F1500.0 E30 ; draw 2nd line
G92 E0 ; reset extruder
G1 Z1.0 F3000 ; move z up little to prevent scratching of surface
G1 X5 Y20 Z0.3 F5000.0 ; Move over to prevent blob squish
M117 Autobots! Roll Out!
; End of custom start GCode
G92 E0
G92 E0
G1 F2100 E-1.5
;LAYER_COUNT:55
;LAYER:0
M107
G0 F6000 X93.448 Y98.264 Z0.2
;TYPE:SKIRT
G1 F2100 E0
G1 F1200 X94.136 Y97.627 E0.03119
G1 X94.876 Y97.051 E0.06237
G1 X95.662 Y96.539 E0.09357
G1 X96.489 Y96.097 E0.12476
G1 X97.351 Y95.727 E0.15596
G1 X98.241 Y95.431 E0.18716
G1 X99.153 Y95.213 E0.21835
G1 X100.08 Y95.072 E0.24953
G1 X100.951 Y95.013 E0.27857
G1 X101.272 Y95.004 E0.28925
G1 X101.58 Y95 E0.29949
G1 X123.043 Y95 E1.01336
G1 X123.899 Y95.011 E1.04183
G1 X124.835 Y95.065 E1.07301
G1 X125.763 Y95.197 E1.10419
G1 X126.677 Y95.409 E1.1354
G1 X127.569 Y95.698 E1.16658
G1 X128.434 Y96.061 E1.19778
G1 X129.264 Y96.497 E1.22897
G1 X130.055 Y97.002 E1.26018
G1 X130.799 Y97.573 E1.29137
G1 X131.492 Y98.205 E1.32257
G1 X132.129 Y98.893 E1.35375
G1 X132.704 Y99.634 E1.38495
G1 X133.215 Y100.42 E1.41613
G1 X133.657 Y101.248 E1.44735
G1 X134.026 Y102.11 E1.47853
G1 X134.321 Y103 E1.50972
G1 X134.539 Y103.912 E1.54091
G1 X134.679 Y104.84 E1.57212
G1 X134.737 Y105.701 E1.60082
G1 X134.746 Y106.021 E1.61147
G1 X134.75 Y106.33 E1.62175
G1 X134.749 Y118.4 E2.0232
G1 X134.74 Y119.127 E2.04738
G1 X134.689 Y120.064 E2.07859
G1 X134.557 Y120.992 E2.10977
G1 X134.348 Y121.906 E2.14095
G1 X134.061 Y122.799 E2.17215
G1 X133.699 Y123.665 E2.20337
G1 X133.265 Y124.496 E2.23455
G1 X132.761 Y125.287 E2.26575
G1 X132.192 Y126.032 E2.29692
G1 X131.561 Y126.727 E2.32815
G1 X130.874 Y127.365 E2.35933
G1 X130.135 Y127.942 E2.39051
G1 X129.349 Y128.454 E2.42171
G1 X128.523 Y128.897 E2.45289
G1 X127.661 Y129.269 E2.48411
G1 X126.772 Y129.565 E2.51528
G1 X125.86 Y129.785 E2.54648
G1 X124.933 Y129.926 E2.57767
G1 X124.049 Y129.987 E2.60714
G1 X123.728 Y129.996 E2.61782
G1 X123.42 Y130 E2.62807
G1 X101.815 Y129.999 E3.34665
G1 X101.117 Y129.99 E3.36987
G1 X100.181 Y129.938 E3.40105
G1 X99.252 Y129.806 E3.43226
G1 X98.338 Y129.596 E3.46345
G1 X97.445 Y129.309 E3.49465
G1 X96.58 Y128.946 E3.52585
G1 X95.749 Y128.512 E3.55703
G1 X94.958 Y128.008 E3.58822
G1 X94.213 Y127.438 E3.61942
G1 X93.519 Y126.807 E3.65062
G1 X92.882 Y126.12 E3.68178
G1 X92.305 Y125.38 E3.71299
G1 X91.793 Y124.594 E3.74419
G1 X91.35 Y123.767 E3.77539
G1 X90.979 Y122.906 E3.80658
G1 X90.683 Y122.016 E3.83777
G1 X90.464 Y121.104 E3.86897
G1 X90.323 Y120.177 E3.90016
G1 X90.263 Y119.288 E3.92979
G1 X90.254 Y118.955 E3.94087
G1 X90.25 Y118.658 E3.95075
G1 X90.251 Y106.525 E4.35429
G1 X90.26 Y105.86 E4.37641
G1 X90.313 Y104.924 E4.4076
G1 X90.445 Y103.995 E4.43881
G1 X90.656 Y103.081 E4.47
G1 X90.944 Y102.189 E4.50118
G1 X91.307 Y101.324 E4.53238
G1 X91.742 Y100.493 E4.56358
G1 X92.246 Y99.703 E4.59475
G1 X92.816 Y98.958 E4.62595
G1 X93.448 Y98.264 E4.65716
G0 F6000 X93.839 Y98.439
G1 F1200 X94.524 Y97.823 E4.68781
G1 X95.26 Y97.27 E4.71842
G1 X96.041 Y96.782 E4.74905
G1 X96.861 Y96.364 E4.77967
G1 X97.715 Y96.019 E4.8103
G1 X98.595 Y95.749 E4.84092
G1 X99.495 Y95.557 E4.87152
G1 X100.409 Y95.443 E4.90216
G1 X100.962 Y95.413 E4.92058
G1 X101.283 Y95.404 E4.93126
G1 X101.58 Y95.4 E4.94114
G1 X123.043 Y95.4 E5.655
G1 X123.893 Y95.411 E5.68328
G1 X124.812 Y95.464 E5.71389
G1 X125.723 Y95.597 E5.74451
G1 X126.619 Y95.808 E5.77513
G1 X127.493 Y96.096 E5.80574
G1 X128.34 Y96.459 E5.83639
G1 X129.151 Y96.894 E5.867
G1 X129.921 Y97.398 E5.8976
G1 X130.645 Y97.967 E5.92823
G1 X131.317 Y98.597 E5.95887
G1 X131.932 Y99.282 E5.98949
G1 X132.485 Y100.018 E6.02011
G1 X132.972 Y100.799 E6.05072
G1 X133.389 Y101.62 E6.08135
G1 X133.734 Y102.474 E6.11198
G1 X134.003 Y103.354 E6.14259
G1 X134.195 Y104.255 E6.17323
G1 X134.308 Y105.168 E6.20382
G1 X134.337 Y105.712 E6.22194
G1 X134.346 Y106.032 E6.23259
G1 X134.35 Y106.33 E6.2425
G1 X134.349 Y118.395 E6.64379
G1 X134.34 Y119.122 E6.66797
G1 X134.289 Y120.041 E6.69858
G1 X134.158 Y120.953 E6.72923
G1 X133.948 Y121.849 E6.75983
G1 X133.662 Y122.724 E6.79045
G1 X133.301 Y123.571 E6.82108
G1 X132.867 Y124.383 E6.8517
G1 X132.365 Y125.155 E6.88233
G1 X131.797 Y125.88 E6.91296
G1 X131.169 Y126.553 E6.94358
G1 X130.485 Y127.169 E6.97419
G1 X129.75 Y127.723 E7.0048
G1 X128.97 Y128.212 E7.03542
G1 X128.15 Y128.631 E7.06605
G1 X127.297 Y128.977 E7.09667
G1 X126.417 Y129.248 E7.12729
G1 X125.517 Y129.441 E7.15791
G1 X124.603 Y129.556 E7.18855
G1 X124.038 Y129.587 E7.20737
G1 X123.717 Y129.596 E7.21805
G1 X123.42 Y129.6 E7.22793
G1 X101.82 Y129.599 E7.94635
G1 X101.122 Y129.59 E7.96956
G1 X100.203 Y129.538 E8.00018
G1 X99.292 Y129.407 E8.03079
G1 X98.396 Y129.197 E8.0614
G1 X97.521 Y128.91 E8.09203
G1 X96.674 Y128.548 E8.12266
G1 X95.862 Y128.114 E8.15329
G1 X95.091 Y127.612 E8.18389
G1 X94.366 Y127.044 E8.21452
G1 X93.693 Y126.415 E8.24516
G1 X93.078 Y125.731 E8.27575
G1 X92.524 Y124.996 E8.30636
G1 X92.036 Y124.215 E8.33699
G1 X91.617 Y123.395 E8.36762
G1 X91.271 Y122.542 E8.39824
G1 X91.001 Y121.662 E8.42885
G1 X90.808 Y120.761 E8.4595
G1 X90.694 Y119.848 E8.4901
G1 X90.663 Y119.277 E8.50912
G1 X90.654 Y118.944 E8.5202
G1 X90.65 Y118.658 E8.52971
G1 X90.651 Y106.531 E8.93306
G1 X90.66 Y105.866 E8.95518
G1 X90.712 Y104.946 E8.98583
G1 X90.844 Y104.035 E9.01644
G1 X91.055 Y103.139 E9.04706
G1 X91.342 Y102.264 E9.07769
G1 X91.705 Y101.418 E9.10831
G1 X92.139 Y100.606 E9.13893
G1 X92.642 Y99.835 E9.16955
G1 X93.211 Y99.111 E9.20018
G1 X93.839 Y98.439 E9.23077
G0 F6000 X94.231 Y98.617
G1 F1200 X94.912 Y98.024 E9.2608
G1 X95.644 Y97.494 E9.29086
G1 X96.419 Y97.031 E9.32089
G1 X97.232 Y96.638 E9.35092
G1 X98.077 Y96.318 E9.38097
G1 X98.946 Y96.075 E9.41098
G1 X99.834 Y95.909 E9.44103
G1 X100.973 Y95.813 E9.47905
G1 X101.294 Y95.804 E9.48973
G1 X101.58 Y95.8 E9.49924
G1 X123.043 Y95.8 E10.21311
G1 X123.887 Y95.811 E10.24118
G1 X124.789 Y95.864 E10.27123
G1 X125.682 Y95.996 E10.30126
G1 X126.56 Y96.207 E10.33129
G1 X127.416 Y96.495 E10.36133
G1 X128.243 Y96.857 E10.39135
G1 X129.035 Y97.292 E10.42141
G1 X129.786 Y97.794 E10.45145
G1 X130.489 Y98.361 E10.48149
G1 X131.139 Y98.988 E10.51153
G1 X131.731 Y99.67 E10.54157
G1 X132.261 Y100.401 E10.5716
G1 X132.723 Y101.177 E10.60164
G1 X133.116 Y101.99 E10.63167
G1 X133.434 Y102.835 E10.6617
G1 X133.677 Y103.705 E10.69174
G1 X133.842 Y104.593 E10.72178
G1 X133.937 Y105.723 E10.7595
G1 X133.946 Y106.043 E10.77015
G1 X133.95 Y106.33 E10.77969
G1 X133.949 Y118.39 E11.18081
G1 X133.94 Y119.117 E11.20499
G1 X133.889 Y120.019 E11.23504
G1 X133.758 Y120.913 E11.26509
G1 X133.549 Y121.791 E11.29511
G1 X133.263 Y122.648 E11.32516
G1 X132.902 Y123.476 E11.3552
G1 X132.47 Y124.268 E11.38521
G1 X131.969 Y125.02 E11.41526
G1 X131.403 Y125.724 E11.44531
G1 X130.778 Y126.375 E11.47532
G1 X130.097 Y126.969 E11.50538
G1 X129.366 Y127.5 E11.53543
G1 X128.592 Y127.964 E11.56545
G1 X127.779 Y128.358 E11.59549
G1 X126.935 Y128.678 E11.62552
G1 X126.065 Y128.923 E11.65558
G1 X125.178 Y129.089 E11.68559
G1 X124.027 Y129.187 E11.72401
G1 X123.706 Y129.196 E11.73469
G1 X123.42 Y129.2 E11.74421
G1 X101.825 Y129.199 E12.46246
G1 X101.127 Y129.19 E12.48568
G1 X100.226 Y129.139 E12.51569
G1 X99.332 Y129.007 E12.54575
G1 X98.454 Y128.798 E12.57577
G1 X97.597 Y128.511 E12.60583
G1 X96.77 Y128.15 E12.63584
G1 X95.977 Y127.717 E12.66589
G1 X95.226 Y127.216 E12.69592
G1 X94.522 Y126.65 E12.72596
G1 X93.871 Y126.024 E12.756
G1 X93.278 Y125.343 E12.78603
G1 X92.748 Y124.612 E12.81607
G1 X92.284 Y123.837 E12.84611
G1 X91.89 Y123.024 E12.87616
G1 X91.57 Y122.18 E12.90618
G1 X91.326 Y121.31 E12.93623
G1 X91.16 Y120.422 E12.96628
G1 X91.063 Y119.267 E13.00483
G1 X91.054 Y118.934 E13.01591
G1 X91.05 Y118.658 E13.02509
G1 X91.051 Y106.536 E13.42827
G1 X91.06 Y105.871 E13.45039
G1 X91.112 Y104.969 E13.48044
G1 X91.244 Y104.076 E13.51046
G1 X91.454 Y103.198 E13.54049
G1 X91.741 Y102.341 E13.57055
G1 X92.103 Y101.514 E13.60058
G1 X92.536 Y100.722 E13.6306
G1 X93.038 Y99.971 E13.66064
G1 X93.605 Y99.267 E13.69071
G1 X94.231 Y98.617 E13.72072
G1 F2100 E12.22072
;MESH:ADXL345_bracket_for_Ender_gantry_rev1.stl
G0 F6000 X104.295 Y108.709
G0 X103.258 Y107.662
G0 X102.931 Y108.778
G0 X102.835 Y109.38
G0 X102.931 Y109.982
G0 X103.208 Y110.524
G0 X103.596 Y110.912
G0 X104.784 Y111.491
;TYPE:WALL-INNER
G1 F2100 E13.72072
G1 F1200 X105.436 Y111.387 E13.74268
G1 X106.024 Y111.088 E13.76462
G1 X106.492 Y110.62 E13.78664
G1 X106.791 Y110.031 E13.80861
G1 X106.893 Y109.38 E13.83052
G1 X106.791 Y108.729 E13.85244
G1 X106.492 Y108.14 E13.87441
G1 X106.024 Y107.673 E13.8964
G1 X105.436 Y107.373 E13.91835
G1 X104.784 Y107.271 E13.9403
G1 X104.132 Y107.373 E13.96225
G1 X103.544 Y107.673 E13.98421
G1 X103.076 Y108.14 E14.0062
G1 X102.777 Y108.728 E14.02814
G1 X102.673 Y109.38 E14.0501
G1 X102.777 Y110.032 E14.07206
G1 X103.076 Y110.62 E14.094
G1 X103.544 Y111.088 E14.11601
G1 X104.132 Y111.387 E14.13795
G1 X104.784 Y111.491 E14.15991
G0 F6000 X104.784 Y111.086
;TYPE:WALL-OUTER
G1 F1200 X105.311 Y111.002 E14.17766
G1 X105.786 Y110.76 E14.19539
G1 X106.164 Y110.382 E14.21317
G1 X106.406 Y109.906 E14.23093
G1 X106.488 Y109.38 E14.24864
G1 X106.406 Y108.854 E14.26634
G1 X106.164 Y108.378 E14.2841
G1 X105.786 Y108.001 E14.30186
G1 X105.311 Y107.758 E14.31961
G1 X104.784 Y107.676 E14.33734
G1 X104.257 Y107.758 E14.35508
G1 X103.782 Y108.001 E14.37283
G1 X103.404 Y108.378 E14.39059
G1 X103.162 Y108.853 E14.40832
G1 X103.078 Y109.38 E14.42607
G1 X103.162 Y109.907 E14.44382
G1 X103.404 Y110.382 E14.46155
G1 X103.782 Y110.76 E14.47933
G1 X104.257 Y111.002 E14.49706
G1 X104.784 Y111.086 E14.51481
G0 F6000 X104.784 Y111.526
G1 F2100 E13.01481
G0 F6000 X106.648 Y110.734
G0 X105.456 Y109.868
G0 X119.174 Y110.069
G0 X117.982 Y110.934
G0 X119.845 Y111.691
;TYPE:WALL-INNER
G1 F2100 E14.51481
G1 F1200 X120.497 Y111.587 E14.53677
G1 X121.085 Y111.288 E14.55871
G1 X121.553 Y110.82 E14.58072
G1 X121.852 Y110.232 E14.60266
G1 X121.956 Y109.58 E14.62462
G1 X121.852 Y108.928 E14.64658
G1 X121.553 Y108.34 E14.66852
G1 X121.085 Y107.873 E14.69051
G1 X120.497 Y107.573 E14.71246
G1 X119.845 Y107.471 E14.73441
G1 X119.193 Y107.573 E14.75636
G1 X118.605 Y107.874 E14.77833
G1 X118.139 Y108.34 E14.80025
G1 X117.838 Y108.928 E14.82222
G1 X117.736 Y109.58 E14.84417
G1 X117.838 Y110.232 E14.86612
G1 X118.138 Y110.82 E14.88808
G1 X118.605 Y111.288 E14.91007
G1 X119.193 Y111.587 E14.93201
G1 X119.845 Y111.691 E14.95397
G0 F6000 X119.845 Y111.286
;TYPE:WALL-OUTER
G1 F1200 X120.372 Y111.202 E14.97172
G1 X120.847 Y110.96 E14.98945
G1 X121.225 Y110.582 E15.00723
G1 X121.467 Y110.107 E15.02496
G1 X121.551 Y109.58 E15.04271
G1 X121.467 Y109.053 E15.06046
G1 X121.225 Y108.578 E15.07819
G1 X120.847 Y108.201 E15.09594
G1 X120.372 Y107.958 E15.11369
G1 X119.845 Y107.876 E15.13143
G1 X119.318 Y107.958 E15.14917
G1 X118.843 Y108.201 E15.16691
G1 X118.466 Y108.578 E15.18465
G1 X118.223 Y109.053 E15.20239
G1 X118.141 Y109.58 E15.22013
G1 X118.223 Y110.107 E15.23787
G1 X118.466 Y110.582 E15.25562
G1 X118.843 Y110.96 E15.27337
G1 X119.318 Y111.202 E15.2911
G1 X119.845 Y111.286 E15.30885
G0 F6000 X119.845 Y111.726
G1 F2100 E13.80885
G0 F6000 X120.557 Y111.77
G0 X122.94 Y111.77
G0 X123.15 Y118.4
;TYPE:WALL-INNER
G1 F2100 E15.30885
G1 F1200 X101.85 Y118.4 E16.01729
G1 X101.85 Y106.6 E16.40976
G1 X123.15 Y106.6 E17.1182
G1 X123.15 Y118.4 E17.51067
G0 F6000 X123.55 Y118.8
;TYPE:WALL-OUTER
G1 F1200 X101.45 Y118.8 E18.24572
G1 X101.45 Y106.2 E18.6648
G1 X123.55 Y106.2 E19.39985
G1 X123.55 Y118.8 E19.81893
G0 F6000 X123.28 Y118.53
G0 X123.04 Y118.01
G0 X122.76 Y118.01
;TYPE:SKIN
G1 F1200 X102.24 Y118.01 E20.50143
G1 X102.24 Y106.99 E20.86795
G1 X104.056 Y106.99 E20.92835
G1 X104.011 Y106.997 E20.92987
G1 X103.312 Y107.353 E20.95596
G1 X102.756 Y107.908 E20.98209
G1 X102.401 Y108.605 E21.0081
G1 X102.278 Y109.38 E21.0342
G1 X102.401 Y110.155 E21.0603
G1 X102.756 Y110.852 E21.08632
G1 X103.312 Y111.408 E21.11247
G1 X104.009 Y111.763 E21.13849
G1 X104.784 Y111.886 E21.16458
G1 X105.559 Y111.763 E21.19068
G1 X106.256 Y111.408 E21.2167
G1 X106.812 Y110.852 E21.24285
G1 X107.167 Y110.152 E21.26896
G1 X107.287 Y109.38 E21.29494
G1 X107.167 Y108.608 E21.32093
G1 X106.812 Y107.908 E21.34703
G1 X106.256 Y107.353 E21.37316
G1 X105.557 Y106.997 E21.39925
G1 X105.512 Y106.99 E21.40077
G1 X122.76 Y106.99 E21.97444
G1 X122.76 Y118.01 E22.34096
G1 F2100 E20.84096
G0 F6000 X123.04 Y118.01
G0 X122.94 Y111.692
G0 X121.709 Y110.934
G0 X120.533 Y111.692
G1 F2100 E22.34096
G0 F6000 X120.62 Y111.963
G1 F1200 X121.317 Y111.608 E22.36698
G1 X121.873 Y111.052 E22.39313
G1 X122.228 Y110.355 E22.41915
G1 X122.351 Y109.58 E22.44525
G1 X122.228 Y108.805 E22.47135
G1 X121.873 Y108.108 E22.49736
G1 X121.317 Y107.553 E22.52349
G1 X120.618 Y107.197 E22.54958
G1 X119.845 Y107.077 E22.5756
G1 X119.071 Y107.197 E22.60165
G1 X118.373 Y107.555 E22.62774
G1 X117.82 Y108.108 E22.65375
G1 X117.462 Y108.806 E22.67985
G1 X117.342 Y109.58 E22.7059
G1 X117.462 Y110.353 E22.73191
G1 X117.818 Y111.052 E22.758
G1 X118.373 Y111.608 E22.78413
G1 X119.07 Y111.963 E22.81015
G1 X119.845 Y112.086 E22.83625
G1 X120.62 Y111.963 E22.86235
G1 F2100 E21.36235
G0 F6000 X120.533 Y111.692
G0 X121.421 Y110.724
G0 X121.698 Y110.182
G0 X121.775 Y109.696
G0 X121.709 Y108.226
G0 X122.94 Y108.226
G0 X123.04 Y107.325
G1 F2100 E22.86235
G0 F6000 X122.598 Y107.325
G1 F1200 X122.423 Y107.15 E22.87058
G0 F6000 X121.857 Y107.15
G1 F1200 X122.598 Y107.891 E22.90543
G0 F6000 X122.598 Y108.456
G1 F1200 X121.292 Y107.15 E22.96686
G1 F2100 E21.46686
G0 F6000 X121.292 Y106.71
G0 X121.957 Y106.81
G0 X121.199 Y107.717
G0 X121.957 Y108.892
G1 F2100 E22.96686
G0 F6000 X122.39 Y108.813
G1 F1200 X122.598 Y109.022 E22.97667
G0 F6000 X122.497 Y109.486
G1 F1200 X122.598 Y109.588 E22.98145
G0 F6000 X122.445 Y110
G1 F1200 X122.598 Y110.153 E22.98864
G0 F6000 X122.348 Y110.469
G1 F1200 X122.598 Y110.719 E23.0004
G0 F6000 X122.157 Y110.843
G1 F1200 X122.598 Y111.285 E23.02117
G0 F6000 X122.598 Y111.85
G1 F1200 X121.949 Y111.201 E23.0517
G0 F6000 X121.666 Y111.484
G1 F1200 X122.598 Y112.416 E23.09553
G0 F6000 X122.598 Y112.982
G1 F1200 X121.374 Y111.758 E23.15311
G0 F6000 X121 Y111.949
G1 F1200 X122.598 Y113.547 E23.22827
G0 F6000 X122.598 Y114.113
G1 F1200 X120.611 Y112.126 E23.32173
G0 F6000 X120.124 Y112.204
G1 F1200 X122.598 Y114.679 E23.43813
G0 F6000 X122.598 Y115.244
G1 F1200 X119.556 Y112.202 E23.58121
G0 F6000 X118.787 Y111.999
G1 F1200 X122.598 Y115.81 E23.76047
G0 F6000 X122.598 Y116.376
G1 F1200 X113.372 Y107.15 E24.19443
G0 F6000 X113.938 Y107.15
G1 F1200 X117.427 Y110.639 E24.35855
G0 F6000 X117.225 Y109.871
G1 F1200 X114.503 Y107.15 E24.48656
G0 F6000 X115.069 Y107.15
G1 F1200 X117.223 Y109.303 E24.58785
G0 F6000 X117.298 Y108.813
G1 F1200 X115.635 Y107.15 E24.66607
G0 F6000 X116.2 Y107.15
G1 F1200 X117.476 Y108.425 E24.72607
G0 F6000 X117.668 Y108.052
G1 F1200 X116.766 Y107.15 E24.7685
G0 F6000 X117.332 Y107.15
G1 F1200 X117.941 Y107.758 E24.79712
G0 F6000 X118.224 Y107.475
G1 F1200 X117.898 Y107.15 E24.81243
G0 F6000 X118.463 Y107.15
G1 F1200 X118.581 Y107.267 E24.81796
G1 F2100 E23.31796
G0 F6000 X118.78 Y107.661
G0 X117.983 Y108.226
G0 X117.983 Y106.81
