;FLAVOR:Marlin
;TIME:1630
;Filament used: 1.53594m
;Layer height: 0.2
;MINX:86.25
;MINY:86.25
;MINZ:0.2
;MAXX:138.75
;MAXY:138.75
;MAXZ:30
;POSTPROCESSED
;Generated with Cura_SteamEngine 4.13.1
;
;

M82 ;absolute extrusion mode
; Ender 3 Custom Start G-code
M117 Getting the bed up to temp!
M140 S55.0 ; Set Heat Bed temperature
M190 S55.0 ; Wait for Heat Bed temperature
M117 Pre-heating the extruder!
M104 S210; start warming extruder to 160
G28 ; Home all axes
M117 Auto bed-level GO!
G29 ; Auto bed-level (BL-Touch)
G92 E0 ; Reset Extruder
M117 Getting the extruder up to temp!
M104 S210 ; Set Extruder temperature
M109 S210 ; Wait for Extruder temperature
G1 Z2.0 F3000 ; move z up little to prevent scratching of surface
G1 X0.1 Y20 Z0.3 F5000.0 ; move to start-line position
M117 LET THE PURGE BEGIN!
SET_GCODE_OFFSET Z=-.005
G1 X0.1 Y200.0 Z0.3 F1500.0 E15 ; draw 1st line
G1 X0.4 Y200.0 Z0.3 F5000.0 ; move to side a little
G1 X0.4 Y20 Z0.3 F1500.0 E30 ; draw 2nd line
G92 E0 ; reset extruder
G1 Z1.0 F3000 ; move z up little to prevent scratching of surface
G1 X5 Y20 Z0.3 F5000.0 ; Move over to prevent blob squish
; SET_GCODE_OFFSET Z=+.075
M117 Autobots! Roll Out!
; End of custom start GCode
G92 E0
G92 E0
G1 F2700 E-3.5
;LAYER_COUNT:150
;LAYER:0
M107
G0 F9000 X89.452 Y89.657 Z0.2
;TYPE:SKIRT
G1 F2700 E0
G1 F2100 X90.142 Y89.006 E0.03944
G1 X90.885 Y88.416 E0.07888
G1 X91.674 Y87.89 E0.11831
G1 X92.505 Y87.433 E0.15774
G1 X93.372 Y87.047 E0.19719
G1 X94.268 Y86.736 E0.23663
G1 X95.187 Y86.501 E0.27606
G1 X96.122 Y86.345 E0.31547
G1 X97.194 Y86.263 E0.36017
G1 X97.515 Y86.254 E0.37352
G1 X97.83 Y86.25 E0.38662
G1 X126.793 Y86.25 E1.59076
G1 X127.652 Y86.261 E1.62648
G1 X128.599 Y86.315 E1.66591
G1 X129.538 Y86.448 E1.70534
G1 X130.463 Y86.66 E1.7448
G1 X131.366 Y86.948 E1.7842
G1 X132.242 Y87.312 E1.82364
G1 X133.084 Y87.749 E1.86308
G1 X133.886 Y88.255 E1.90251
G1 X134.643 Y88.826 E1.94193
G1 X135.349 Y89.46 E1.98138
G1 X136 Y90.15 E2.02082
G1 X136.589 Y90.893 E2.06024
G1 X137.114 Y91.683 E2.09967
G1 X137.571 Y92.514 E2.1391
G1 X137.956 Y93.381 E2.17854
G1 X138.267 Y94.277 E2.21797
G1 X138.501 Y95.196 E2.2574
G1 X138.656 Y96.132 E2.29684
G1 X138.737 Y97.194 E2.34112
G1 X138.746 Y97.514 E2.35443
G1 X138.75 Y97.83 E2.36757
G1 X138.749 Y126.903 E3.57629
G1 X138.74 Y127.63 E3.60651
G1 X138.688 Y128.577 E3.64594
G1 X138.557 Y129.517 E3.6854
G1 X138.347 Y130.442 E3.72484
G1 X138.06 Y131.346 E3.76427
G1 X137.698 Y132.222 E3.80368
G1 X137.263 Y133.065 E3.84312
G1 X136.759 Y133.868 E3.88253
G1 X136.189 Y134.626 E3.92196
G1 X135.557 Y135.334 E3.96142
G1 X134.867 Y135.985 E4.00086
G1 X134.126 Y136.576 E4.04027
G1 X133.337 Y137.103 E4.07971
G1 X132.506 Y137.561 E4.11916
G1 X131.64 Y137.948 E4.1586
G1 X130.745 Y138.26 E4.198
G1 X129.826 Y138.496 E4.23745
G1 X128.891 Y138.654 E4.27687
G1 X127.806 Y138.737 E4.32211
G1 X127.485 Y138.746 E4.33547
G1 X127.17 Y138.75 E4.34856
G1 X98.062 Y138.749 E5.55873
G1 X97.364 Y138.74 E5.58775
G1 X96.417 Y138.688 E5.62719
G1 X95.478 Y138.556 E5.66661
G1 X94.553 Y138.346 E5.70604
G1 X93.649 Y138.058 E5.74549
G1 X92.773 Y137.695 E5.78491
G1 X91.93 Y137.26 E5.82435
G1 X91.127 Y136.755 E5.86379
G1 X90.369 Y136.185 E5.90322
G1 X89.662 Y135.553 E5.94265
G1 X89.011 Y134.863 E5.98208
G1 X88.42 Y134.121 E6.02152
G1 X87.894 Y133.332 E6.06095
G1 X87.436 Y132.501 E6.1004
G1 X87.05 Y131.635 E6.13981
G1 X86.738 Y130.739 E6.17926
G1 X86.503 Y129.82 E6.2187
G1 X86.346 Y128.885 E6.25811
G1 X86.263 Y127.795 E6.30356
G1 X86.254 Y127.462 E6.31741
G1 X86.25 Y127.158 E6.33005
G1 X86.251 Y98.022 E7.54139
G1 X86.26 Y97.357 E7.56904
G1 X86.313 Y96.41 E7.60847
G1 X86.445 Y95.471 E7.64789
G1 X86.656 Y94.546 E7.68734
G1 X86.944 Y93.642 E7.72678
G1 X87.308 Y92.766 E7.76622
G1 X87.743 Y91.924 E7.80562
G1 X88.249 Y91.121 E7.84508
G1 X88.82 Y90.364 E7.8845
G1 X89.452 Y89.657 E7.92393
G0 F9000 X89.943 Y89.873
G1 F2100 X90.629 Y89.249 E7.96248
G1 X91.366 Y88.687 E8.00102
G1 X92.149 Y88.191 E8.03955
G1 X92.972 Y87.763 E8.07812
G1 X93.828 Y87.409 E8.11663
G1 X94.712 Y87.129 E8.15518
G1 X95.617 Y86.927 E8.19373
G1 X96.536 Y86.803 E8.23229
G1 X97.208 Y86.763 E8.26028
G1 X97.529 Y86.754 E8.27363
G1 X97.83 Y86.75 E8.28614
G1 X126.793 Y86.75 E9.49028
G1 X127.645 Y86.761 E9.52571
G1 X128.571 Y86.814 E9.56427
G1 X129.488 Y86.947 E9.60279
G1 X130.391 Y87.159 E9.64136
G1 X131.272 Y87.447 E9.67989
G1 X132.125 Y87.81 E9.71843
G1 X132.944 Y88.246 E9.75701
G1 X133.722 Y88.75 E9.79555
G1 X134.453 Y89.319 E9.83406
G1 X135.133 Y89.95 E9.87263
G1 X135.756 Y90.636 E9.91116
G1 X136.318 Y91.374 E9.94972
G1 X136.814 Y92.157 E9.98826
G1 X137.24 Y92.981 E10.02682
G1 X137.594 Y93.837 E10.06533
G1 X137.873 Y94.722 E10.10391
G1 X138.075 Y95.627 E10.14246
G1 X138.198 Y96.546 E10.18101
G1 X138.237 Y97.208 E10.20858
G1 X138.246 Y97.528 E10.22189
G1 X138.25 Y97.83 E10.23445
G1 X138.249 Y126.897 E11.44291
G1 X138.24 Y127.624 E11.47314
G1 X138.189 Y128.55 E11.5117
G1 X138.058 Y129.468 E11.55025
G1 X137.848 Y130.371 E11.5888
G1 X137.561 Y131.252 E11.62732
G1 X137.2 Y132.106 E11.66586
G1 X136.766 Y132.926 E11.70444
G1 X136.263 Y133.705 E11.74299
G1 X135.695 Y134.437 E11.78151
G1 X135.066 Y135.118 E11.82005
G1 X134.381 Y135.743 E11.8586
G1 X133.644 Y136.306 E11.89716
G1 X132.862 Y136.803 E11.93568
G1 X132.039 Y137.231 E11.97425
G1 X131.183 Y137.587 E12.01279
G1 X130.3 Y137.868 E12.05132
G1 X129.395 Y138.071 E12.08988
G1 X128.476 Y138.196 E12.12844
G1 X127.792 Y138.237 E12.15693
G1 X127.471 Y138.246 E12.17028
G1 X127.17 Y138.25 E12.18279
G1 X98.068 Y138.249 E13.39271
G1 X97.37 Y138.24 E13.42174
G1 X96.445 Y138.188 E13.46025
G1 X95.527 Y138.057 E13.49881
G1 X94.624 Y137.847 E13.53735
G1 X93.742 Y137.56 E13.57591
G1 X92.889 Y137.197 E13.61445
G1 X92.07 Y136.763 E13.65299
G1 X91.291 Y136.26 E13.69154
G1 X90.558 Y135.692 E13.73009
G1 X89.878 Y135.062 E13.76863
G1 X89.254 Y134.377 E13.80716
G1 X88.691 Y133.64 E13.84572
G1 X88.194 Y132.857 E13.88427
G1 X87.766 Y132.034 E13.92284
G1 X87.411 Y131.178 E13.96137
G1 X87.131 Y130.294 E13.99992
G1 X86.928 Y129.39 E14.03844
G1 X86.804 Y128.471 E14.07699
G1 X86.763 Y127.781 E14.10573
G1 X86.754 Y127.448 E14.11958
G1 X86.75 Y127.158 E14.13164
G1 X86.751 Y98.029 E15.34268
G1 X86.76 Y97.364 E15.37033
G1 X86.812 Y96.438 E15.40889
G1 X86.945 Y95.52 E15.44745
G1 X87.155 Y94.617 E15.486
G1 X87.443 Y93.736 E15.52453
G1 X87.805 Y92.883 E15.56306
G1 X88.24 Y92.064 E15.60161
G1 X88.744 Y91.285 E15.64019
G1 X89.313 Y90.553 E15.67873
G1 X89.943 Y89.873 E15.71727
G0 F9000 X90.432 Y90.094
G1 F2100 X91.114 Y89.499 E15.7549
G1 X91.846 Y88.966 E15.79255
G1 X92.622 Y88.499 E15.8302
G1 X93.436 Y88.103 E15.86784
G1 X94.281 Y87.78 E15.90545
G1 X95.153 Y87.534 E15.94312
G1 X96.042 Y87.365 E15.98074
G1 X97.222 Y87.263 E16.02998
G1 X97.543 Y87.254 E16.04333
G1 X97.83 Y87.25 E16.05526
G1 X126.793 Y87.25 E17.2594
G1 X127.638 Y87.261 E17.29454
G1 X128.542 Y87.314 E17.33219
G1 X129.437 Y87.446 E17.3698
G1 X130.318 Y87.657 E17.40746
G1 X131.176 Y87.945 E17.44509
G1 X132.006 Y88.308 E17.48275
G1 X132.8 Y88.742 E17.52037
G1 X133.553 Y89.245 E17.55802
G1 X134.259 Y89.812 E17.59567
G1 X134.911 Y90.439 E17.63328
G1 X135.506 Y91.121 E17.6709
G1 X136.039 Y91.853 E17.70855
G1 X136.505 Y92.63 E17.74622
G1 X136.9 Y93.444 E17.78383
G1 X137.222 Y94.29 E17.82147
G1 X137.468 Y95.161 E17.8591
G1 X137.637 Y96.051 E17.89676
G1 X137.737 Y97.222 E17.94562
G1 X137.746 Y97.542 E17.95893
G1 X137.75 Y97.83 E17.97091
G1 X137.749 Y126.891 E19.17912
G1 X137.74 Y127.618 E19.20935
G1 X137.689 Y128.522 E19.24699
G1 X137.558 Y129.418 E19.28464
G1 X137.349 Y130.298 E19.32224
G1 X137.063 Y131.157 E19.35989
G1 X136.702 Y131.988 E19.39755
G1 X136.269 Y132.783 E19.43519
G1 X135.768 Y133.537 E19.47283
G1 X135.202 Y134.244 E19.51048
G1 X134.577 Y134.898 E19.54809
G1 X133.895 Y135.494 E19.58575
G1 X133.164 Y136.028 E19.62338
G1 X132.389 Y136.495 E19.661
G1 X131.575 Y136.892 E19.69865
G1 X130.73 Y137.216 E19.73628
G1 X129.859 Y137.464 E19.77393
G1 X128.97 Y137.634 E19.81156
G1 X127.778 Y137.737 E19.8613
G1 X127.457 Y137.746 E19.87465
G1 X127.17 Y137.75 E19.88659
G1 X98.075 Y137.749 E21.09622
G1 X97.377 Y137.74 E21.12524
G1 X96.473 Y137.689 E21.16288
G1 X95.577 Y137.557 E21.20053
G1 X94.697 Y137.348 E21.23814
G1 X93.838 Y137.061 E21.27579
G1 X93.008 Y136.7 E21.31342
G1 X92.213 Y136.267 E21.35106
G1 X91.459 Y135.765 E21.38872
G1 X90.753 Y135.199 E21.42634
G1 X90.099 Y134.573 E21.46398
G1 X89.503 Y133.891 E21.50163
G1 X88.969 Y133.16 E21.53927
G1 X88.502 Y132.384 E21.57692
G1 X88.106 Y131.57 E21.61456
G1 X87.782 Y130.725 E21.65218
G1 X87.535 Y129.854 E21.68982
G1 X87.365 Y128.965 E21.72745
G1 X87.263 Y127.768 E21.7774
G1 X87.254 Y127.435 E21.79125
G1 X87.25 Y127.158 E21.80277
G1 X87.251 Y98.035 E23.01356
G1 X87.26 Y97.37 E23.04121
G1 X87.312 Y96.466 E23.07886
G1 X87.444 Y95.571 E23.11647
G1 X87.654 Y94.69 E23.15412
G1 X87.941 Y93.832 E23.19174
G1 X88.303 Y93.002 E23.22938
G1 X88.737 Y92.207 E23.26704
G1 X89.239 Y91.454 E23.30466
G1 X89.805 Y90.748 E23.34228
G1 X90.432 Y90.094 E23.37995
G1 F2700 E19.87995
;MESH:30 mm cube.stl
G0 F9000 X98.02 Y96.835
G0 X98.02 Y98.02
G0 X126.518 Y98.482
G0 X126.75 Y126.75
;TYPE:WALL-INNER
G1 F2700 E23.37995
G1 F2100 X98.25 Y126.75 E24.56484
G1 X98.25 Y98.25 E25.74974
G1 X126.75 Y98.25 E26.93463
G1 X126.75 Y126.75 E28.11952
G0 F9000 X127.25 Y127.25
;TYPE:WALL-OUTER
G1 F2100 X97.75 Y127.25 E29.34599
G1 X97.75 Y97.75 E30.57246
G1 X127.25 Y97.75 E31.79892
G1 X127.25 Y127.25 E33.02539
G0 F9000 X126.93 Y126.93
G0 X126.59 Y126.26
G0 X126.26 Y126.26
;TYPE:SKIN
G1 F2100 X98.74 Y126.26 E34.16954
G1 X98.74 Y98.74 E35.31369
G1 X126.26 Y98.74 E36.45784
G1 X126.26 Y126.26 E37.60199
G0 F9000 X126.59 Y126.26
G0 X126.59 Y99.189
G0 X126.059 Y99.189
G1 F2100 X125.81 Y98.94 E37.61663
G0 F9000 X125.103 Y98.94
G1 F2100 X126.059 Y99.896 E37.67284
G0 F9000 X126.059 Y100.603
G1 F2100 X124.396 Y98.94 E37.77061
G0 F9000 X123.689 Y98.94
G1 F2100 X126.059 Y101.31 E37.90996
G0 F9000 X126.059 Y102.017
G1 F2100 X122.982 Y98.94 E38.09088
G0 F9000 X122.275 Y98.94
G1 F2100 X126.059 Y102.724 E38.31336
G0 F9000 X126.059 Y103.432
G1 F2100 X121.567 Y98.94 E38.57747
G0 F9000 X120.86 Y98.94
G1 F2100 X126.059 Y104.139 E38.88315
G0 F9000 X126.059 Y104.846
G1 F2100 X120.153 Y98.94 E39.2304
G0 F9000 X119.446 Y98.94
G1 F2100 X126.059 Y105.553 E39.61922
G0 F9000 X126.059 Y106.26
G1 F2100 X118.739 Y98.94 E40.04961
G0 F9000 X118.032 Y98.94
G1 F2100 X126.059 Y106.967 E40.52157
G0 F9000 X126.059 Y107.674
G1 F2100 X117.325 Y98.94 E41.03509
G0 F9000 X116.618 Y98.94
G1 F2100 X126.059 Y108.381 E41.59019
G0 F9000 X126.059 Y109.088
G1 F2100 X115.911 Y98.94 E42.18685
G0 F9000 X115.203 Y98.94
G1 F2100 X126.059 Y109.796 E42.82514
G0 F9000 X126.059 Y110.503
G1 F2100 X114.496 Y98.94 E43.505
G0 F9000 X113.789 Y98.94
G1 F2100 X126.059 Y111.21 E44.22643
G0 F9000 X126.059 Y111.917
G1 F2100 X113.082 Y98.94 E44.98943
G0 F9000 X112.375 Y98.94
G1 F2100 X126.059 Y112.624 E45.794
G0 F9000 X126.059 Y113.331
G1 F2100 X111.668 Y98.94 E46.64013
G0 F9000 X110.961 Y98.94
G1 F2100 X126.059 Y114.038 E47.52784
G0 F9000 X126.059 Y114.745
G1 F2100 X110.254 Y98.94 E48.45711
G0 F9000 X109.547 Y98.94
G1 F2100 X126.059 Y115.452 E49.42795
G0 F9000 X126.059 Y116.159
G1 F2100 X108.839 Y98.94 E50.44039
G0 F9000 X108.132 Y98.94
G1 F2100 X126.059 Y116.867 E51.49443
G0 F9000 X126.059 Y117.574
G1 F2100 X107.425 Y98.94 E52.59004
G0 F9000 X106.718 Y98.94
G1 F2100 X126.059 Y118.281 E53.72722
G0 F9000 X126.059 Y118.988
G1 F2100 X106.011 Y98.94 E54.90596
G0 F9000 X105.304 Y98.94
G1 F2100 X126.059 Y119.695 E56.12628
G0 F9000 X126.059 Y120.402
G1 F2100 X104.597 Y98.94 E57.38816
G0 F9000 X103.89 Y98.94
G1 F2100 X126.059 Y121.109 E58.69161
G0 F9000 X126.059 Y121.816
G1 F2100 X103.183 Y98.94 E60.03663
G0 F9000 X102.476 Y98.94
G1 F2100 X126.059 Y122.523 E61.42322
G0 F9000 X126.059 Y123.231
G1 F2100 X101.768 Y98.94 E62.85144
G0 F9000 X101.061 Y98.94
G1 F2100 X126.059 Y123.938 E64.32123
G0 F9000 X126.059 Y124.645
G1 F2100 X100.354 Y98.94 E65.83258
G0 F9000 X99.647 Y98.94
G1 F2100 X126.059 Y125.352 E67.38551
G0 F9000 X126.059 Y126.059
G1 F2100 X98.939 Y98.939 E68.98006
G0 F9000 X98.939 Y99.646
G1 F2100 X125.352 Y126.059 E70.53304
G0 F9000 X124.645 Y126.059
G1 F2100 X98.939 Y100.354 E72.04443
G0 F9000 X98.939 Y101.061
G1 F2100 X123.938 Y126.059 E73.51424
G0 F9000 X123.231 Y126.059
G1 F2100 X98.939 Y101.768 E74.94249
G0 F9000 X98.939 Y102.475
G1 F2100 X122.523 Y126.059 E76.32914
G0 F9000 X121.816 Y126.059
G1 F2100 X98.939 Y103.182 E77.67422
G0 F9000 X98.939 Y103.889
G1 F2100 X121.109 Y126.059 E78.97773
G0 F9000 X120.402 Y126.059
G1 F2100 X98.939 Y104.596 E80.23967
G0 F9000 X98.939 Y105.303
G1 F2100 X119.695 Y126.059 E81.46005
G0 F9000 X118.988 Y126.059
G1 F2100 X98.939 Y106.01 E82.63885
G0 F9000 X98.939 Y106.717
G1 F2100 X118.281 Y126.059 E83.77609
G0 F9000 X117.574 Y126.059
G1 F2100 X98.939 Y107.425 E84.87172
G0 F9000 X98.939 Y108.132
G1 F2100 X116.867 Y126.059 E85.92579
G0 F9000 X116.159 Y126.059
G1 F2100 X98.939 Y108.839 E86.93826
G0 F9000 X98.939 Y109.546
G1 F2100 X115.452 Y126.059 E87.90916
G0 F9000 X114.745 Y126.059
G1 F2100 X98.939 Y110.253 E88.83849
G0 F9000 X98.939 Y110.96
G1 F2100 X114.038 Y126.059 E89.72626
G0 F9000 X113.331 Y126.059
G1 F2100 X98.939 Y111.667 E90.57245
G0 F9000 X98.939 Y112.374
G1 F2100 X112.624 Y126.059 E91.37708
G0 F9000 X111.917 Y126.059
G1 F2100 X98.939 Y113.081 E92.14013
G0 F9000 X98.939 Y113.789
G1 F2100 X111.21 Y126.059 E92.86159
G0 F9000 X110.503 Y126.059
G1 F2100 X98.939 Y114.496 E93.54148
G0 F9000 X98.939 Y115.203
G1 F2100 X109.796 Y126.059 E94.1798
G0 F9000 X109.088 Y126.059
G1 F2100 X98.939 Y115.91 E94.77653
G0 F9000 X98.939 Y116.617
G1 F2100 X108.381 Y126.059 E95.33168
G0 F9000 X107.674 Y126.059
G1 F2100 X98.939 Y117.324 E95.84526
G0 F9000 X98.939 Y118.031
G1 F2100 X106.967 Y126.059 E96.31728
G0 F9000 X106.26 Y126.059
G1 F2100 X98.939 Y118.738 E96.74773
G0 F9000 X98.939 Y119.445
G1 F2100 X105.553 Y126.059 E97.1366
G0 F9000 X104.846 Y126.059
G1 F2100 X98.939 Y120.152 E97.48391
G0 F9000 X98.939 Y120.86
G1 F2100 X104.139 Y126.059 E97.78962
G0 F9000 X103.432 Y126.059
G1 F2100 X98.939 Y121.567 E98.05377
G0 F9000 X98.939 Y122.274
G1 F2100 X102.724 Y126.059 E98.27631
G0 F9000 X102.017 Y126.059
G1 F2100 X98.939 Y122.981 E98.45728
G0 F9000 X98.939 Y123.688
G1 F2100 X101.31 Y126.059 E98.59669
G0 F9000 X100.603 Y126.059
G1 F2100 X98.939 Y124.395 E98.69453
G0 F9000 X98.939 Y125.102
G1 F2100 X99.896 Y126.059 E98.75079
G0 F9000 X99.189 Y126.059
G1 F2100 X98.939 Y125.809 E98.76549
M104 S210
G0 F9000 X98.5 Y125.809
;MESH:NONMESH
G0 F300 X98.5 Y125.809 Z0.4
G0 F9000 X98.41 Y125.809
G0 X98.482 Y126.518
G0 X126.75 Y126.75
;TIME_ELAPSED:83.723789
;LAYER:1
M106 S85
;TYPE:WALL-INNER
;MESH:30 mm cube.stl
G1 F1410.5 X98.25 Y126.75 E99.95039
G1 X98.25 Y98.25 E101.13528
G1 X126.75 Y98.25 E102.32017
G1 X126.75 Y126.75 E103.50506
G0 F13500 X127.25 Y127.25
;TYPE:WALL-OUTER
G1 F1410.5 X97.75 Y127.25 E104.73153
G1 X97.75 Y97.75 E105.958
G1 X127.25 Y97.75 E107.18446
G1 X127.25 Y127.25 E108.41093
G0 F13500 X126.843 Y126.843
;MESH:NONMESH
G0 F300 X126.843 Y126.843 Z0.6
G0 F13500 X126.75 Y126.75
;TIME_ELAPSED:93.981651
;LAYER:2
M106 S170
;TYPE:WALL-INNER
;MESH:30 mm cube.stl
G1 F1392.7 X98.25 Y126.75 E109.59582
G1 X98.25 Y98.25 E110.78072
G1 X126.75 Y98.25 E111.96561
G1 X126.75 Y126.75 E113.1505
G0 F18000 X127.25 Y127.25
;TYPE:WALL-OUTER
G1 F1392.7 X97.75 Y127.25 E114.37697
G1 X97.75 Y97.75 E115.60344
G1 X127.25 Y97.75 E116.8299
G1 X127.25 Y127.25 E118.05637
G0 F18000 X126.843 Y126.843
;MESH:NONMESH
G0 F300 X126.843 Y126.843 Z0.8
G0 F18000 X126.75 Y126.75
;TIME_ELAPSED:104.363396
;LAYER:3
M106 S255
;TYPE:WALL-INNER
;MESH:30 mm cube.stl
G1 F1392.7 X98.25 Y126.75 E119.24126
G1 X98.25 Y98.25 E120.42616
G1 X126.75 Y98.25 E121.61105
G1 X126.75 Y126.75 E122.79594
G0 F18000 X127.25 Y127.25
;TYPE:WALL-OUTER
G1 F1392.7 X97.75 Y127.25 E124.02241
G1 X97.75 Y97.75 E125.24888
G1 X127.25 Y97.75 E126.47534
G1 X127.25 Y127.25 E127.70181
G0 F18000 X126.843 Y126.843
;MESH:NONMESH
G0 F300 X126.843 Y126.843 Z1
G0 F18000 X126.75 Y126.75
;TIME_ELAPSED:114.745140
;LAYER:4
