;FLAVOR:Marlin
;TIME:9290
;Filament used: 6.30284m
;Layer height: 0.2
;MINX:66.575
;MINY:19.7
;MINZ:0.2
;MAXX:168.425
;MAXY:157.1
;MAXZ:13.6
;Generated with Cura_SteamEngine 4.8.0
M82 ;absolute extrusion mode
; Ender 3 Custom Start G-code
M117 Getting the bed up to temp!
M140 S50 ; Set Heat Bed temperature
M190 S50 ; Wait for Heat Bed temperature
M117 Pre-heating the extruder!
M104 S175; start warming extruder to 160
G28 ; Home all axes
M117 Auto bed-level GO!
G29 ; Auto bed-level (BL-Touch)
M420 S1;
G92 E0 ; Reset Extruder
M117 Getting the extruder up to temp!
M104 S200 ; Set Extruder temperature
M109 S200 ; Wait for Extruder temperature
G1 Z2.0 F3000 ; move z up little to prevent scratching of surface
G1 X0.1 Y20 Z0.3 F5000.0 ; move to start-line position
M117 LET THE PURGE BEGIN!
G1 X0.1 Y200.0 Z0.3 F1500.0 E15 ; draw 1st line
G1 X0.4 Y200.0 Z0.3 F5000.0 ; move to side a little
G1 X0.4 Y20 Z0.3 F1500.0 E30 ; draw 2nd line
G92 E0 ; reset extruder
G1 Z1.0 F3000 ; move z up little to prevent scratching of surface
G1 X5 Y20 Z0.3 F5000.0 ; Move over to prevent blob squish
M117 Autobots! Roll Out!
; End of custom start GCode
G92 E0
G92 E0
G1 F2700 E-5
;LAYER_COUNT:68
;LAYER:0
M107
G0 F6000 X67.269 Y26.889 Z0.2
;TYPE:SKIRT
G1 F2700 E0
G1 F1200 X67.632 Y26.024 E0.0312
G1 X68.067 Y25.193 E0.0624
G1 X68.571 Y24.403 E0.09356
G1 X69.141 Y23.658 E0.12476
G1 X69.773 Y22.964 E0.15598
G1 X70.461 Y22.327 E0.18717
G1 X71.201 Y21.751 E0.21836
G1 X71.987 Y21.239 E0.24956
G1 X72.814 Y20.797 E0.28075
G1 X73.676 Y20.427 E0.31195
G1 X74.566 Y20.131 E0.34314
G1 X75.478 Y19.913 E0.37433
G1 X76.405 Y19.772 E0.40552
G1 X77.276 Y19.713 E0.43455
G1 X77.597 Y19.704 E0.44523
G1 X77.905 Y19.7 E0.45548
G1 X146.718 Y19.7 E2.74421
G1 X147.573 Y19.711 E2.77265
G1 X148.509 Y19.765 E2.80383
G1 X149.438 Y19.898 E2.83504
G1 X150.351 Y20.109 E2.86621
G1 X151.244 Y20.398 E2.89743
G1 X152.108 Y20.761 E2.9286
G1 X152.938 Y21.197 E2.95978
G1 X153.729 Y21.702 E2.991
G1 X154.473 Y22.273 E3.02219
G1 X155.166 Y22.905 E3.05338
G1 X155.803 Y23.594 E3.08459
G1 X156.379 Y24.334 E3.11578
G1 X156.889 Y25.121 E3.14697
G1 X157.331 Y25.948 E3.17816
G1 X157.7 Y26.81 E3.20935
G1 X157.995 Y27.7 E3.24053
G1 X158.213 Y28.612 E3.27172
G1 X158.374 Y29.765 E3.31044
G1 X158.458 Y30.737 E3.34289
G1 X158.722 Y33.366 E3.43077
G1 X159.042 Y35.849 E3.51404
G1 X159.441 Y38.376 E3.59913
G1 X159.897 Y40.816 E3.68169
G1 X160.428 Y43.271 E3.76523
G1 X161.021 Y45.679 E3.84772
G1 X161.705 Y48.155 E3.93315
G1 X162.442 Y50.554 E4.01662
G1 X163.309 Y53.082 E4.10551
G1 X163.938 Y55.003 E4.17274
G1 X167.137 Y65.366 E4.53347
G1 X167.201 Y65.582 E4.54096
G1 X167.433 Y66.392 E4.56898
G1 X167.509 Y66.67 E4.57857
G1 X167.576 Y66.934 E4.58763
G1 X167.685 Y67.385 E4.60306
G1 X167.746 Y67.651 E4.61214
G1 X167.865 Y68.203 E4.63092
G1 X167.962 Y68.708 E4.64802
G1 X168.084 Y69.438 E4.67264
G1 X168.139 Y69.808 E4.68508
G1 X168.225 Y70.458 E4.70689
G1 X168.274 Y70.897 E4.72158
G1 X168.32 Y71.399 E4.73835
G1 X168.348 Y71.775 E4.75089
G1 X168.386 Y72.439 E4.77301
G1 X168.399 Y72.737 E4.78293
G1 X168.416 Y73.303 E4.80176
G1 X168.421 Y73.546 E4.80985
G1 X168.425 Y74.053 E4.82671
G1 X168.424 Y83.346 E5.1358
G1 X168.398 Y85.167 E5.19637
G1 X168.398 Y87.777 E5.28318
G1 X168.423 Y88.985 E5.32337
G1 X168.425 Y89.213 E5.33095
G1 X168.424 Y138.915 E6.98404
G1 X168.414 Y139.642 E7.00823
G1 X168.361 Y140.579 E7.03944
G1 X168.229 Y141.507 E7.07062
G1 X168.018 Y142.421 E7.10182
G1 X167.729 Y143.313 E7.133
G1 X167.366 Y144.178 E7.1642
G1 X166.931 Y145.009 E7.1954
G1 X166.426 Y145.799 E7.22659
G1 X165.856 Y146.544 E7.25779
G1 X165.225 Y147.238 E7.28898
G1 X164.536 Y147.875 E7.32019
G1 X163.796 Y148.451 E7.35138
G1 X163.01 Y148.962 E7.38256
G1 X162.183 Y149.404 E7.41375
G1 X161.321 Y149.774 E7.44495
G1 X160.431 Y150.069 E7.47614
G1 X159.519 Y150.288 E7.50733
G1 X158.592 Y150.428 E7.53851
G1 X157.724 Y150.487 E7.56745
G1 X157.404 Y150.496 E7.5781
G1 X157.095 Y150.5 E7.58838
G1 X148.45 Y150.499 E7.87591
G1 X147.751 Y150.489 E7.89916
G1 X146.814 Y150.435 E7.93038
G1 X145.903 Y150.306 E7.96098
G1 X145.414 Y150.214 E7.97753
G1 X143.361 Y149.802 E8.04717
G1 X140.913 Y149.383 E8.12978
G1 X138.418 Y149.028 E8.2136
G1 X135.886 Y148.74 E8.29836
G1 X133.397 Y148.528 E8.38144
G1 X130.913 Y148.387 E8.46419
G1 X128.355 Y148.315 E8.5493
G1 X125.867 Y148.315 E8.63206
G1 X123.308 Y148.387 E8.7172
G1 X120.824 Y148.528 E8.79995
G1 X118.335 Y148.74 E8.88304
G1 X115.807 Y149.027 E8.96766
G1 X113.303 Y149.384 E9.05178
G1 X110.865 Y149.801 E9.13405
G1 X108.371 Y150.301 E9.21865
G1 X105.914 Y150.867 E9.30251
G1 X103.515 Y151.491 E9.38496
G1 X101.075 Y152.2 E9.46947
G1 X98.662 Y152.977 E9.55378
G1 X96.295 Y153.811 E9.63726
G1 X93.967 Y154.709 E9.72025
G1 X91.602 Y155.696 E9.80548
G1 X90.693 Y156.1 E9.83857
G1 X90.268 Y156.278 E9.85389
G1 X90.154 Y156.323 E9.85797
G1 X89.268 Y156.63 E9.88916
G1 X88.358 Y156.86 E9.92037
G1 X87.433 Y157.012 E9.95155
G1 X86.426 Y157.087 E9.98514
G1 X86.108 Y157.096 E9.99572
G1 X85.797 Y157.1 E10.00606
G1 X82.104 Y157.099 E10.12889
G1 X81.302 Y157.089 E10.15557
G1 X80.956 Y157.079 E10.16708
G1 X80.592 Y157.063 E10.1792
G1 X80.007 Y157.022 E10.19871
G1 X79.567 Y156.976 E10.21342
G1 X79.307 Y156.944 E10.22213
G1 X78.593 Y156.832 E10.24617
G1 X78.026 Y156.724 E10.26537
G1 X77.19 Y156.53 E10.29391
G1 X76.794 Y156.417 E10.30761
G1 X76.599 Y156.357 E10.3144
G1 X76.24 Y156.24 E10.32695
G1 X75.747 Y156.06 E10.34441
G1 X75.543 Y155.98 E10.3517
G1 X74.905 Y155.706 E10.37479
G1 X74.693 Y155.607 E10.38257
G1 X73.864 Y155.176 E10.41365
G1 X73.537 Y154.988 E10.4262
G1 X72.55 Y154.348 E10.46532
G1 X72.429 Y154.26 E10.4703
G1 X71.688 Y153.67 E10.5018
G1 X71.339 Y153.367 E10.51717
G1 X70.657 Y152.723 E10.54837
G1 X70.285 Y152.319 E10.56664
G1 X69.819 Y151.757 E10.59092
G1 X69.549 Y151.408 E10.6056
G1 X68.913 Y150.494 E10.64263
G1 X68.746 Y150.226 E10.65313
G1 X68.251 Y149.343 E10.6868
G1 X68.117 Y149.076 E10.69674
G1 X67.673 Y148.071 E10.73328
G1 X67.556 Y147.765 E10.74418
G1 X67.383 Y147.276 E10.76143
G1 X67.356 Y147.194 E10.7643
G1 X67.196 Y146.665 E10.78268
G1 X67.137 Y146.45 E10.7901
G1 X67.031 Y146.032 E10.80444
G1 X66.864 Y145.205 E10.8325
G1 X66.773 Y144.644 E10.85141
G1 X66.684 Y143.965 E10.87418
G1 X66.651 Y143.631 E10.88535
G1 X66.61 Y143.068 E10.90412
G1 X66.598 Y142.814 E10.91258
G1 X66.587 Y142.436 E10.92516
G1 X66.575 Y141.436 E10.95842
G1 X66.577 Y132.14 E11.2676
G1 X66.586 Y131.346 E11.29401
G1 X66.596 Y130.955 E11.30702
G1 X66.608 Y130.696 E11.31565
G1 X66.64 Y130.134 E11.33437
G1 X66.667 Y129.768 E11.34658
G1 X66.742 Y128.939 E11.37426
G1 X66.788 Y128.52 E11.38828
G1 X66.834 Y128.164 E11.40022
G1 X66.883 Y127.822 E11.41171
G1 X66.988 Y127.171 E11.43364
G1 X67.091 Y126.625 E11.45212
G1 X67.846 Y123.079 E11.57271
G1 X68.308 Y120.585 E11.65707
G1 X68.7 Y118.082 E11.74133
G1 X69.017 Y115.593 E11.82479
G1 X69.262 Y113.094 E11.9083
G1 X69.44 Y110.562 E11.99273
G1 X69.544 Y108.077 E12.07545
G1 X69.578 Y105.537 E12.15994
G1 X69.54 Y103.029 E12.24336
G1 X69.432 Y100.51 E12.32722
G1 X69.253 Y98.014 E12.41045
G1 X69 Y95.48 E12.49515
G1 X68.679 Y92.987 E12.57876
G1 X68.291 Y90.529 E12.66152
G1 X67.828 Y88.047 E12.7455
G1 X67.294 Y85.579 E12.82948
G1 X67.097 Y84.77 E12.85718
G1 X66.869 Y83.787 E12.89074
G1 X66.697 Y82.866 E12.9219
G1 X66.59 Y81.633 E12.96307
G1 X66.58 Y81.301 E12.97411
G1 X66.575 Y80.97 E12.98512
G1 X66.576 Y31.225 E14.63965
G1 X66.585 Y30.56 E14.66177
G1 X66.638 Y29.624 E14.69295
G1 X66.77 Y28.695 E14.72416
G1 X66.981 Y27.781 E14.75536
G1 X67.269 Y26.889 E14.78653
G0 F6000 X67.667 Y26.964
G1 F1200 X68.03 Y26.118 E14.81715
G1 X68.464 Y25.306 E14.84778
G1 X68.967 Y24.535 E14.87839
G1 X69.536 Y23.811 E14.90902
G1 X70.164 Y23.139 E14.93961
G1 X70.849 Y22.523 E14.97025
G1 X71.585 Y21.97 E15.00087
G1 X72.366 Y21.482 E15.0315
G1 X73.186 Y21.064 E15.06212
G1 X74.04 Y20.719 E15.09275
G1 X74.92 Y20.449 E15.12337
G1 X75.82 Y20.257 E15.15397
G1 X76.734 Y20.143 E15.18461
G1 X77.287 Y20.113 E15.20303
G1 X77.608 Y20.104 E15.21371
G1 X77.905 Y20.1 E15.22359
G1 X146.718 Y20.1 E17.51232
G1 X147.567 Y20.111 E17.54056
G1 X148.486 Y20.164 E17.57117
G1 X149.397 Y20.297 E17.6018
G1 X150.293 Y20.508 E17.63241
G1 X151.168 Y20.796 E17.66305
G1 X152.014 Y21.16 E17.69368
G1 X152.825 Y21.595 E17.72429
G1 X153.596 Y22.098 E17.75491
G1 X154.32 Y22.667 E17.78554
G1 X154.991 Y23.297 E17.81615
G1 X155.606 Y23.982 E17.84677
G1 X156.159 Y24.718 E17.87739
G1 X156.646 Y25.5 E17.90803
G1 X157.063 Y26.32 E17.93863
G1 X157.408 Y27.174 E17.96926
G1 X157.677 Y28.054 E17.99987
G1 X157.869 Y28.955 E18.03051
G1 X157.976 Y29.799 E18.0588
G1 X158.063 Y30.813 E18.09265
G1 X158.326 Y33.421 E18.17983
G1 X158.648 Y35.926 E18.26384
G1 X159.039 Y38.405 E18.34731
G1 X159.506 Y40.902 E18.4318
G1 X160.037 Y43.354 E18.51524
G1 X160.639 Y45.801 E18.59906
G1 X161.322 Y48.273 E18.68436
G1 X162.052 Y50.647 E18.76696
G1 X162.929 Y53.207 E18.85697
G1 X163.499 Y54.945 E18.9178
G1 X163.555 Y55.121 E18.92395
G1 X166.754 Y65.484 E19.28467
G1 X166.816 Y65.692 E19.29189
G1 X167.097 Y66.677 E19.32596
G1 X167.187 Y67.028 E19.33801
G1 X167.296 Y67.479 E19.35344
G1 X167.355 Y67.735 E19.36218
G1 X167.474 Y68.287 E19.38096
G1 X167.567 Y68.774 E19.39745
G1 X167.689 Y69.504 E19.42207
G1 X167.742 Y69.861 E19.43407
G1 X167.828 Y70.511 E19.45588
G1 X167.876 Y70.934 E19.47004
G1 X167.922 Y71.436 E19.48681
G1 X167.949 Y71.797 E19.49885
G1 X167.987 Y72.461 E19.52097
G1 X167.999 Y72.749 E19.53055
G1 X168.016 Y73.315 E19.54939
G1 X168.021 Y73.549 E19.55717
G1 X168.025 Y74.056 E19.57404
G1 X168.024 Y83.34 E19.88282
G1 X167.998 Y85.161 E19.9434
G1 X167.998 Y87.786 E20.0307
G1 X168.023 Y88.994 E20.07089
G1 X168.025 Y89.213 E20.07817
G1 X168.024 Y138.91 E21.7311
G1 X168.014 Y139.637 E21.75529
G1 X167.961 Y140.556 E21.7859
G1 X167.829 Y141.467 E21.81652
G1 X167.618 Y142.363 E21.84714
G1 X167.331 Y143.238 E21.87776
G1 X166.968 Y144.084 E21.90838
G1 X166.534 Y144.896 E21.93901
G1 X166.03 Y145.667 E21.96964
G1 X165.462 Y146.391 E22.00025
G1 X164.833 Y147.063 E22.03086
G1 X164.148 Y147.678 E22.06148
G1 X163.412 Y148.231 E22.0921
G1 X162.631 Y148.719 E22.12273
G1 X161.811 Y149.137 E22.15334
G1 X160.957 Y149.482 E22.18398
G1 X160.077 Y149.751 E22.21458
G1 X159.176 Y149.944 E22.24523
G1 X158.263 Y150.057 E22.27583
G1 X157.713 Y150.087 E22.29415
G1 X157.393 Y150.096 E22.3048
G1 X157.095 Y150.1 E22.31471
G1 X148.455 Y150.099 E22.60208
G1 X147.756 Y150.089 E22.62533
G1 X146.837 Y150.036 E22.65594
G1 X145.976 Y149.912 E22.68488
G1 X145.493 Y149.822 E22.70122
G1 X143.441 Y149.41 E22.77083
G1 X140.965 Y148.986 E22.85438
G1 X138.448 Y148.628 E22.93894
G1 X135.967 Y148.346 E23.02199
G1 X133.416 Y148.129 E23.10714
G1 X130.911 Y147.987 E23.19059
G1 X128.366 Y147.915 E23.27527
G1 X125.856 Y147.915 E23.35876
G1 X123.31 Y147.987 E23.44347
G1 X120.805 Y148.129 E23.52692
G1 X118.254 Y148.346 E23.61207
G1 X115.772 Y148.628 E23.69516
G1 X113.256 Y148.986 E23.77968
G1 X110.75 Y149.415 E23.86424
G1 X108.341 Y149.898 E23.94596
G1 X105.804 Y150.482 E24.03255
G1 X103.376 Y151.114 E24.116
G1 X100.969 Y151.814 E24.19937
G1 X98.522 Y152.601 E24.28486
G1 X96.155 Y153.436 E24.36835
G1 X93.849 Y154.325 E24.45055
G1 X91.427 Y155.336 E24.53784
G1 X90.531 Y155.734 E24.57045
G1 X90.121 Y155.906 E24.58523
G1 X90.007 Y155.951 E24.58931
G1 X89.137 Y156.251 E24.61992
G1 X88.244 Y156.475 E24.65054
G1 X87.335 Y156.621 E24.68116
G1 X86.415 Y156.687 E24.71184
G1 X86.097 Y156.696 E24.72242
G1 X85.797 Y156.7 E24.7324
G1 X82.109 Y156.699 E24.85506
G1 X81.307 Y156.689 E24.88174
G1 X80.974 Y156.68 E24.89282
G1 X80.61 Y156.664 E24.90494
G1 X80.046 Y156.624 E24.92374
G1 X79.616 Y156.579 E24.93812
G1 X79.356 Y156.547 E24.94684
G1 X78.668 Y156.439 E24.97
G1 X78.101 Y156.331 E24.9892
G1 X77.295 Y156.144 E25.01672
G1 X76.912 Y156.034 E25.02997
G1 X76.717 Y155.974 E25.03676
G1 X76.369 Y155.861 E25.04893
G1 X75.893 Y155.687 E25.06578
G1 X75.689 Y155.607 E25.07307
G1 X75.074 Y155.343 E25.09533
G1 X74.862 Y155.244 E25.10311
G1 X74.064 Y154.83 E25.13301
G1 X73.737 Y154.642 E25.14556
G1 X72.785 Y154.025 E25.18329
G1 X72.664 Y153.937 E25.18827
G1 X71.95 Y153.368 E25.21863
G1 X71.601 Y153.065 E25.23401
G1 X70.932 Y152.432 E25.26464
G1 X70.584 Y152.054 E25.28173
G1 X70.135 Y151.512 E25.30514
G1 X69.865 Y151.163 E25.31981
G1 X69.253 Y150.283 E25.35546
G1 X69.086 Y150.015 E25.36597
G1 X68.608 Y149.164 E25.39843
G1 X68.474 Y148.897 E25.40837
G1 X68.047 Y147.928 E25.44359
G1 X67.93 Y147.622 E25.45448
G1 X67.763 Y147.151 E25.4711
G1 X67.736 Y147.069 E25.47397
G1 X67.582 Y146.559 E25.49169
G1 X67.523 Y146.344 E25.49911
G1 X67.42 Y145.938 E25.51304
G1 X67.259 Y145.141 E25.54008
G1 X67.168 Y144.58 E25.55899
G1 X67.082 Y143.925 E25.58096
G1 X67.049 Y143.591 E25.59212
G1 X67.01 Y143.049 E25.6102
G1 X66.998 Y142.795 E25.61865
G1 X66.987 Y142.431 E25.63077
G1 X66.975 Y141.436 E25.66386
G1 X66.977 Y132.145 E25.97288
G1 X66.986 Y131.351 E25.99929
G1 X66.996 Y130.968 E26.01203
G1 X67.007 Y130.718 E26.02036
G1 X67.039 Y130.156 E26.03908
G1 X67.065 Y129.804 E26.05082
G1 X67.14 Y128.975 E26.07851
G1 X67.184 Y128.572 E26.09199
G1 X67.23 Y128.216 E26.10393
G1 X67.278 Y127.886 E26.11502
G1 X67.383 Y127.235 E26.13695
G1 X67.482 Y126.709 E26.15475
G1 X68.239 Y123.157 E26.27555
G1 X68.703 Y120.648 E26.36041
G1 X69.097 Y118.127 E26.44528
G1 X69.413 Y115.645 E26.5285
G1 X69.661 Y113.125 E26.61272
G1 X69.838 Y110.606 E26.69671
G1 X69.944 Y108.064 E26.78133
G1 X69.978 Y105.537 E26.86538
G1 X69.94 Y103.006 E26.94957
G1 X69.832 Y100.498 E27.03307
G1 X69.652 Y97.981 E27.117
G1 X69.396 Y95.426 E27.2024
G1 X69.077 Y92.945 E27.2856
G1 X68.685 Y90.458 E27.36934
G1 X68.22 Y87.968 E27.45359
G1 X67.688 Y85.506 E27.53736
G1 X67.487 Y84.68 E27.56564
G1 X67.259 Y83.697 E27.5992
G1 X67.09 Y82.792 E27.62982
G1 X66.99 Y81.621 E27.66891
G1 X66.98 Y81.289 E27.67996
G1 X66.975 Y80.97 E27.69057
G1 X66.976 Y31.231 E29.3449
G1 X66.985 Y30.566 E29.36702
G1 X67.037 Y29.646 E29.39766
G1 X67.169 Y28.735 E29.42828
G1 X67.38 Y27.839 E29.4589
G1 X67.667 Y26.964 E29.48952
G0 F6000 X68.066 Y27.041
G1 F1200 X68.428 Y26.214 E29.51955
G1 X68.861 Y25.422 E29.54957
G1 X69.363 Y24.671 E29.57962
G1 X69.93 Y23.967 E29.60968
G1 X70.556 Y23.317 E29.6397
G1 X71.237 Y22.724 E29.66973
G1 X71.969 Y22.194 E29.69979
G1 X72.744 Y21.731 E29.72982
G1 X73.557 Y21.338 E29.75985
G1 X74.402 Y21.018 E29.7899
G1 X75.271 Y20.775 E29.81991
G1 X76.159 Y20.609 E29.84996
G1 X77.298 Y20.513 E29.88798
G1 X77.619 Y20.504 E29.89866
G1 X77.905 Y20.5 E29.90817
G1 X146.718 Y20.5 E32.1969
G1 X147.561 Y20.511 E32.22494
G1 X148.463 Y20.564 E32.255
G1 X149.356 Y20.696 E32.28502
G1 X150.234 Y20.907 E32.31505
G1 X151.09 Y21.195 E32.34509
G1 X151.918 Y21.558 E32.37516
G1 X152.709 Y21.992 E32.40517
G1 X153.46 Y22.494 E32.43521
G1 X154.163 Y23.061 E32.46525
G1 X154.813 Y23.688 E32.49529
G1 X155.405 Y24.37 E32.52533
G1 X155.935 Y25.101 E32.55536
G1 X156.397 Y25.877 E32.5854
G1 X156.79 Y26.69 E32.61543
G1 X157.108 Y27.535 E32.64546
G1 X157.351 Y28.405 E32.67551
G1 X157.516 Y29.293 E32.70555
G1 X157.577 Y29.834 E32.72365
G1 X157.658 Y30.779 E32.7552
G1 X157.926 Y33.445 E32.84432
G1 X158.255 Y35.997 E32.9299
G1 X158.646 Y38.476 E33.01337
G1 X159.109 Y40.955 E33.09725
G1 X159.657 Y43.488 E33.18345
G1 X160.253 Y45.906 E33.26628
G1 X160.931 Y48.36 E33.35095
G1 X161.671 Y50.768 E33.43474
G1 X162.549 Y53.331 E33.52485
G1 X163.119 Y55.069 E33.58569
G1 X163.173 Y55.239 E33.59162
G1 X166.372 Y65.602 E33.95234
G1 X166.432 Y65.802 E33.95929
G1 X166.664 Y66.612 E33.98731
G1 X166.736 Y66.877 E33.99644
G1 X166.799 Y67.122 E34.00486
G1 X166.908 Y67.573 E34.02029
G1 X166.964 Y67.819 E34.02868
G1 X167.083 Y68.371 E34.04746
G1 X167.172 Y68.84 E34.06334
G1 X167.294 Y69.57 E34.08796
G1 X167.346 Y69.913 E34.0995
G1 X167.432 Y70.563 E34.1213
G1 X167.477 Y70.97 E34.13492
G1 X167.523 Y71.472 E34.15169
G1 X167.549 Y71.82 E34.1633
G1 X167.587 Y72.484 E34.18542
G1 X167.599 Y72.761 E34.19464
G1 X167.621 Y73.553 E34.22099
G1 X167.625 Y74.06 E34.23785
G1 X167.624 Y83.335 E34.54634
G1 X167.598 Y85.156 E34.60691
G1 X167.598 Y87.794 E34.69465
G1 X167.623 Y89.002 E34.73484
