;FLAVOR:Marlin
;TIME:10077
;Filament used: 7.3182m
;Layer height: 0.2
;MINX:62.549
;MINY:41.704
;MINZ:0.2
;MAXX:178.891
;MAXY:176.215
;MAXZ:13.6
;Generated with Cura_SteamEngine 4.8.0
M82 ;absolute extrusion mode
; Ender 3 Custom Start G-code
M117 Getting the bed up to temp!
M140 S50 ; Set Heat Bed temperature
M190 S50 ; Wait for Heat Bed temperature
M117 Pre-heating the extruder!
M104 S175; start warming extruder to 160
G28 ; Home all axes
M117 Auto bed-level GO!
G29 ; Auto bed-level (BL-Touch)
M420 S1;
G92 E0 ; Reset Extruder
M117 Getting the extruder up to temp!
M104 S200 ; Set Extruder temperature
M109 S200 ; Wait for Extruder temperature
G1 Z2.0 F3000 ; move z up little to prevent scratching of surface
G1 X0.1 Y20 Z0.3 F5000.0 ; move to start-line position
M117 LET THE PURGE BEGIN!
G1 X0.1 Y200.0 Z0.3 F1500.0 E15 ; draw 1st line
G1 X0.4 Y200.0 Z0.3 F5000.0 ; move to side a little
G1 X0.4 Y20 Z0.3 F1500.0 E30 ; draw 2nd line
G92 E0 ; reset extruder
G1 Z1.0 F3000 ; move z up little to prevent scratching of surface
G1 X5 Y20 Z0.3 F5000.0 ; Move over to prevent blob squish
M117 Autobots! Roll Out!
; End of custom start GCode
G92 E0
G92 E0
G1 F2700 E-5
;LAYER_COUNT:68
;LAYER:0
M107
G0 F6000 X69.197 Y75.34 Z0.2
;TYPE:SKIRT
G1 F2700 E0
G1 F1200 X69.542 Y75.044 E0.01512
G1 X69.86 Y74.781 E0.02884
G1 X70.141 Y74.561 E0.04071
G1 X70.496 Y74.292 E0.05553
G1 X70.773 Y74.088 E0.06697
G1 X70.897 Y74 E0.07203
G1 X71.141 Y73.832 E0.08188
G1 X71.459 Y73.619 E0.09461
G1 X71.721 Y73.449 E0.105
G1 X71.972 Y73.291 E0.11486
G1 X72.245 Y73.124 E0.12551
G1 X72.418 Y73.022 E0.13219
G1 X72.705 Y72.859 E0.14317
G1 X73.187 Y72.594 E0.16146
G1 X73.652 Y72.352 E0.17889
G1 X74.214 Y72.077 E0.1997
G1 X74.682 Y71.862 E0.21683
G1 X75.697 Y71.424 E0.2536
G1 X144.011 Y42.765 E2.71758
G1 X144.636 Y42.513 E2.73999
G1 X145.52 Y42.2 E2.77118
G1 X146.427 Y41.963 E2.80236
G1 X147.351 Y41.804 E2.83355
G1 X148.589 Y41.716 E2.87483
G1 X149.503 Y41.704 E2.90523
G1 X155.391 Y41.704 E3.10107
G1 X156.247 Y41.715 E3.12954
G1 X157.183 Y41.769 E3.16072
G1 X158.111 Y41.901 E3.1919
G1 X159.025 Y42.113 E3.2231
G1 X159.917 Y42.402 E3.25429
G1 X160.782 Y42.765 E3.28549
G1 X161.612 Y43.201 E3.31667
G1 X162.403 Y43.706 E3.34789
G1 X163.147 Y44.277 E3.37908
G1 X163.84 Y44.909 E3.41028
G1 X164.477 Y45.597 E3.44146
G1 X165.052 Y46.338 E3.47266
G1 X165.563 Y47.124 E3.50384
G1 X166.005 Y47.952 E3.53506
G1 X166.374 Y48.814 E3.56624
G1 X166.669 Y49.704 E3.59743
G1 X166.887 Y50.616 E3.62862
G1 X167.048 Y51.769 E3.66734
G1 X167.133 Y52.753 E3.70019
G1 X167.399 Y55.402 E3.78874
G1 X167.714 Y57.842 E3.87056
G1 X168.112 Y60.364 E3.95548
G1 X168.578 Y62.848 E4.03954
G1 X169.107 Y65.293 E4.12275
G1 X169.697 Y67.689 E4.20482
G1 X170.383 Y70.171 E4.29046
G1 X171.113 Y72.546 E4.3731
G1 X172.005 Y75.15 E4.46465
G1 X172.535 Y76.769 E4.52131
G1 X172.591 Y76.944 E4.52743
G1 X175.782 Y87.284 E4.88734
G1 X175.953 Y87.859 E4.90729
G1 X176.15 Y88.561 E4.93154
G1 X176.213 Y88.795 E4.9396
G1 X176.277 Y89.044 E4.94815
G1 X176.343 Y89.314 E4.9574
G1 X176.456 Y89.814 E4.97445
G1 X176.55 Y90.262 E4.98967
G1 X176.603 Y90.532 E4.99882
G1 X176.676 Y90.929 E5.01225
G1 X176.768 Y91.485 E5.03099
G1 X176.833 Y91.928 E5.04589
G1 X176.868 Y92.191 E5.05471
G1 X176.929 Y92.709 E5.07206
G1 X176.957 Y92.983 E5.08122
G1 X176.992 Y93.362 E5.09388
G1 X177.026 Y93.806 E5.10869
G1 X177.042 Y94.08 E5.11782
G1 X177.072 Y94.747 E5.14003
G1 X177.081 Y95.057 E5.15034
G1 X177.143 Y98.569 E5.26717
G1 X177.26 Y101.125 E5.35227
G1 X177.444 Y103.615 E5.43531
G1 X177.7 Y106.118 E5.519
G1 X178.031 Y108.636 E5.60347
G1 X178.427 Y111.105 E5.68664
G1 X178.575 Y111.905 E5.7137
G1 X178.718 Y112.727 E5.74145
G1 X178.839 Y113.657 E5.77264
G1 X178.878 Y114.348 E5.79566
G1 X178.888 Y114.764 E5.8095
G1 X178.891 Y115.028 E5.81828
G1 X178.89 Y164.615 E7.46755
G1 X178.881 Y165.342 E7.49173
G1 X178.83 Y166.279 E7.52294
G1 X178.698 Y167.207 E7.55412
G1 X178.489 Y168.121 E7.5853
G1 X178.202 Y169.014 E7.6165
G1 X177.84 Y169.88 E7.64772
G1 X177.406 Y170.711 E7.6789
G1 X176.902 Y171.502 E7.7101
G1 X176.333 Y172.247 E7.74128
G1 X175.702 Y172.942 E7.7725
G1 X175.015 Y173.58 E7.80368
G1 X174.276 Y174.157 E7.83486
G1 X173.49 Y174.669 E7.86606
G1 X172.664 Y175.112 E7.89724
G1 X171.802 Y175.484 E7.92847
G1 X170.913 Y175.78 E7.95963
G1 X170.001 Y176 E7.99083
G1 X169.074 Y176.141 E8.02202
G1 X168.188 Y176.202 E8.05156
G1 X167.865 Y176.211 E8.0623
G1 X167.561 Y176.215 E8.07242
G1 X161.096 Y176.215 E8.28744
G1 X160.403 Y176.205 E8.3105
G1 X159.467 Y176.151 E8.34168
G1 X158.344 Y175.98 E8.37946
G1 X158.31 Y175.973 E8.38061
G1 X157.4 Y175.745 E8.41182
G1 X156.429 Y175.407 E8.44601
G1 X155.774 Y175.144 E8.46949
G1 X87.291 Y146.412 E10.93959
G1 X86.654 Y146.135 E10.96269
G1 X86.432 Y146.035 E10.97079
G1 X85.849 Y145.766 E10.99215
G1 X85.332 Y145.511 E11.01132
G1 X84.901 Y145.284 E11.02752
G1 X84.64 Y145.142 E11.0374
G1 X84.494 Y145.06 E11.04297
G1 X84.27 Y144.93 E11.05159
G1 X83.867 Y144.691 E11.06717
G1 X83.405 Y144.402 E11.0853
G1 X83.041 Y144.161 E11.09982
G1 X82.724 Y143.942 E11.11263
G1 X82.259 Y143.607 E11.13169
G1 X82.091 Y143.481 E11.13868
G1 X81.77 Y143.231 E11.15221
G1 X81.413 Y142.942 E11.16749
G1 X80.927 Y142.525 E11.18878
G1 X80.546 Y142.178 E11.20592
G1 X80.043 Y141.69 E11.22923
G1 X79.639 Y141.272 E11.24857
G1 X79.149 Y140.729 E11.2729
G1 X78.837 Y140.36 E11.28897
G1 X78.395 Y139.801 E11.31267
G1 X78.025 Y139.301 E11.33336
G1 X77.609 Y138.699 E11.3577
G1 X77.378 Y138.339 E11.37192
G1 X77.02 Y137.74 E11.39513
G1 X76.72 Y137.2 E11.41568
G1 X76.37 Y136.515 E11.44126
G1 X76.17 Y136.087 E11.45698
G1 X75.9 Y135.458 E11.47974
G1 X75.656 Y134.838 E11.5019
G1 X75.421 Y134.181 E11.52511
G1 X75.052 Y133.035 E11.56516
G1 X74.734 Y131.995 E11.60133
G1 X73.934 Y129.614 E11.68487
G1 X73.057 Y127.229 E11.76939
G1 X72.126 Y124.903 E11.85272
G1 X71.117 Y122.577 E11.93705
G1 X70.067 Y120.331 E12.01951
G1 X68.912 Y118.033 E12.10505
G1 X67.736 Y115.847 E12.18761
G1 X66.475 Y113.656 E12.27169
G1 X65.152 Y111.502 E12.35577
G1 X64.842 Y111.02 E12.37483
G1 X64.694 Y110.783 E12.38412
G1 X64.576 Y110.589 E12.39168
G1 X64.3 Y110.108 E12.41012
G1 X64.254 Y110.023 E12.41333
G1 X63.986 Y109.495 E12.43303
G1 X63.852 Y109.212 E12.44344
G1 X63.499 Y108.381 E12.47347
G1 X63.467 Y108.296 E12.47649
G1 X63.282 Y107.761 E12.49532
G1 X63.187 Y107.463 E12.50572
G1 X62.941 Y106.56 E12.53685
G1 X62.911 Y106.428 E12.54136
G1 X62.83 Y106.039 E12.55457
G1 X62.779 Y105.77 E12.56368
G1 X62.626 Y104.659 E12.60098
G1 X62.61 Y104.472 E12.60722
G1 X62.572 Y103.734 E12.6318
G1 X62.549 Y102.382 E12.67677
G1 X62.549 Y91.055 E13.05351
G1 X62.558 Y90.274 E13.07949
G1 X62.564 Y90.011 E13.08824
G1 X62.585 Y89.419 E13.10794
G1 X62.619 Y88.862 E13.1265
G1 X62.663 Y88.353 E13.14349
G1 X62.699 Y88 E13.1553
G1 X62.749 Y87.601 E13.16867
G1 X62.81 Y87.167 E13.18325
G1 X62.879 Y86.734 E13.19783
G1 X62.927 Y86.465 E13.20692
G1 X62.981 Y86.186 E13.21637
G1 X63.045 Y85.88 E13.22677
G1 X63.122 Y85.535 E13.23852
G1 X63.208 Y85.178 E13.25074
G1 X63.261 Y84.973 E13.25778
G1 X63.339 Y84.689 E13.26758
G1 X63.445 Y84.32 E13.28035
G1 X63.562 Y83.938 E13.29363
G1 X63.671 Y83.614 E13.305
G1 X63.842 Y83.131 E13.32205
G1 X64.106 Y82.455 E13.34618
G1 X64.334 Y81.925 E13.36537
G1 X64.605 Y81.342 E13.38676
G1 X64.796 Y80.961 E13.40093
G1 X65.166 Y80.285 E13.42656
G1 X65.506 Y79.711 E13.44875
G1 X65.908 Y79.081 E13.47361
G1 X66.164 Y78.709 E13.48863
G1 X66.585 Y78.138 E13.51222
G1 X66.945 Y77.681 E13.53157
G1 X67.414 Y77.125 E13.55577
G1 X67.751 Y76.751 E13.57251
G1 X68.245 Y76.237 E13.59622
G1 X68.682 Y75.811 E13.61652
G1 X69.197 Y75.34 E13.63973
G0 F6000 X69.458 Y75.643
G1 F1200 X69.803 Y75.347 E13.65485
G1 X70.112 Y75.092 E13.66818
G1 X70.382 Y74.88 E13.67959
G1 X70.737 Y74.611 E13.69441
G1 X71.004 Y74.415 E13.70542
G1 X71.364 Y74.164 E13.72002
G1 X71.682 Y73.951 E13.73275
G1 X71.934 Y73.787 E13.74275
G1 X72.185 Y73.629 E13.75262
G1 X72.448 Y73.469 E13.76285
G1 X72.621 Y73.367 E13.76953
G1 X72.898 Y73.209 E13.78014
G1 X73.38 Y72.944 E13.79844
G1 X73.828 Y72.712 E13.81522
G1 X74.39 Y72.437 E13.83603
G1 X74.841 Y72.229 E13.85254
G1 X75.852 Y71.792 E13.88918
G1 X144.16 Y43.136 E16.35293
G1 X144.785 Y42.884 E16.37535
G1 X145.653 Y42.577 E16.40597
G1 X146.545 Y42.347 E16.43661
G1 X147.453 Y42.195 E16.46723
G1 X148.594 Y42.116 E16.50527
G1 X149.503 Y42.104 E16.5355
G1 X155.391 Y42.104 E16.73134
G1 X156.241 Y42.115 E16.75961
G1 X157.16 Y42.168 E16.79023
G1 X158.071 Y42.301 E16.82085
G1 X158.967 Y42.512 E16.85147
G1 X159.841 Y42.8 E16.88207
G1 X160.688 Y43.163 E16.91272
G1 X161.499 Y43.598 E16.94333
G1 X162.269 Y44.102 E16.97394
G1 X162.993 Y44.671 E17.00457
G1 X163.665 Y45.301 E17.0352
G1 X164.28 Y45.986 E17.06582
G1 X164.833 Y46.722 E17.09644
G1 X165.32 Y47.503 E17.12705
G1 X165.737 Y48.324 E17.15768
G1 X166.082 Y49.178 E17.18832
G1 X166.351 Y50.058 E17.21892
G1 X166.543 Y50.959 E17.24956
G1 X166.65 Y51.804 E17.27789
G1 X166.738 Y52.823 E17.31191
G1 X166.999 Y55.421 E17.39875
G1 X167.326 Y57.953 E17.48367
G1 X167.711 Y60.394 E17.56586
G1 X168.189 Y62.942 E17.65209
G1 X168.714 Y65.368 E17.73464
G1 X169.317 Y67.82 E17.81863
G1 X169.998 Y70.281 E17.90356
G1 X170.731 Y72.666 E17.98654
G1 X171.673 Y75.419 E18.08332
G1 X172.209 Y77.062 E18.1408
G1 X175.399 Y87.399 E18.50061
G1 X175.568 Y87.967 E18.52032
G1 X175.765 Y88.669 E18.54457
G1 X175.889 Y89.143 E18.56087
G1 X175.953 Y89.404 E18.5698
G1 X176.064 Y89.896 E18.58658
G1 X176.158 Y90.344 E18.6018
G1 X176.209 Y90.604 E18.61062
G1 X176.282 Y91.001 E18.62404
G1 X176.373 Y91.549 E18.64252
G1 X176.437 Y91.984 E18.65714
G1 X176.47 Y92.237 E18.66563
G1 X176.531 Y92.755 E18.68298
G1 X176.559 Y93.02 E18.69184
G1 X176.594 Y93.399 E18.7045
G1 X176.627 Y93.834 E18.71901
G1 X176.642 Y94.098 E18.7278
G1 X176.672 Y94.765 E18.75001
G1 X176.682 Y95.064 E18.75996
G1 X176.743 Y98.596 E18.87745
G1 X176.859 Y101.137 E18.96205
G1 X177.045 Y103.65 E19.04587
G1 X177.304 Y106.174 E19.13026
G1 X177.633 Y108.686 E19.21452
G1 X178.031 Y111.164 E19.29799
G1 X178.181 Y111.973 E19.32536
G1 X178.324 Y112.795 E19.35311
G1 X178.442 Y113.708 E19.38373
G1 X178.478 Y114.357 E19.40535
G1 X178.488 Y114.773 E19.41919
G1 X178.491 Y115.028 E19.42767
G1 X178.49 Y164.61 E21.07677
G1 X178.481 Y165.337 E21.10096
G1 X178.43 Y166.256 E21.13157
G1 X178.299 Y167.168 E21.16221
G1 X178.089 Y168.064 E21.19282
G1 X177.803 Y168.939 E21.22344
G1 X177.442 Y169.786 E21.25406
G1 X177.008 Y170.598 E21.28469
G1 X176.506 Y171.37 E21.31531
G1 X175.938 Y172.095 E21.34595
G1 X175.31 Y172.768 E21.37656
G1 X174.626 Y173.384 E21.40718
G1 X173.891 Y173.938 E21.43779
G1 X173.111 Y174.427 E21.46841
G1 X172.291 Y174.846 E21.49904
G1 X171.438 Y175.192 E21.52965
G1 X170.558 Y175.463 E21.56028
G1 X169.658 Y175.656 E21.59089
G1 X168.744 Y175.771 E21.62153
G1 X168.177 Y175.802 E21.64042
G1 X167.854 Y175.811 E21.65117
G1 X167.561 Y175.815 E21.66091
G1 X161.102 Y175.815 E21.87574
G1 X160.409 Y175.805 E21.89879
G1 X159.49 Y175.752 E21.92941
G1 X158.424 Y175.588 E21.96528
G1 X158.39 Y175.581 E21.96644
G1 X157.498 Y175.357 E21.99703
G1 X156.578 Y175.036 E22.02943
G1 X155.772 Y174.711 E22.05834
G1 X87.451 Y146.045 E24.52262
G1 X86.814 Y145.768 E24.54572
G1 X86.6 Y145.672 E24.55353
G1 X86.017 Y145.403 E24.57488
G1 X85.518 Y145.157 E24.59338
G1 X85.087 Y144.93 E24.60959
G1 X84.69 Y144.711 E24.62467
G1 X84.474 Y144.586 E24.63297
G1 X84.071 Y144.347 E24.64855
G1 X83.626 Y144.068 E24.66602
G1 X83.262 Y143.827 E24.68054
G1 X82.956 Y143.617 E24.69288
G1 X82.701 Y143.435 E24.7033
G1 X82.331 Y143.161 E24.71862
G1 X82.021 Y142.92 E24.73168
G1 X81.664 Y142.631 E24.74695
G1 X81.197 Y142.229 E24.76745
G1 X80.816 Y141.882 E24.78459
G1 X80.331 Y141.412 E24.80705
G1 X79.927 Y140.994 E24.82639
G1 X79.455 Y140.471 E24.84982
G1 X79.143 Y140.102 E24.86589
G1 X78.716 Y139.563 E24.88876
G1 X78.346 Y139.063 E24.90945
G1 X77.946 Y138.483 E24.93288
G1 X77.715 Y138.123 E24.94711
G1 X77.37 Y137.546 E24.96947
G1 X77.07 Y137.006 E24.99002
G1 X76.733 Y136.345 E25.01469
G1 X76.533 Y135.917 E25.03041
G1 X76.272 Y135.312 E25.05232
G1 X76.028 Y134.692 E25.07448
G1 X75.802 Y134.059 E25.09684
G1 X75.382 Y132.75 E25.14256
G1 X75.113 Y131.866 E25.17329
G1 X74.298 Y129.442 E25.25835
G1 X73.444 Y127.12 E25.34064
G1 X72.493 Y124.744 E25.42576
G1 X71.482 Y122.414 E25.51024
G1 X70.415 Y120.132 E25.59402
G1 X69.279 Y117.87 E25.67821
G1 X68.092 Y115.664 E25.76153
G1 X66.813 Y113.443 E25.84678
G1 X65.483 Y111.276 E25.93134
G1 X65.179 Y110.804 E25.95002
G1 X65.036 Y110.575 E25.959
G1 X64.918 Y110.381 E25.96655
G1 X64.652 Y109.918 E25.98431
G1 X64.606 Y109.833 E25.98752
G1 X64.348 Y109.324 E26.0065
G1 X64.214 Y109.041 E26.01692
G1 X63.874 Y108.24 E26.04586
G1 X63.842 Y108.155 E26.04888
G1 X63.663 Y107.64 E26.06701
G1 X63.568 Y107.342 E26.07742
G1 X63.331 Y106.471 E26.10744
G1 X63.301 Y106.339 E26.11194
G1 X63.223 Y105.964 E26.12468
G1 X63.172 Y105.695 E26.13379
G1 X63.025 Y104.625 E26.16971
G1 X63.009 Y104.438 E26.17595
G1 X62.972 Y103.727 E26.19963
G1 X62.949 Y102.382 E26.24437
G1 X62.949 Y91.06 E26.62095
G1 X62.958 Y90.279 E26.64692
G1 X62.964 Y90.025 E26.65537
G1 X62.985 Y89.433 E26.67508
G1 X63.017 Y88.896 E26.69297
G1 X63.061 Y88.387 E26.70996
G1 X63.096 Y88.047 E26.72133
G1 X63.145 Y87.657 E26.7344
G1 X63.206 Y87.223 E26.74898
G1 X63.273 Y86.801 E26.76319
G1 X63.32 Y86.541 E26.77198
G1 X63.374 Y86.262 E26.78143
G1 X63.436 Y85.967 E26.79146
G1 X63.513 Y85.622 E26.80321
G1 X63.595 Y85.278 E26.81498
G1 X63.648 Y85.073 E26.82202
G1 X63.723 Y84.799 E26.83147
G1 X63.829 Y84.43 E26.84424
G1 X63.943 Y84.059 E26.85715
G1 X64.048 Y83.747 E26.86809
G1 X64.219 Y83.264 E26.88514
G1 X64.474 Y82.613 E26.90839
G1 X64.702 Y82.083 E26.92758
G1 X64.963 Y81.522 E26.94816
G1 X65.154 Y81.141 E26.96233
G1 X65.51 Y80.489 E26.98704
G1 X65.85 Y79.915 E27.00923
G1 X66.238 Y79.308 E27.03319
G1 X66.494 Y78.936 E27.04821
G1 X66.899 Y78.386 E27.07093
G1 X67.259 Y77.929 E27.09028
G1 X67.711 Y77.392 E27.11362
G1 X68.048 Y77.018 E27.13037
G1 X68.524 Y76.524 E27.15319
G1 X68.961 Y76.098 E27.17348
G1 X69.458 Y75.643 E27.19589
G0 F6000 X69.718 Y75.947
G1 F1200 X70.063 Y75.651 E27.21101
G1 X70.363 Y75.402 E27.22398
G1 X70.624 Y75.198 E27.235
G1 X70.979 Y74.929 E27.24981
G1 X71.236 Y74.741 E27.2604
G1 X71.587 Y74.496 E27.27464
G1 X71.905 Y74.283 E27.28737
G1 X72.147 Y74.126 E27.29697
G1 X72.398 Y73.968 E27.30683
G1 X72.652 Y73.813 E27.31673
G1 X72.825 Y73.711 E27.32341
G1 X73.091 Y73.56 E27.33358
G1 X73.573 Y73.295 E27.35187
G1 X74.004 Y73.071 E27.36803
G1 X74.566 Y72.796 E27.38884
G1 X75 Y72.596 E27.40473
G1 X76.007 Y72.161 E27.44122
G1 X144.31 Y43.507 E29.90479
G1 X144.935 Y43.255 E29.92721
G1 X145.786 Y42.955 E29.95722
G1 X146.661 Y42.731 E29.98726
G1 X147.553 Y42.585 E30.01732
G1 X148.6 Y42.516 E30.05222
G1 X149.503 Y42.504 E30.08226
G1 X155.391 Y42.504 E30.27809
G1 X156.235 Y42.515 E30.30617
G1 X157.137 Y42.568 E30.33622
G1 X158.03 Y42.7 E30.36624
G1 X158.908 Y42.911 E30.39628
G1 X159.764 Y43.199 E30.42632
G1 X160.591 Y43.561 E30.45634
G1 X161.383 Y43.996 E30.4864
G1 X162.134 Y44.498 E30.51644
G1 X162.837 Y45.065 E30.54648
G1 X163.487 Y45.692 E30.57652
G1 X164.079 Y46.374 E30.60656
G1 X164.609 Y47.105 E30.63659
G1 X165.071 Y47.881 E30.66663
G1 X165.464 Y48.694 E30.69666
G1 X165.782 Y49.539 E30.72669
G1 X166.025 Y50.409 E30.75673
G1 X166.19 Y51.297 E30.78677
G1 X166.251 Y51.838 E30.80488
G1 X166.333 Y52.795 E30.83683
G1 X166.603 Y55.476 E30.92645
G1 X166.928 Y57.995 E31.01093
G1 X167.323 Y60.499 E31.09524
G1 X167.789 Y62.987 E31.17943
G1 X168.328 Y65.476 E31.26413
G1 X168.922 Y67.892 E31.34688
G1 X169.616 Y70.4 E31.43343
G1 X170.35 Y72.787 E31.51649
G1 X171.293 Y75.544 E31.61341
G1 X171.775 Y77.018 E31.66499
G1 X175.016 Y87.514 E32.03035
G1 X175.183 Y88.075 E32.04982
G1 X175.38 Y88.777 E32.07407
G1 X175.502 Y89.243 E32.09009
G1 X175.563 Y89.493 E32.09865
G1 X175.673 Y89.978 E32.11519
G1 X175.767 Y90.426 E32.13041
G1 X175.816 Y90.676 E32.13889
G1 X175.926 Y91.286 E32.1595
G1 X175.979 Y91.613 E32.17052
G1 X176.041 Y92.041 E32.18491
G1 X176.073 Y92.284 E32.19306
G1 X176.134 Y92.802 E32.21041
G1 X176.161 Y93.057 E32.21893
