;FLAVOR:Marlin
;TIME:1561
;Filament used: 1.18437m
;Layer height: 0.2
;MINX:34.421
;MINY:96.635
;MINZ:0.2
;MAXX:199.421
;MAXY:128.459
;MAXZ:3.2
;POSTPROCESSED
;Generated with Cura_SteamEngine 4.13.1
;
;

M82 ;absolute extrusion mode
; Ender 3 Custom Start G-code
M117 Getting the bed up to temp!
M140 S55.0 ; Set Heat Bed temperature
M190 S55.0 ; Wait for Heat Bed temperature
M117 Pre-heating the extruder!
M104 S205; start warming extruder to 160
G28 ; Home all axes
M117 Auto bed-level GO!
G29 ; Auto bed-level (BL-Touch)
G92 E0 ; Reset Extruder
M117 Getting the extruder up to temp!
M104 S205 ; Set Extruder temperature
M109 S205 ; Wait for Extruder temperature
G1 Z2.0 F3000 ; move z up little to prevent scratching of surface
G1 X0.1 Y20 Z0.3 F5000.0 ; move to start-line position
M117 LET THE PURGE BEGIN!
SET_GCODE_OFFSET Z=-.005
G1 X0.1 Y200.0 Z0.3 F1500.0 E15 ; draw 1st line
G1 X0.4 Y200.0 Z0.3 F5000.0 ; move to side a little
G1 X0.4 Y20 Z0.3 F1500.0 E30 ; draw 2nd line
G92 E0 ; reset extruder
G1 Z1.0 F3000 ; move z up little to prevent scratching of surface
G1 X5 Y20 Z0.3 F5000.0 ; Move over to prevent blob squish
; SET_GCODE_OFFSET Z=+.075
M117 Autobots! Roll Out!
; End of custom start GCode
G92 E0
G92 E0
G1 F2700 E-3.5
;LAYER_COUNT:16
;LAYER:0
M107
G0 F6000 X41.521 Y97.362 Z0.2
;TYPE:SKIRT
G1 F2700 E0
G1 F600 X42.411 Y97.066 E0.0312
G1 X43.323 Y96.848 E0.06238
G1 X44.251 Y96.707 E0.0936
G1 X45.122 Y96.648 E0.12264
G1 X45.443 Y96.639 E0.13332
G1 X45.751 Y96.635 E0.14356
G1 X187.873 Y96.637 E4.87056
G1 X188.57 Y96.647 E4.89375
G1 X189.506 Y96.701 E4.92493
G1 X190.435 Y96.834 E4.95614
G1 X191.348 Y97.045 E4.98731
G1 X192.241 Y97.334 E5.01853
G1 X193.105 Y97.697 E5.0497
G1 X193.935 Y98.133 E5.08088
G1 X194.726 Y98.638 E5.11209
G1 X195.47 Y99.209 E5.14329
G1 X196.163 Y99.841 E5.17448
G1 X196.8 Y100.53 E5.20569
G1 X197.376 Y101.27 E5.23688
G1 X197.886 Y102.057 E5.26807
G1 X198.328 Y102.884 E5.29926
G1 X198.697 Y103.746 E5.33045
G1 X198.992 Y104.636 E5.36163
G1 X199.21 Y105.548 E5.39282
G1 X199.35 Y106.476 E5.42404
G1 X199.408 Y107.337 E5.45274
G1 X199.417 Y107.657 E5.46339
G1 X199.421 Y107.966 E5.47366
G1 X199.42 Y116.852 E5.76921
G1 X199.411 Y117.585 E5.79359
G1 X199.36 Y118.522 E5.82481
G1 X199.229 Y119.45 E5.85598
G1 X199.019 Y120.364 E5.88717
G1 X198.732 Y121.257 E5.91837
G1 X198.37 Y122.123 E5.94958
G1 X197.936 Y122.954 E5.98077
G1 X197.433 Y123.745 E6.01194
G1 X196.864 Y124.491 E6.04315
G1 X196.233 Y125.185 E6.07435
G1 X195.546 Y125.823 E6.10553
G1 X194.807 Y126.4 E6.13671
G1 X194.021 Y126.913 E6.16793
G1 X193.195 Y127.356 E6.19911
G1 X192.333 Y127.727 E6.23032
G1 X191.444 Y128.024 E6.26149
G1 X190.532 Y128.244 E6.2927
G1 X189.605 Y128.385 E6.32388
G1 X188.72 Y128.446 E6.35339
G1 X188.399 Y128.455 E6.36407
G1 X188.091 Y128.459 E6.37431
G1 X45.965 Y128.457 E11.10144
G1 X45.287 Y128.447 E11.124
G1 X44.35 Y128.393 E11.15521
G1 X43.422 Y128.26 E11.18639
G1 X42.509 Y128.048 E11.21757
G1 X41.616 Y127.759 E11.24879
G1 X40.752 Y127.395 E11.27997
G1 X39.922 Y126.958 E11.31117
G1 X39.132 Y126.453 E11.34235
G1 X38.388 Y125.882 E11.37355
G1 X37.853 Y125.404 E11.39741
G1 X37.201 Y124.73 E11.4286
G1 X36.609 Y124.002 E11.45981
G1 X36.081 Y123.227 E11.491
G1 X35.621 Y122.41 E11.52218
G1 X35.233 Y121.556 E11.55338
G1 X34.918 Y120.673 E11.58456
G1 X34.68 Y119.765 E11.61578
G1 X34.52 Y118.841 E11.64697
G1 X34.433 Y117.71 E11.6847
G1 X34.425 Y117.397 E11.69511
G1 X34.421 Y117.116 E11.70446
G1 X34.422 Y108.161 E12.00231
G1 X34.431 Y107.495 E12.02446
G1 X34.484 Y106.559 E12.05564
G1 X34.616 Y105.63 E12.08685
G1 X34.827 Y104.717 E12.11802
G1 X35.115 Y103.824 E12.14922
G1 X35.477 Y102.959 E12.18041
G1 X35.913 Y102.128 E12.21162
G1 X36.417 Y101.338 E12.24279
G1 X36.987 Y100.593 E12.27399
G1 X37.618 Y99.899 E12.30519
G1 X38.307 Y99.262 E12.3364
G1 X39.046 Y98.686 E12.36756
G1 X39.833 Y98.175 E12.39877
G1 X40.66 Y97.732 E12.42997
G1 X41.521 Y97.362 E12.46114
G0 F6000 X41.886 Y97.654
G1 F600 X42.766 Y97.384 E12.49176
G1 X43.666 Y97.192 E12.52237
G1 X44.58 Y97.078 E12.553
G1 X45.133 Y97.048 E12.57142
G1 X45.454 Y97.039 E12.5821
G1 X45.751 Y97.035 E12.59198
G1 X187.867 Y97.037 E17.31878
G1 X188.564 Y97.047 E17.34196
G1 X189.483 Y97.1 E17.37258
G1 X190.394 Y97.233 E17.4032
G1 X191.29 Y97.444 E17.43382
G1 X192.165 Y97.732 E17.46446
G1 X193.011 Y98.096 E17.49509
G1 X193.822 Y98.531 E17.5257
G1 X194.593 Y99.034 E17.55632
G1 X195.317 Y99.603 E17.58694
G1 X195.988 Y100.233 E17.61756
G1 X196.603 Y100.918 E17.64817
G1 X197.156 Y101.654 E17.67879
G1 X197.643 Y102.436 E17.70943
G1 X198.06 Y103.256 E17.74003
G1 X198.405 Y104.11 E17.77067
G1 X198.674 Y104.99 E17.80127
G1 X198.866 Y105.891 E17.83191
G1 X198.979 Y106.805 E17.86254
G1 X199.008 Y107.348 E17.88063
G1 X199.017 Y107.668 E17.89128
G1 X199.021 Y107.966 E17.90119
G1 X199.02 Y116.847 E18.19657
G1 X199.011 Y117.58 E18.22095
G1 X198.96 Y118.499 E18.25157
G1 X198.829 Y119.411 E18.28221
G1 X198.62 Y120.307 E18.31281
G1 X198.333 Y121.182 E18.34344
G1 X197.972 Y122.029 E18.37406
G1 X197.539 Y122.841 E18.40467
G1 X197.036 Y123.613 E18.43532
G1 X196.469 Y124.338 E18.46593
G1 X195.841 Y125.011 E18.49655
G1 X195.157 Y125.627 E18.52716
G1 X194.422 Y126.182 E18.55779
G1 X193.642 Y126.67 E18.5884
G1 X192.822 Y127.089 E18.61902
G1 X191.969 Y127.435 E18.64964
G1 X191.089 Y127.706 E18.68027
G1 X190.189 Y127.9 E18.71089
G1 X189.275 Y128.015 E18.74153
G1 X188.709 Y128.046 E18.76038
G1 X188.388 Y128.055 E18.77106
G1 X188.091 Y128.059 E18.78094
G1 X45.971 Y128.057 E23.50787
G1 X45.293 Y128.047 E23.53042
G1 X44.374 Y127.993 E23.56104
G1 X43.463 Y127.86 E23.59166
G1 X42.567 Y127.649 E23.62228
G1 X41.692 Y127.36 E23.65293
G1 X40.846 Y126.997 E23.68355
G1 X40.035 Y126.561 E23.71417
G1 X39.265 Y126.057 E23.74478
G1 X38.541 Y125.488 E23.77541
G1 X38.128 Y125.114 E23.79394
G1 X37.489 Y124.452 E23.82454
G1 X36.91 Y123.736 E23.85517
G1 X36.394 Y122.973 E23.8858
G1 X35.947 Y122.168 E23.91643
G1 X35.572 Y121.328 E23.94703
G1 X35.271 Y120.458 E23.97764
G1 X35.046 Y119.565 E24.00827
G1 X34.9 Y118.656 E24.0389
G1 X34.832 Y117.7 E24.07077
G1 X34.824 Y117.387 E24.08119
G1 X34.821 Y117.116 E24.0902
G1 X34.822 Y108.167 E24.38785
G1 X34.831 Y107.501 E24.41
G1 X34.883 Y106.582 E24.44061
G1 X35.015 Y105.67 E24.47126
G1 X35.226 Y104.774 E24.50188
G1 X35.513 Y103.9 E24.53248
G1 X35.876 Y103.053 E24.56313
G1 X36.31 Y102.242 E24.59372
G1 X36.813 Y101.471 E24.62434
G1 X37.381 Y100.746 E24.65497
G1 X38.01 Y100.074 E24.68558
G1 X38.695 Y99.458 E24.71622
G1 X39.431 Y98.905 E24.74684
G1 X40.212 Y98.417 E24.77747
G1 X41.032 Y97.999 E24.80809
G1 X41.886 Y97.654 E24.83872
G0 F6000 X41.403 Y98.273
G1 F600 X42.247 Y97.953 E24.86874
G1 X43.117 Y97.71 E24.89879
G1 X44.005 Y97.544 E24.92883
G1 X45.144 Y97.448 E24.96685
G1 X45.465 Y97.439 E24.97753
G1 X45.751 Y97.435 E24.98704
G1 X187.861 Y97.437 E29.71364
G1 X188.558 Y97.447 E29.73683
G1 X189.46 Y97.5 E29.76688
G1 X190.353 Y97.632 E29.7969
G1 X191.231 Y97.843 E29.82694
G1 X192.087 Y98.131 E29.85698
G1 X192.915 Y98.494 E29.88705
G1 X193.706 Y98.928 E29.91705
G1 X194.457 Y99.43 E29.9471
G1 X195.16 Y99.997 E29.97714
G1 X195.81 Y100.624 E30.00718
G1 X196.402 Y101.306 E30.03721
G1 X196.932 Y102.037 E30.06724
G1 X197.394 Y102.813 E30.09728
G1 X197.787 Y103.626 E30.12732
G1 X198.105 Y104.471 E30.15735
G1 X198.348 Y105.341 E30.18739
G1 X198.513 Y106.229 E30.21743
G1 X198.608 Y107.359 E30.25515
G1 X198.617 Y107.679 E30.26579
G1 X198.621 Y107.966 E30.27534
G1 X198.62 Y116.842 E30.57056
G1 X198.611 Y117.575 E30.59494
G1 X198.56 Y118.477 E30.62499
G1 X198.43 Y119.371 E30.65503
G1 X198.22 Y120.249 E30.68506
G1 X197.934 Y121.106 E30.71511
G1 X197.574 Y121.934 E30.74514
G1 X197.141 Y122.726 E30.77516
G1 X196.64 Y123.478 E30.80522
G1 X196.075 Y124.182 E30.83524
G1 X195.449 Y124.833 E30.86528
G1 X194.769 Y125.427 E30.89531
G1 X194.038 Y125.958 E30.92536
G1 X193.264 Y126.422 E30.95537
G1 X192.451 Y126.816 E30.98542
G1 X191.607 Y127.137 E31.01546
G1 X190.737 Y127.381 E31.04551
G1 X189.85 Y127.548 E31.07553
G1 X188.698 Y127.646 E31.11398
G1 X188.377 Y127.655 E31.12466
G1 X188.091 Y127.659 E31.13418
G1 X45.977 Y127.657 E35.86091
G1 X45.299 Y127.647 E35.88346
G1 X44.397 Y127.594 E35.91351
G1 X43.504 Y127.461 E35.94354
G1 X42.626 Y127.249 E35.97358
G1 X41.77 Y126.961 E36.00362
G1 X40.943 Y126.599 E36.03365
G1 X40.151 Y126.164 E36.0637
G1 X39.401 Y125.661 E36.09374
G1 X38.424 Y124.843 E36.13612
G1 X37.777 Y124.174 E36.16707
G1 X37.211 Y123.47 E36.19712
G1 X36.708 Y122.72 E36.22715
G1 X36.275 Y121.928 E36.25718
G1 X35.913 Y121.1 E36.28723
G1 X35.625 Y120.244 E36.31727
G1 X35.415 Y119.366 E36.3473
G1 X35.283 Y118.473 E36.37732
G1 X35.232 Y117.69 E36.40342
G1 X35.224 Y117.377 E36.41383
G1 X35.221 Y117.116 E36.42251
G1 X35.222 Y108.172 E36.71999
G1 X35.231 Y107.506 E36.74215
G1 X35.283 Y106.605 E36.77216
G1 X35.415 Y105.711 E36.80222
G1 X35.625 Y104.833 E36.83225
G1 X35.912 Y103.977 E36.86227
G1 X36.274 Y103.149 E36.89233
G1 X36.707 Y102.357 E36.92235
G1 X37.209 Y101.606 E36.9524
G1 X37.775 Y100.902 E36.98244
G1 X38.402 Y100.252 E37.01248
G1 X39.083 Y99.659 E37.04251
G1 X39.814 Y99.129 E37.07254
G1 X40.59 Y98.666 E37.1026
G1 X41.403 Y98.273 E37.13263
G1 F2700 E33.63263
;MESH:slot_cover_143mm_original.stl(2)
G0 F6000 X45.835 Y106.97
G0 X45.835 Y108.049
G0 X46.021 Y116.858
;TYPE:WALL-INNER
G1 F2700 E37.13263
G1 F600 X46.021 Y108.235 E37.41944
G1 X187.821 Y108.236 E42.13572
G1 X187.821 Y116.859 E42.42253
G1 X46.021 Y116.858 E47.13881
G0 F6000 X45.621 Y117.258
;TYPE:WALL-OUTER
G1 F600 X45.621 Y107.835 E47.45222
G1 X188.221 Y107.836 E52.19512
G1 X188.221 Y117.259 E52.50853
G1 X45.621 Y117.258 E57.25142
G0 F6000 X45.891 Y116.988
G0 X46.131 Y116.468
G0 X46.411 Y116.468
;TYPE:SKIN
G1 F600 X46.411 Y108.625 E57.51228
G1 X187.431 Y108.626 E62.20263
G1 X187.431 Y116.469 E62.46349
G1 X46.411 Y116.468 E67.15383
G0 F6000 X46.727 Y116.307
G1 F600 X46.57 Y116.15 E67.16122
G0 F6000 X46.57 Y115.584
G1 F600 X47.293 Y116.307 E67.19522
G0 F6000 X47.859 Y116.307
G1 F600 X46.57 Y115.018 E67.25585
G0 F6000 X46.57 Y114.453
G1 F600 X48.424 Y116.307 E67.34306
G0 F6000 X48.99 Y116.307
G1 F600 X46.57 Y113.887 E67.45689
G0 F6000 X46.57 Y113.321
G1 F600 X49.556 Y116.307 E67.59734
G0 F6000 X50.121 Y116.307
G1 F600 X46.57 Y112.755 E67.76439
G0 F6000 X46.57 Y112.19
G1 F600 X50.687 Y116.307 E67.95804
G0 F6000 X51.253 Y116.307
G1 F600 X46.57 Y111.624 E68.17832
G0 F6000 X46.57 Y111.058
G1 F600 X51.818 Y116.307 E68.42519
G0 F6000 X52.384 Y116.307
G1 F600 X46.57 Y110.493 E68.69866
G0 F6000 X46.57 Y109.927
G1 F600 X52.95 Y116.307 E68.99876
G0 F6000 X53.515 Y116.307
G1 F600 X46.57 Y109.361 E69.32545
G0 F6000 X46.57 Y108.796
G1 F600 X54.081 Y116.307 E69.67875
G0 F6000 X54.647 Y116.307
G1 F600 X47.125 Y108.784 E70.03258
G0 F6000 X47.69 Y108.784
G1 F600 X55.213 Y116.307 E70.38644
G0 F6000 X55.778 Y116.307
G1 F600 X48.256 Y108.784 E70.74028
G0 F6000 X48.822 Y108.784
G1 F600 X56.344 Y116.307 E71.09411
G0 F6000 X56.91 Y116.307
G1 F600 X49.387 Y108.784 E71.44797
G0 F6000 X49.953 Y108.784
G1 F600 X57.475 Y116.307 E71.80181
G0 F6000 X58.041 Y116.307
G1 F600 X50.519 Y108.784 E72.15564
G0 F6000 X51.084 Y108.784
G1 F600 X58.607 Y116.307 E72.5095
G0 F6000 X59.172 Y116.307
G1 F600 X51.65 Y108.784 E72.86334
G0 F6000 X52.216 Y108.784
G1 F600 X59.738 Y116.307 E73.21717
G0 F6000 X60.304 Y116.307
G1 F600 X52.781 Y108.784 E73.57103
G0 F6000 X53.347 Y108.784
G1 F600 X60.869 Y116.307 E73.92487
G0 F6000 X61.435 Y116.307
G1 F600 X53.913 Y108.784 E74.2787
G0 F6000 X54.479 Y108.784
G1 F600 X62.001 Y116.307 E74.63254
G0 F6000 X62.566 Y116.307
G1 F600 X55.044 Y108.784 E74.98637
G0 F6000 X55.61 Y108.784
G1 F600 X63.132 Y116.307 E75.34021
G0 F6000 X63.698 Y116.307
G1 F600 X56.176 Y108.784 E75.69404
G0 F6000 X56.741 Y108.784
G1 F600 X64.263 Y116.307 E76.04788
G0 F6000 X64.829 Y116.307
G1 F600 X57.307 Y108.784 E76.40171
G0 F6000 X57.873 Y108.784
G1 F600 X65.395 Y116.307 E76.75555
G0 F6000 X65.961 Y116.307
G1 F600 X58.438 Y108.784 E77.10941
G0 F6000 X59.004 Y108.784
G1 F600 X66.526 Y116.307 E77.46324
G0 F6000 X67.092 Y116.307
G1 F600 X59.57 Y108.784 E77.81708
G0 F6000 X60.135 Y108.784
G1 F600 X67.658 Y116.307 E78.17094
G0 F6000 X68.223 Y116.307
G1 F600 X60.701 Y108.784 E78.52477
G0 F6000 X61.267 Y108.784
G1 F600 X68.789 Y116.307 E78.87861
G0 F6000 X69.355 Y116.307
G1 F600 X61.832 Y108.784 E79.23247
G0 F6000 X62.398 Y108.784
G1 F600 X69.92 Y116.307 E79.5863
G0 F6000 X70.486 Y116.307
G1 F600 X62.964 Y108.784 E79.94014
G0 F6000 X63.53 Y108.784
G1 F600 X71.052 Y116.307 E80.29397
G0 F6000 X71.617 Y116.307
G1 F600 X64.095 Y108.784 E80.64781
G0 F6000 X64.661 Y108.784
G1 F600 X72.183 Y116.307 E81.00164
G0 F6000 X72.749 Y116.307
G1 F600 X65.227 Y108.784 E81.35548
G0 F6000 X65.792 Y108.784
G1 F600 X73.314 Y116.307 E81.70932
G0 F6000 X73.88 Y116.307
G1 F600 X66.358 Y108.784 E82.06315
G0 F6000 X66.924 Y108.784
G1 F600 X74.446 Y116.307 E82.41699
G0 F6000 X75.012 Y116.307
G1 F600 X67.489 Y108.784 E82.77084
G0 F6000 X68.055 Y108.784
G1 F600 X75.577 Y116.307 E83.12468
G0 F6000 X76.143 Y116.307
G1 F600 X68.621 Y108.784 E83.47852
G0 F6000 X69.186 Y108.784
G1 F600 X76.709 Y116.307 E83.83237
G0 F6000 X77.274 Y116.307
G1 F600 X69.752 Y108.784 E84.18621
G0 F6000 X70.318 Y108.784
G1 F600 X77.84 Y116.307 E84.54005
G0 F6000 X78.406 Y116.307
G1 F600 X70.883 Y108.784 E84.8939
G0 F6000 X71.449 Y108.784
G1 F600 X78.971 Y116.307 E85.24774
G0 F6000 X79.537 Y116.307
G1 F600 X72.015 Y108.784 E85.60157
G0 F6000 X72.58 Y108.784
G1 F600 X80.103 Y116.307 E85.95543
G0 F6000 X80.668 Y116.307
G1 F600 X73.146 Y108.784 E86.30927
G0 F6000 X73.712 Y108.784
G1 F600 X81.234 Y116.307 E86.6631
G0 F6000 X81.8 Y116.307
G1 F600 X74.278 Y108.784 E87.01694
G0 F6000 X74.843 Y108.784
G1 F600 X82.365 Y116.307 E87.37077
G0 F6000 X82.931 Y116.307
G1 F600 X75.409 Y108.784 E87.72461
G0 F6000 X75.975 Y108.784
G1 F600 X83.497 Y116.307 E88.07845
G0 F6000 X84.062 Y116.307
G1 F600 X76.54 Y108.784 E88.43228
G0 F6000 X77.106 Y108.784
G1 F600 X84.628 Y116.307 E88.78612
G0 F6000 X85.194 Y116.307
G1 F600 X77.672 Y108.784 E89.13995
G0 F6000 X78.237 Y108.784
G1 F600 X85.76 Y116.307 E89.49381
G0 F6000 X86.325 Y116.307
G1 F600 X78.803 Y108.784 E89.84765
G0 F6000 X79.369 Y108.784
G1 F600 X86.891 Y116.307 E90.20148
G0 F6000 X87.457 Y116.307
G1 F600 X79.934 Y108.784 E90.55534
G0 F6000 X80.5 Y108.784
G1 F600 X88.022 Y116.307 E90.90918
G0 F6000 X88.588 Y116.307
G1 F600 X81.066 Y108.784 E91.26301
G0 F6000 X81.631 Y108.784
G1 F600 X89.154 Y116.307 E91.61687
G0 F6000 X89.719 Y116.307
G1 F600 X82.197 Y108.784 E91.9707
G0 F6000 X82.763 Y108.784
G1 F600 X90.285 Y116.307 E92.32454
G0 F6000 X90.851 Y116.307
G1 F600 X83.328 Y108.784 E92.6784
G0 F6000 X83.894 Y108.784
G1 F600 X91.416 Y116.307 E93.03223
G0 F6000 X91.982 Y116.307
G1 F600 X84.46 Y108.784 E93.38607
G0 F6000 X85.026 Y108.784
G1 F600 X92.548 Y116.307 E93.73991
G0 F6000 X93.113 Y116.307
G1 F600 X85.591 Y108.784 E94.09374
G0 F6000 X86.157 Y108.784
G1 F600 X93.68 Y116.307 E94.4476
G0 F6000 X94.246 Y116.307
G1 F600 X86.723 Y108.784 E94.80146
G0 F6000 X87.288 Y108.784
G1 F600 X94.811 Y116.307 E95.15532
G0 F6000 X95.377 Y116.307
G1 F600 X87.854 Y108.784 E95.50918
G0 F6000 X88.42 Y108.784
G1 F600 X95.943 Y116.307 E95.86303
G0 F6000 X96.508 Y116.307
G1 F600 X88.985 Y108.784 E96.21689
G0 F6000 X89.551 Y108.784
G1 F600 X97.074 Y116.307 E96.57075
G0 F6000 X97.64 Y116.307
G1 F600 X90.117 Y108.784 E96.92461
G0 F6000 X90.682 Y108.784
G1 F600 X98.205 Y116.307 E97.27847
G0 F6000 X98.771 Y116.307
G1 F600 X91.248 Y108.784 E97.63233
G0 F6000 X91.814 Y108.784
G1 F600 X99.337 Y116.307 E97.98619
G0 F6000 X99.902 Y116.307
G1 F600 X92.379 Y108.784 E98.34005
G0 F6000 X92.945 Y108.784
G1 F600 X100.468 Y116.307 E98.69391
G0 F6000 X101.034 Y116.307
G1 F600 X93.511 Y108.784 E99.04776
G0 F6000 X94.077 Y108.784
G1 F600 X101.599 Y116.307 E99.4016
G0 F6000 X102.165 Y116.307
G1 F600 X94.642 Y108.784 E99.75546
G0 F6000 X95.208 Y108.784
G1 F600 X102.731 Y116.307 E100.10932
G0 F6000 X103.296 Y116.307
G1 F600 X95.774 Y108.784 E100.46315
G0 F6000 X96.339 Y108.784
G1 F600 X103.862 Y116.307 E100.81701
G0 F6000 X104.428 Y116.307
