;FLAVOR:Marlin
;TIME:4837
;Filament used: 3.67845m
;Layer height: 0.2
;MINX:82.497
;MINY:97.248
;MINZ:0.2
;MAXX:142.249
;MAXY:127.752
;MAXZ:48
;POSTPROCESSED
;Generated with Cura_SteamEngine 4.13.1
;
;

M82 ;absolute extrusion mode
; Ender 3 Custom Start G-code
M117 Getting the bed up to temp!
M140 S55.0 ; Set Heat Bed temperature
M190 S55.0 ; Wait for Heat Bed temperature
M117 Pre-heating the extruder!
M104 S220.0; start warming extruder to 160
G28 ; Home all axes
M117 Auto bed-level GO!
G29 ; Auto bed-level (BL-Touch)
G92 E0 ; Reset Extruder
M117 Getting the extruder up to temp!
M104 S220.0 ; Set Extruder temperature
M109 S220.0 ; Wait for Extruder temperature
G1 Z2.0 F3000 ; move z up little to prevent scratching of surface
G1 X0.1 Y20 Z0.3 F5000.0 ; move to start-line position
M117 LET THE PURGE BEGIN!
SET_GCODE_OFFSET Z=-.005
G1 X0.1 Y200.0 Z0.3 F1500.0 E15 ; draw 1st line
G1 X0.4 Y200.0 Z0.3 F5000.0 ; move to side a little
G1 X0.4 Y20 Z0.3 F1500.0 E30 ; draw 2nd line
G92 E0 ; reset extruder
G1 Z1.0 F3000 ; move z up little to prevent scratching of surface
G1 X5 Y20 Z0.3 F5000.0 ; Move over to prevent blob squish
; SET_GCODE_OFFSET Z=+.075
M117 Autobots! Roll Out!
; End of custom start GCode
G92 E0
G92 E0
G1 F2700 E-3.5
;LAYER_COUNT:240
;LAYER:0
M107
M204 S500
M205 X8 Y8
;MESH:3DBenchy(1).stl
G0 F9000 X92.24 Y109.509 Z0.2
M204 S8000
;TYPE:WALL-INNER
G1 F2700 E0
G1 F9000 X92.052 Y109.307 E0.01084
G1 X91.721 Y109.054 E0.02721
G1 X91.368 Y108.862 E0.043
G1 X90.974 Y108.725 E0.05939
G1 X90.668 Y108.662 E0.07166
G1 X90.36 Y108.63 E0.08383
G1 X90.104 Y108.623 E0.09389
G1 X89.788 Y108.634 E0.10631
G1 X89.429 Y108.682 E0.12054
G1 X89.112 Y108.758 E0.13335
G1 X88.783 Y108.876 E0.14708
G1 X88.395 Y109.075 E0.16421
G1 X88.034 Y109.332 E0.18162
G1 X87.714 Y109.64 E0.19907
G1 X87.443 Y109.99 E0.21646
G1 X87.378 Y110.1 E0.22148
G1 X87.378 Y107.635 E0.31833
G1 X87.4 Y107.417 E0.32694
G1 X87.471 Y107.174 E0.33688
G1 X87.69 Y106.856 E0.35205
G1 X88.011 Y106.661 E0.36681
G1 X88.263 Y106.603 E0.37697
G1 X88.315 Y106.598 E0.37902
G1 X111.834 Y105.17 E1.30475
G1 X112.292 Y105.153 E1.32276
G1 X112.566 Y105.151 E1.33352
G1 X112.873 Y105.155 E1.34559
G1 X113.145 Y105.163 E1.35628
G1 X113.566 Y105.186 E1.37284
G1 X113.976 Y105.222 E1.38901
G1 X114.382 Y105.27 E1.40507
G1 X114.526 Y105.289 E1.41078
G1 X114.916 Y105.35 E1.42629
G1 X115.214 Y105.404 E1.43819
G1 X115.459 Y105.454 E1.44801
G1 X115.842 Y105.54 E1.46344
G1 X116.203 Y105.63 E1.47805
G1 X116.587 Y105.739 E1.49374
G1 X116.817 Y105.81 E1.50319
G1 X117.079 Y105.896 E1.51403
G1 X117.314 Y105.977 E1.52379
G1 X117.646 Y106.1 E1.5377
G1 X118.013 Y106.248 E1.55325
G1 X118.334 Y106.387 E1.56699
G1 X118.717 Y106.567 E1.58362
G1 X118.935 Y106.674 E1.59316
G1 X119.428 Y106.936 E1.61509
G1 X119.672 Y107.073 E1.62609
G1 X119.881 Y107.199 E1.63568
G1 X120.25 Y107.43 E1.65278
G1 X120.554 Y107.635 E1.66719
G1 X120.792 Y107.798 E1.67852
G1 X121.127 Y108.048 E1.69494
G1 X121.473 Y108.32 E1.71223
G1 X121.662 Y108.478 E1.72191
G1 X121.922 Y108.701 E1.73537
G1 X122.255 Y109.006 E1.75311
G1 X122.465 Y109.209 E1.76459
G1 X122.652 Y109.397 E1.775
G1 X122.825 Y109.576 E1.78479
G1 X123.195 Y109.982 E1.80637
G1 X123.428 Y110.257 E1.82053
G1 X123.73 Y110.633 E1.83948
G1 X123.888 Y110.842 E1.84977
G1 X124.105 Y111.141 E1.86428
G1 X124.382 Y111.547 E1.88359
G1 X124.525 Y111.771 E1.89403
G1 X124.64 Y111.961 E1.90276
G1 X124.795 Y112.228 E1.91489
G1 X124.862 Y112.504 E1.92605
G1 X124.819 Y112.714 E1.93447
G1 X124.662 Y113.006 E1.9475
G1 X124.453 Y113.344 E1.96311
G1 X124.204 Y113.719 E1.98079
G1 X124.004 Y114.003 E1.99444
G1 X123.835 Y114.232 E2.00562
G1 X123.635 Y114.489 E2.01842
G1 X123.452 Y114.215 E2.02418
G1 X123.045 Y113.965 E2.04295
G1 X122.691 Y113.873 E2.05732
G1 X122.45 Y113.851 E2.06683
G1 X122.92 Y113.178 E2.09908
G1 X123.215 Y112.767 E2.11895
G1 X123.427 Y112.45 E2.13394
G1 X123.591 Y112.136 E2.14785
G1 X123.698 Y111.736 E2.16412
G1 X123.697 Y111.271 E2.18239
G1 X123.541 Y110.797 E2.19861
G1 X123.189 Y110.419 E2.20986
G1 X122.726 Y110.25 E2.22923
G1 X122.259 Y110.231 E2.24759
G1 X121.966 Y110.236 E2.2591
G1 X120.875 Y110.232 E2.30197
G1 X120.561 Y110.228 E2.3143
G1 X120.149 Y110.245 E2.3305
G1 X119.699 Y110.347 E2.34863
G1 X119.256 Y110.657 E2.36988
G1 X119.141 Y110.541 E2.37629
G1 X118.776 Y110.303 E2.39341
G1 X118.311 Y110.22 E2.41197
G1 X117.87 Y110.355 E2.43009
G1 X117.507 Y110.667 E2.4489
G1 X117.293 Y110.982 E2.46386
G1 X117.13 Y111.327 E2.47885
G1 X117.032 Y111.608 E2.49054
G1 X116.982 Y111.419 E2.49055
G1 X116.889 Y111.107 E2.50015
G1 X116.705 Y110.754 E2.51579
G1 X116.333 Y110.424 E2.53532
G1 X115.917 Y110.264 E2.55284
G1 X115.627 Y110.228 E2.56432
G1 X115.14 Y110.302 E2.58367
G1 X114.701 Y110.624 E2.60506
G1 X114.652 Y110.733 E2.60976
G1 X114.41 Y110.464 E2.6184
G1 X113.996 Y110.261 E2.63652
G1 X113.762 Y110.224 E2.64582
G1 X113.303 Y110.307 E2.66415
G1 X112.904 Y110.568 E2.68288
G1 X112.674 Y110.816 E2.69617
G1 X112.595 Y110.707
G1 X112.25 Y110.398 E2.71437
G1 X111.776 Y110.225 E2.73419
G1 X111.267 Y110.276 E2.75429
G1 X110.832 Y110.501 E2.77353
G1 X110.493 Y110.934 E2.79514
G1 X110.411 Y111.392 E2.81342
G1 X110.478 Y111.802 E2.82974
G1 X110.672 Y112.248 E2.84885
G1 X110.938 Y112.703 E2.86955
G1 X111.094 Y112.99 E2.88239
G1 X111.261 Y113.247 E2.89443
G1 X111.187 Y113.356 E2.89961
G1 X110.992 Y113.665 E2.91396
G1 X110.827 Y113.962 E2.92731
G1 X110.793 Y114.017 E2.92985
G1 X110.743 Y113.911 E2.93078
G1 X110.437 Y113.556 E2.94919
G1 X110.055 Y113.296 E2.96735
G1 X109.625 Y113.148 E2.98521
G1 X109.296 Y113.112 E2.99822
G1 X108.845 Y113.161 E3.01604
G1 X108.823 Y113.17 E3.01697
G1 X108.856 Y112.869 E3.02075
G1 X108.87 Y112.486 E3.03581
G1 X108.865 Y112.17 E3.04823
G1 X108.836 Y111.81 E3.06242
G1 X108.774 Y111.404 E3.07855
G1 X108.7 Y111.09 E3.09123
G1 X108.604 Y110.795 E3.10342
G1 X108.485 Y110.509 E3.11559
G1 X108.343 Y110.242 E3.12747
G1 X108.103 Y109.886 E3.14434
G1 X107.856 Y109.612 E3.15883
G1 X107.537 Y109.345 E3.17517
G1 X107.186 Y109.136 E3.19122
G1 X106.859 Y109.006 E3.20505
G1 X106.537 Y108.919 E3.21815
G1 X106.225 Y108.862 E3.23061
G1 X105.882 Y108.823 E3.24418
G1 X105.482 Y108.8 E3.25992
G1 X105.105 Y108.798 E3.27473
G1 X104.808 Y108.801 E3.2864
G1 X104.675 Y108.798 E3.29163
G1 X104.335 Y108.784 E3.30499
G1 X103.949 Y108.801 E3.32017
G1 X103.567 Y108.901 E3.33569
G1 X103.162 Y109.154 E3.35445
G1 X102.913 Y109.512 E3.37158
G1 X102.839 Y110.058 E3.39323
G1 X102.873 Y110.369 E3.40552
G1 X102.884 Y110.636 E3.41602
G1 X102.873 Y111.266 E3.44078
G1 X102.873 Y111.981 E3.46887
G1 X102.874 Y112.553 E3.49134
G1 X102.875 Y113.103 E3.51295
G1 X102.825 Y112.908
G1 X102.717 Y112.554 E3.51602
G1 X102.521 Y112.126 E3.52526
G1 X102.394 Y111.982 E3.53041
G1 X102.436 Y111.937 E3.53283
G1 X102.624 Y111.514 E3.54629
G1 X102.691 Y111.132 E3.55831
G1 X102.717 Y110.815 E3.56096
G1 X102.71 Y110.428 E3.57127
G1 X102.614 Y109.972 E3.58057
G1 X102.426 Y109.594 E3.5923
G1 X102.198 Y109.313 E3.60651
G1 X101.868 Y109.033 E3.62352
G1 X101.503 Y108.837 E3.63979
G1 X101.053 Y108.699 E3.65829
G1 X100.688 Y108.64 E3.67281
G1 X100.361 Y108.621 E3.68568
G1 X100.035 Y108.625 E3.69849
G1 X99.676 Y108.665 E3.71268
G1 X99.322 Y108.742 E3.72692
G1 X99.014 Y108.851 E3.73975
G1 X98.661 Y109.035 E3.75539
G1 X98.366 Y109.26 E3.76997
G1 X98.258 Y109.398 E3.77685
G1 X98.047 Y109.071 E3.78623
G1 X97.59 Y108.832 E3.80649
G1 X97.176 Y108.79 E3.82284
G1 X96.829 Y108.8 E3.83648
G1 X95.951 Y108.796 E3.87097
G1 X95.22 Y108.798 E3.89969
G1 X94.567 Y108.795 E3.92535
G1 X94.006 Y108.806 E3.94739
G1 X93.702 Y108.783 E3.95937
G1 X93.33 Y108.76 E3.97402
G1 X92.896 Y108.839 E3.99135
G1 X92.489 Y109.118 E4.01073
G1 X92.24 Y109.509 E4.02281
M204 S500
G0 X92.479 Y110.916
M204 S8000
G1 X92.806 Y111.187 E4.0395
G1 X93.271 Y111.296 E4.05826
G1 X93.63 Y111.277 E4.07239
G1 X93.927 Y111.233 E4.08419
G1 X94.056 Y111.225 E4.08926
G1 X94.054 Y111.31 E4.08976
G1 X94.033 Y111.731 E4.10632
G1 X94.039 Y112.143 E4.12251
G1 X94.042 Y112.222 E4.12562
G1 X94.039 Y113.561 E4.17823
G1 X94.037 Y113.724 E4.18463
G1 X94.041 Y114.08 E4.19862
G1 X94.049 Y114.384 E4.21057
G1 X94.005 Y115.037 E4.23628
G1 X94.092 Y115.497 E4.25467
G1 X94.422 Y115.921 E4.27578
G1 X94.913 Y116.133 E4.29679
G1 X95.427 Y116.157 E4.31701
G1 X95.904 Y115.992 E4.33684
G1 X96.28 Y115.614 E4.35779
G1 X96.456 Y115.162 E4.37684
G1 X96.498 Y114.716 E4.39444
G1 X96.493 Y114.518 E4.40223
G1 X96.478 Y114.155 E4.4165
G1 X96.477 Y113.889 E4.42695
G1 X96.481 Y113.486 E4.44278
G1 X96.48 Y111.9 E4.5051
G1 X96.483 Y111.253 E4.53052
G1 X96.858 Y111.26 E4.54525
G1 X97.321 Y111.228 E4.56349
G1 X97.76 Y111.108 E4.58137
G1 X98.139 Y110.816 E4.60016
G1 X98.178 Y110.896
G1 X98.516 Y111.26 E4.61968
G1 X98.887 Y111.427 E4.63566
G1 X98.683 Y111.837 E4.647
G1 X98.627 Y112.29 E4.66493
G1 X98.717 Y112.735 E4.68277
G1 X99.049 Y113.147 E4.70356
G1 X99.466 Y113.332 E4.72148
G1 X99.614 Y113.365 E4.72744
G1 X99.928 Y113.418 E4.73995
G1 X100.209 Y113.545 E4.75206
G1 X100.358 Y113.75 E4.76202
G1 X100.349 Y113.863 E4.76647
G1 X100.327 Y113.884 E4.76767
G1 X100.175 Y113.771 E4.77098
G1 X99.885 Y113.583 E4.77829
G1 X99.457 Y113.447 E4.78613
G1 X98.956 Y113.45 E4.79538
G1 X98.487 Y113.627 E4.81507
G1 X98.116 Y113.992 E4.83552
G1 X97.951 Y114.499 E4.85647
G1 X97.979 Y114.975 E4.8752
G1 X98.133 Y115.38 E4.89222
G1 X98.404 Y115.728 E4.90955
G1 X98.713 Y115.957 E4.92466
G1 X99.09 Y116.132 E4.94099
G1 X99.462 Y116.235 E4.95616
G1 X99.759 Y116.283 E4.96798
G1 X100.063 Y116.305 E4.97995
G1 X100.477 Y116.301 E4.99622
G1 X100.827 Y116.26 E5.01007
G1 X101.218 Y116.164 E5.02588
G1 X101.601 Y116.002 E5.04222
G1 X101.95 Y115.778 E5.05851
G1 X102.217 Y115.539 E5.07259
G1 X102.443 Y115.276 E5.08622
G1 X102.666 Y114.915 E5.10289
G1 X102.831 Y114.522 E5.11963
G1 X102.876 Y114.341 E5.12696
G1 X102.863 Y114.66 E5.13101
G1 X102.876 Y115.025 E5.13855
G1 X102.982 Y115.457 E5.15603
G1 X103.274 Y115.897 E5.17677
G1 X103.729 Y116.139 E5.19702
G1 X104.162 Y116.167 E5.21407
G1 X104.559 Y116.126 E5.22975
G1 X104.732 Y116.123 E5.23655
G1 X105.142 Y116.134 E5.25266
G1 X105.56 Y116.129 E5.26908
G1 X105.923 Y116.105 E5.28338
G1 X106.344 Y116.047 E5.30007
G1 X106.756 Y115.945 E5.31675
G1 X107.067 Y115.825 E5.32985
G1 X107.443 Y115.614 E5.34679
G1 X107.629 Y115.461 E5.35625
G1 X107.755 Y115.755 E5.36298
G1 X108.062 Y116.139 E5.38229
G1 X108.44 Y116.412 E5.40061
G1 X108.848 Y116.568 E5.41777
G1 X109.308 Y116.618 E5.43595
G1 X109.769 Y116.546 E5.45428
G1 X110.221 Y116.336 E5.47386
G1 X110.55 Y116.061 E5.49071
G1 X110.648 Y115.923 E5.49736
G1 X110.96 Y116.191 E5.50821
G1 X111.456 Y116.344 E5.5286
G1 X111.961 Y116.264 E5.54869
G1 X112.361 Y115.97 E5.56819
G1 X112.526 Y115.77 E5.57838
G1 X112.61 Y115.647 E5.58423
G1 X112.646 Y115.708
G1 X112.881 Y116.018 E5.59505
G1 X113.289 Y116.286 E5.61423
G1 X113.815 Y116.358 E5.63509
G1 X114.315 Y116.22 E5.65547
G1 X114.718 Y115.895 E5.67581
G1 X114.932 Y115.395 E5.69717
G1 X114.932 Y114.908 E5.71631
G1 X114.811 Y114.518 E5.73235
G1 X114.693 Y114.293 E5.74233
G1 X114.53 Y114.043 E5.75406
G1 X114.492 Y113.98 E5.75695
G1 X114.278 Y113.594 E5.77429
G1 X114.107 Y113.324 E5.78685
G1 X114.054 Y113.187 E5.79262
G1 X114.148 Y113.011 E5.80046
G1 X114.333 Y112.719 E5.81404
G1 X114.626 Y112.221 E5.83674
G1 X114.705 Y112.446 E5.83812
G1 X114.86 Y112.809 E5.85363
G1 X114.924 Y112.973 E5.86055
G1 X115.125 Y113.515 E5.88326
G1 X115.344 Y114.091 E5.90747
G1 X115.446 Y114.382 E5.91958
G1 X115.553 Y114.669 E5.93162
G1 X115.638 Y114.863 E5.93994
G1 X115.76 Y115.122 E5.95119
G1 X115.78 Y115.204 E5.9545
G1 X115.733 Y115.347 E5.96042
G1 X115.602 Y115.619 E5.97228
G1 X115.545 Y115.75 E5.97789
G1 X115.417 Y116.104 E5.99268
G1 X115.275 Y116.336 E6.00337
G1 X115.182 Y116.386 E6.00752
G1 X114.857 Y116.471 E6.02071
G1 X114.404 Y116.692 E6.03997
G1 X114.149 Y116.996 E6.05556
G1 X114.025 Y117.477 E6.07508
G1 X114.102 Y117.974 E6.09483
G1 X114.342 Y118.422 E6.1148
G1 X114.726 Y118.739 E6.13437
G1 X115.122 Y118.863 E6.15067
G1 X115.578 Y118.858 E6.16859
G1 X115.967 Y118.77 E6.18426
G1 X116.353 Y118.628 E6.20041
G1 X116.689 Y118.436 E6.21562
G1 X116.974 Y118.188 E6.23046
G1 X117.208 Y117.889 E6.24538
G1 X117.41 Y117.53 E6.26156
G1 X117.561 Y117.2 E6.27582
G1 X117.699 Y116.857 E6.29035
G1 X117.886 Y116.378 E6.31055
G1 X118.065 Y115.91 E6.33024
G1 X118.673 Y114.208 E6.40124
G1 X118.984 Y113.336 E6.43762
G1 X119.193 Y112.703 E6.46381
G1 X119.343 Y112.35 E6.47888
G1 X119.426 Y112.441
G1 X119.837 Y112.641 E6.49683
G1 X120.227 Y112.701 E6.51234
G1 X119.757 Y113.359 E6.54411
G1 X119.61 Y113.56 E6.55389
G1 X119.455 Y113.763 E6.56392
G1 X119.276 Y114.026 E6.57642
G1 X119.093 Y114.357 E6.59128
G1 X118.978 Y114.696 E6.60535
G1 X118.941 Y115.068 E6.62003
G1 X119.003 Y115.463 E6.63574
G1 X119.233 Y115.93 E6.6562
G1 X119.632 Y116.246 E6.67619
G1 X120.063 Y116.351 E6.69362
G1 X120.82 Y116.324 E6.72338
G1 X121.169 Y116.332 E6.7371
G1 X121.883 Y116.333 E6.76515
G1 X121.598 Y116.578 E6.769
G1 X121.219 Y116.883 E6.78812
G1 X120.845 Y117.162 E6.80645
G1 X120.652 Y117.301 E6.81579
G1 X120.411 Y117.461 E6.82716
G1 X120.193 Y117.607 E6.83747
G1 X119.96 Y117.754 E6.84829
G1 X119.551 Y117.996 E6.86696
G1 X119.235 Y118.171 E6.88115
G1 X118.996 Y118.295 E6.89173
G1 X118.672 Y118.457 E6.90596
G1 X118.253 Y118.65 E6.92409
G1 X117.904 Y118.796 E6.93895
G1 X117.656 Y118.895 E6.94944
G1 X117.203 Y119.063 E6.96843
G1 X116.952 Y119.148 E6.97884
G1 X116.721 Y119.221 E6.98836
G1 X116.459 Y119.298 E6.99908
G1 X116.178 Y119.376 E7.01054
G1 X115.899 Y119.448 E7.02186
G1 X115.433 Y119.552 E7.04062
G1 X115.267 Y119.586 E7.04728
G1 X114.931 Y119.647 E7.0607
G1 X114.679 Y119.688 E7.07073
G1 X114.345 Y119.736 E7.08398
G1 X114.058 Y119.769 E7.09533
G1 X113.855 Y119.79 E7.10335
G1 X113.418 Y119.824 E7.12057
G1 X113.165 Y119.837 E7.13053
G1 X112.788 Y119.848 E7.14534
G1 X112.351 Y119.848 E7.16251
G1 X112.012 Y119.839 E7.17584
G1 X111.269 Y119.797 E7.20507
G1 X107.695 Y119.578 E7.34575
G1 X107.177 Y119.549 E7.36614
G1 X106.992 Y119.536 E7.37342
G1 X105.005 Y119.416 E7.45163
G1 X104.813 Y119.402 E7.4592
G1 X104.263 Y119.371 E7.48084
G1 X104.07 Y119.357 E7.48844
G1 X103.507 Y119.325 E7.5106
G1 X100.824 Y119.161 E7.61621
G1 X99.689 Y119.094 E7.66088
G1 X95.742 Y118.853 E7.81624
G1 X94.977 Y118.808 E7.84634
G1 X94.168 Y118.757 E7.87819
G1 X92.495 Y118.657 E7.94404
G1 X88.294 Y118.399 E8.1094
G1 X87.88 Y118.281 E8.12631
G1 X87.594 Y118.038 E8.14106
G1 X87.42 Y117.678 E8.15677
G1 X87.377 Y117.333 E8.17043
G1 X87.377 Y114.824 E8.269
G1 X87.485 Y115.003 E8.27722
G1 X87.733 Y115.311 E8.29275
G1 X88.05 Y115.61 E8.30987
G1 X88.335 Y115.818 E8.32373
G1 X88.715 Y116.024 E8.34072
G1 X89.002 Y116.137 E8.35283
G1 X89.331 Y116.228 E8.36625
G1 X89.641 Y116.28 E8.3786
G1 X89.967 Y116.304 E8.39144
G1 X90.293 Y116.302 E8.40425
G1 X90.596 Y116.276 E8.41619
G1 X91.005 Y116.196 E8.43257
G1 X91.395 Y116.058 E8.44882
G1 X91.748 Y115.863 E8.46467
G1 X92.055 Y115.611 E8.48027
G1 X92.312 Y115.308 E8.49588
G1 X92.498 Y114.979 E8.51073
G1 X92.627 Y114.628 E8.52542
G1 X92.579 Y114.157 E8.54402
G1 X92.314 Y113.71 E8.56444
G1 X91.891 Y113.414 E8.58472
G1 X91.495 Y113.297 E8.60095
G1 X91.008 Y113.311 E8.62009
G1 X90.551 Y113.517 E8.63978
G1 X90.347 Y113.745 E8.6518
G1 X90.173 Y113.806 E8.65905
G1 X89.851 Y113.779 E8.67174
G1 X89.589 Y113.625 E8.68368
G1 X89.429 Y113.351 E8.69615
G1 X89.367 Y113.125 E8.70535
G1 X89.329 Y112.847 E8.71638
G1 X89.313 Y112.569 E8.72732
G1 X89.317 Y112.284 E8.73852
G1 X89.331 Y112.052 E8.74765
G1 X89.376 Y111.77 E8.75887
G1 X89.508 Y111.412 E8.77386
G1 X89.705 Y111.212 E8.78489
G1 X89.988 Y111.124 E8.79653
G1 X90.249 Y111.207 E8.80729
G1 X90.489 Y111.36 E8.81847
G1 X90.814 Y111.529 E8.83287
G1 X91.269 Y111.654 E8.85141
G1 X91.728 Y111.608 E8.86953
G1 X92.144 Y111.375 E8.88826
G1 X92.468 Y110.955 E8.9091
G1 X92.479 Y110.916
M204 S500
G1 F2700 E5.4091
G0 F9000 X90.733 Y111.735
G0 X89.986 Y111.357
G0 X89.7 Y111.532
G0 X89.551 Y112.074
G0 X89.584 Y113.081
G0 X89.752 Y113.464
G0 X92.128 Y113.484
G0 X92.328 Y114.642
G1 F2700 E8.9091
G0 F9000 X92.118 Y114.564
M204 S8000
;TYPE:WALL-OUTER
