;FLAVOR:Marlin
;TIME:7445
;Filament used: 8.40651m
;Layer height: 0.2
;MINX:50.769
;MINY:66.687
;MINZ:0.2
;MAXX:174.231
;MAXY:143.313
;MAXZ:15
;Generated with Cura_SteamEngine 4.12.1
M82 ;absolute extrusion mode
; Ender 3 Custom Start G-code
M117 Getting the bed up to temp!
M140 S60 ; Set Heat Bed temperature
M190 S60 ; Wait for Heat Bed temperature
M117 Pre-heating the extruder!
M104 S205.0; start warming extruder to 160
G28 ; Home all axes
M117 Auto bed-level GO!
G29 ; Auto bed-level (BL-Touch)
G92 E0 ; Reset Extruder
M117 Getting the extruder up to temp!
M104 S205.0 ; Set Extruder temperature
M109 S205.0 ; Wait for Extruder temperature
G1 Z2.0 F3000 ; move z up little to prevent scratching of surface
G1 X0.1 Y20 Z0.3 F5000.0 ; move to start-line position
M117 LET THE PURGE BEGIN!
G1 X0.1 Y200.0 Z0.3 F1500.0 E15 ; draw 1st line
G1 X0.4 Y200.0 Z0.3 F5000.0 ; move to side a little
G1 X0.4 Y20 Z0.3 F1500.0 E30 ; draw 2nd line
G92 E0 ; reset extruder
G1 Z1.0 F3000 ; move z up little to prevent scratching of surface
G1 X5 Y20 Z0.3 F5000.0 ; Move over to prevent blob squish
M117 Autobots! Roll Out!
; End of custom start GCode
G92 E0
G92 E0
G1 F2700 E-5
;LAYER_COUNT:75
;LAYER:0
M107
G0 F9000 X54.911 Y69.535 Z0.2
;TYPE:SKIRT
G1 F2700 E0
G1 F2100 X55.97 Y68.747 E0.0439
G1 X56.178 Y68.611 E0.05217
G1 X56.984 Y68.132 E0.08335
G1 X58.101 Y67.609 E0.12438
G1 X58.4 Y67.489 E0.13509
G1 X59.027 Y67.259 E0.1573
G1 X59.929 Y67.001 E0.18851
G1 X60.849 Y66.82 E0.21969
G1 X61.782 Y66.719 E0.25091
G1 X62.378 Y66.696 E0.27075
G1 X63.014 Y66.69 E0.2919
G1 X63.404 Y66.693 E0.30487
G1 X65.688 Y66.688 E0.38084
G1 X70.536 Y66.701 E0.54208
G1 X155.046 Y66.701 E3.3529
G1 X159.542 Y66.687 E3.50244
G1 X161.746 Y66.693 E3.57574
G1 X162.535 Y66.7 E3.60198
G1 X162.701 Y66.704 E3.60751
G1 X163.637 Y66.767 E3.63871
G1 X164.66 Y66.928 E3.67315
G1 X164.941 Y66.986 E3.6827
G1 X165.943 Y67.243 E3.7171
G1 X166.828 Y67.554 E3.7483
G1 X167.683 Y67.939 E3.77949
G1 X168.383 Y68.324 E3.80606
G1 X168.639 Y68.477 E3.81598
G1 X169.423 Y68.992 E3.84718
G1 X170.16 Y69.572 E3.87837
G1 X170.845 Y70.212 E3.90955
G1 X171.473 Y70.909 E3.94076
G1 X172.28 Y72.019 E3.9864
G1 X172.409 Y72.222 E3.9944
G1 X172.696 Y72.699 E4.01292
G1 X173.126 Y73.533 E4.04412
G1 X173.483 Y74.4 E4.07531
G1 X173.853 Y75.638 E4.11829
G1 X173.925 Y75.944 E4.12874
G1 X174.1 Y76.865 E4.15992
G1 X174.212 Y78.144 E4.20262
G1 X174.219 Y78.385 E4.21064
G1 X174.224 Y78.681 E4.22049
G1 X174.23 Y81.567 E4.31648
G1 X174.216 Y86.378 E4.47649
G1 X174.216 Y124.327 E5.73868
G1 X174.231 Y128.658 E5.88273
G1 X174.225 Y130.828 E5.95491
G1 X174.218 Y131.599 E5.98055
G1 X174.214 Y131.772 E5.98631
G1 X174.152 Y132.708 E6.01751
G1 X173.989 Y133.744 E6.05239
G1 X173.927 Y134.044 E6.06258
G1 X173.699 Y134.954 E6.09378
G1 X173.393 Y135.841 E6.12499
G1 X173.013 Y136.698 E6.15617
G1 X172.587 Y137.477 E6.1857
G1 X172.431 Y137.737 E6.19578
G1 X171.915 Y138.52 E6.22697
G1 X171.334 Y139.256 E6.25816
G1 X170.692 Y139.94 E6.28936
G1 X169.994 Y140.567 E6.32057
G1 X169.276 Y141.111 E6.35053
G1 X169.217 Y141.152 E6.35292
G1 X168.599 Y141.551 E6.37739
G1 X168.424 Y141.656 E6.38417
G1 X167.6 Y142.104 E6.41537
G1 X166.741 Y142.48 E6.44656
G1 X165.853 Y142.782 E6.47775
G1 X165.275 Y142.934 E6.49763
G1 X164.955 Y143.009 E6.50856
G1 X164.034 Y143.184 E6.53974
G1 X162.773 Y143.294 E6.58184
G1 X162.538 Y143.301 E6.58966
G1 X162.233 Y143.306 E6.59981
G1 X159.312 Y143.312 E6.69696
G1 X154.464 Y143.299 E6.85821
G1 X69.954 Y143.299 E9.66902
G1 X65.458 Y143.313 E9.81856
G1 X62.625 Y143.305 E9.91279
G1 X62.256 Y143.298 E9.92506
G1 X62.091 Y143.292 E9.93055
G1 X61.156 Y143.218 E9.96175
G1 X60.231 Y143.064 E9.99294
G1 X59.322 Y142.833 E10.02413
G1 X58.365 Y142.496 E10.05788
G1 X58.103 Y142.39 E10.06728
G1 X57.766 Y142.247 E10.07945
G1 X57.57 Y142.16 E10.08659
G1 X56.73 Y141.743 E10.11778
G1 X55.928 Y141.257 E10.14897
G1 X55.171 Y140.703 E10.18017
G1 X54.464 Y140.088 E10.21133
G1 X53.959 Y139.577 E10.23523
G1 X53.351 Y138.863 E10.26642
G1 X52.709 Y137.95 E10.30354
G1 X52.519 Y137.648 E10.31541
G1 X52.054 Y136.833 E10.34662
G1 X51.66 Y135.982 E10.37781
G1 X51.34 Y135.101 E10.40899
G1 X51.026 Y133.858 E10.45163
G1 X50.986 Y133.649 E10.4587
G1 X50.831 Y132.526 E10.49641
G1 X50.792 Y131.904 E10.51714
G1 X50.785 Y131.702 E10.52386
G1 X50.778 Y131.352 E10.5355
G1 X50.77 Y128.433 E10.63259
G1 X50.784 Y123.622 E10.79261
G1 X50.784 Y85.673 E12.05479
G1 X50.769 Y81.343 E12.19881
G1 X50.775 Y79.147 E12.27185
G1 X50.787 Y78.401 E12.29667
G1 X50.852 Y77.373 E12.33093
G1 X50.891 Y77.022 E12.34267
G1 X51.034 Y76.095 E12.37387
G1 X51.256 Y75.184 E12.40506
G1 X51.555 Y74.295 E12.43625
G1 X51.928 Y73.435 E12.46743
G1 X52.336 Y72.672 E12.49621
G1 X52.502 Y72.389 E12.50712
G1 X53.01 Y71.6 E12.53833
G1 X53.584 Y70.859 E12.56951
G1 X54.219 Y70.168 E12.60072
G1 X54.911 Y69.535 E12.63191
G0 F9000 X55.22 Y69.798
G1 F2100 X56.189 Y69.082 E12.67199
G1 X56.397 Y68.946 E12.68025
G1 X57.189 Y68.476 E12.71088
G1 X58.25 Y67.981 E12.74982
G1 X58.549 Y67.861 E12.76054
G1 X59.154 Y67.639 E12.78197
G1 X60.039 Y67.386 E12.81259
G1 X60.943 Y67.211 E12.84321
G1 X61.859 Y67.115 E12.87385
G1 X62.382 Y67.096 E12.89125
G1 X63.011 Y67.09 E12.91217
G1 X63.402 Y67.093 E12.92518
G1 X65.687 Y67.088 E13.00118
G1 X70.535 Y67.101 E13.16242
G1 X155.048 Y67.101 E15.97334
G1 X159.54 Y67.087 E16.12274
G1 X161.743 Y67.093 E16.19602
G1 X162.525 Y67.1 E16.22203
G1 X162.691 Y67.104 E16.22755
G1 X163.61 Y67.166 E16.25818
G1 X164.579 Y67.32 E16.29082
G1 X164.86 Y67.378 E16.30036
G1 X165.826 Y67.625 E16.33352
G1 X166.695 Y67.931 E16.36417
G1 X167.533 Y68.312 E16.39478
G1 X168.178 Y68.667 E16.41927
G1 X168.434 Y68.82 E16.42919
G1 X169.203 Y69.326 E16.45981
G1 X169.925 Y69.897 E16.49042
G1 X170.595 Y70.529 E16.52106
G1 X171.208 Y71.216 E16.55168
G1 X171.942 Y72.234 E16.59342
G1 X172.071 Y72.437 E16.60142
G1 X172.348 Y72.898 E16.61931
G1 X172.77 Y73.716 E16.64993
G1 X173.119 Y74.568 E16.68055
G1 X173.463 Y75.729 E16.72082
G1 X173.535 Y76.035 E16.73128
G1 X173.707 Y76.94 E16.76192
G1 X173.813 Y78.155 E16.80248
G1 X173.82 Y78.396 E16.8105
G1 X173.824 Y78.682 E16.82002
G1 X173.83 Y81.566 E16.91594
G1 X173.816 Y86.377 E17.07595
G1 X173.816 Y124.327 E18.33817
G1 X173.831 Y128.657 E18.48219
G1 X173.825 Y130.826 E18.55433
G1 X173.821 Y131.417 E18.57399
G1 X173.814 Y131.763 E18.5855
G1 X173.753 Y132.682 E18.61613
G1 X173.598 Y133.663 E18.64917
G1 X173.536 Y133.963 E18.65936
G1 X173.31 Y134.856 E18.68999
G1 X173.008 Y135.726 E18.72062
G1 X172.632 Y136.566 E18.75123
G1 X172.244 Y137.272 E18.77803
G1 X172.088 Y137.532 E18.78811
G1 X171.581 Y138.3 E18.81872
G1 X171.009 Y139.021 E18.84933
G1 X170.376 Y139.69 E18.87996
G1 X169.688 Y140.301 E18.91057
G1 X169.048 Y140.783 E18.93722
G1 X168.989 Y140.824 E18.93961
G1 X168.394 Y141.208 E18.96316
G1 X168.219 Y141.313 E18.96995
G1 X167.409 Y141.752 E19.00059
G1 X166.565 Y142.119 E19.0312
G1 X165.692 Y142.412 E19.06183
G1 X165.184 Y142.544 E19.07929
G1 X164.864 Y142.619 E19.09022
G1 X163.959 Y142.79 E19.12085
G1 X162.761 Y142.894 E19.16085
G1 X162.526 Y142.901 E19.16867
G1 X162.232 Y142.906 E19.17845
G1 X159.313 Y142.912 E19.27553
G1 X154.465 Y142.899 E19.43678
G1 X69.952 Y142.899 E22.24769
G1 X65.459 Y142.913 E22.39713
G1 X62.626 Y142.905 E22.49136
G1 X62.271 Y142.898 E22.50317
G1 X62.106 Y142.892 E22.50866
G1 X61.188 Y142.819 E22.53929
G1 X60.28 Y142.666 E22.56991
G1 X59.389 Y142.435 E22.60053
G1 X58.515 Y142.125 E22.63137
G1 X58.253 Y142.019 E22.64077
G1 X57.929 Y141.881 E22.65248
G1 X57.733 Y141.794 E22.65962
G1 X56.908 Y141.385 E22.69024
G1 X56.122 Y140.905 E22.72088
G1 X55.381 Y140.359 E22.75149
G1 X54.69 Y139.751 E22.7821
G1 X54.252 Y139.305 E22.80289
G1 X53.656 Y138.604 E22.8335
G1 X53.048 Y137.737 E22.86872
G1 X52.858 Y137.435 E22.88058
G1 X52.402 Y136.635 E22.91121
G1 X52.017 Y135.798 E22.94185
G1 X51.706 Y134.932 E22.97246
G1 X51.419 Y133.783 E23.01185
G1 X51.379 Y133.574 E23.01893
G1 X51.229 Y132.491 E23.05529
G1 X51.191 Y131.89 E23.07532
G1 X51.184 Y131.688 E23.08204
G1 X51.178 Y131.351 E23.09325
G1 X51.17 Y128.434 E23.19027
G1 X51.184 Y123.623 E23.35029
G1 X51.184 Y85.673 E24.61251
G1 X51.169 Y81.344 E24.75649
G1 X51.175 Y79.148 E24.82953
G1 X51.187 Y78.408 E24.85415
G1 X51.25 Y77.417 E24.88718
G1 X51.289 Y77.066 E24.89892
G1 X51.43 Y76.157 E24.92952
G1 X51.65 Y75.263 E24.96014
G1 X51.946 Y74.391 E24.99077
G1 X52.317 Y73.548 E25.0214
G1 X52.681 Y72.874 E25.04688
G1 X52.847 Y72.591 E25.05779
G1 X53.347 Y71.818 E25.08841
G1 X53.912 Y71.091 E25.11903
G1 X54.538 Y70.416 E25.14965
G1 X55.22 Y69.798 E25.18026
G0 F9000 X55.529 Y70.062
G1 F2100 X56.408 Y69.417 E25.21653
G1 X56.616 Y69.281 E25.22479
G1 X57.393 Y68.821 E25.25482
G1 X58.399 Y68.352 E25.29174
G1 X58.698 Y68.232 E25.30246
G1 X59.28 Y68.018 E25.32308
G1 X60.149 Y67.771 E25.35313
G1 X61.036 Y67.601 E25.38317
G1 X61.935 Y67.511 E25.41322
G1 X62.387 Y67.496 E25.42826
G1 X63.008 Y67.49 E25.44892
G1 X63.4 Y67.493 E25.46195
G1 X65.686 Y67.488 E25.53799
G1 X70.534 Y67.501 E25.69923
G1 X155.049 Y67.501 E28.51021
G1 X159.539 Y67.487 E28.65955
G1 X161.74 Y67.493 E28.73276
G1 X162.516 Y67.5 E28.75857
G1 X162.682 Y67.504 E28.76409
G1 X163.583 Y67.566 E28.79413
G1 X164.498 Y67.712 E28.82495
G1 X164.779 Y67.77 E28.83449
G1 X165.71 Y68.008 E28.86645
G1 X166.561 Y68.309 E28.89648
G1 X167.383 Y68.684 E28.92653
G1 X167.973 Y69.011 E28.94896
G1 X168.229 Y69.164 E28.95888
G1 X168.983 Y69.661 E28.98892
G1 X169.69 Y70.223 E29.01896
G1 X170.344 Y70.845 E29.04898
G1 X170.941 Y71.523 E29.07902
G1 X171.605 Y72.448 E29.11689
G1 X171.734 Y72.651 E29.12489
G1 X172.001 Y73.096 E29.14215
G1 X172.414 Y73.9 E29.17222
G1 X172.754 Y74.736 E29.20223
G1 X173.074 Y75.821 E29.23986
G1 X173.146 Y76.127 E29.25031
G1 X173.314 Y77.014 E29.28034
G1 X173.413 Y78.167 E29.31883
G1 X173.42 Y78.408 E29.32685
G1 X173.424 Y78.682 E29.33596
G1 X173.43 Y81.565 E29.43185
G1 X173.416 Y86.376 E29.59187
G1 X173.416 Y124.327 E30.85412
G1 X173.431 Y128.656 E30.99811
G1 X173.425 Y130.823 E31.07018
G1 X173.421 Y131.414 E31.08984
G1 X173.414 Y131.754 E31.10115
G1 X173.353 Y132.655 E31.13119
G1 X173.206 Y133.582 E31.1624
G1 X173.144 Y133.882 E31.17259
G1 X172.922 Y134.758 E31.20265
G1 X172.624 Y135.61 E31.23267
G1 X172.251 Y136.433 E31.26272
G1 X171.901 Y137.066 E31.28678
G1 X171.745 Y137.326 E31.29687
G1 X171.247 Y138.079 E31.32689
G1 X170.684 Y138.785 E31.35693
G1 X170.06 Y139.438 E31.38697
G1 X169.382 Y140.034 E31.41699
G1 X168.82 Y140.454 E31.44033
G1 X168.761 Y140.495 E31.44272
G1 X168.188 Y140.865 E31.4654
G1 X168.013 Y140.97 E31.47219
G1 X167.219 Y141.4 E31.50222
G1 X166.39 Y141.758 E31.53226
G1 X165.532 Y142.042 E31.56232
G1 X165.093 Y142.155 E31.57739
G1 X164.773 Y142.23 E31.58832
G1 X163.885 Y142.397 E31.61838
G1 X162.749 Y142.494 E31.6563
G1 X162.514 Y142.501 E31.66412
G1 X162.231 Y142.506 E31.67353
G1 X159.314 Y142.512 E31.77055
G1 X154.466 Y142.499 E31.9318
G1 X69.951 Y142.499 E34.74278
G1 X65.46 Y142.513 E34.89215
G1 X62.627 Y142.505 E34.98638
G1 X62.285 Y142.498 E34.99775
G1 X62.12 Y142.492 E35.00325
G1 X61.22 Y142.42 E35.03328
G1 X60.33 Y142.267 E35.06331
G1 X59.457 Y142.037 E35.09334
G1 X58.666 Y141.754 E35.12128
G1 X58.404 Y141.648 E35.13068
G1 X58.091 Y141.516 E35.14198
G1 X57.895 Y141.429 E35.14911
G1 X57.086 Y141.026 E35.17917
G1 X56.317 Y140.554 E35.20918
G1 X55.592 Y140.015 E35.23923
G1 X54.918 Y139.414 E35.26927
G1 X54.546 Y139.033 E35.28698
G1 X53.961 Y138.344 E35.31704
G1 X53.387 Y137.524 E35.35033
G1 X53.197 Y137.222 E35.3622
G1 X52.75 Y136.437 E35.39224
G1 X52.374 Y135.615 E35.42231
G1 X52.073 Y134.764 E35.45233
G1 X51.812 Y133.707 E35.48854
G1 X51.772 Y133.498 E35.49562
G1 X51.628 Y132.457 E35.53057
G1 X51.591 Y131.876 E35.54994
G1 X51.584 Y131.674 E35.55666
G1 X51.578 Y131.35 E35.56744
G1 X51.57 Y128.435 E35.66439
G1 X51.584 Y123.624 E35.8244
G1 X51.584 Y85.673 E37.08666
G1 X51.569 Y81.345 E37.23061
G1 X51.576 Y79.004 E37.30847
G1 X51.586 Y78.415 E37.32807
G1 X51.647 Y77.462 E37.35983
G1 X51.686 Y77.111 E37.37157
G1 X51.826 Y76.218 E37.40164
G1 X52.044 Y75.342 E37.43166
G1 X52.338 Y74.488 E37.4617
G1 X52.707 Y73.664 E37.49173
G1 X53.026 Y73.076 E37.51398
G1 X53.192 Y72.793 E37.52489
G1 X53.683 Y72.035 E37.55493
G1 X54.239 Y71.324 E37.58495
G1 X54.856 Y70.664 E37.615
G1 X55.529 Y70.062 E37.64503
G1 F2700 E32.64503
;MESH:v8_Bottom.stl
G0 F9000 X67.139 Y104.309
G0 X66.745 Y102.905
G0 X68.261 Y103.295
G0 X68.877 Y103.628
G0 X69.376 Y104.143
G0 X69.7 Y104.786
G0 X69.811 Y105.498
G0 X69.706 Y106.187
G0 X69.422 Y106.768
G0 X68.58 Y107.732
;TYPE:WALL-INNER
G1 F2700 E37.64503
G1 F2100 X68.649 Y107.708 E37.64746
G1 X68.991 Y107.483 E37.66108
G1 X69.28 Y107.226 E37.67394
G1 X69.522 Y106.926 E37.68676
G1 X69.718 Y106.595 E37.69956
G1 X69.859 Y106.235 E37.71242
G1 X69.944 Y105.862 E37.72514
G1 X69.971 Y105.498 E37.73728
G1 X69.941 Y105.113 E37.75013
G1 X69.853 Y104.737 E37.76297
G1 X69.708 Y104.379 E37.77582
G1 X69.508 Y104.05 E37.78862
G1 X69.263 Y103.754 E37.8014
G1 X68.973 Y103.498 E37.81427
G1 X68.649 Y103.292 E37.82704
G1 X68.315 Y103.143 E37.8392
G1 X67.944 Y103.041 E37.852
G1 X67.56 Y102.998 E37.86485
G1 X67.174 Y103.014 E37.8777
G1 X66.797 Y103.089 E37.89048
G1 X66.434 Y103.221 E37.90333
G1 X66.096 Y103.407 E37.91616
G1 X65.791 Y103.644 E37.92901
G1 X65.54 Y103.907 E37.9411
G1 X65.364 Y104.156 E37.95124
G1 X65.327 Y104.2 E37.95316
G1 X65.192 Y104.479 E37.96346
G1 X65.158 Y104.532 E37.96556
G1 X65.032 Y104.935 E37.9796
G1 X64.974 Y105.317 E37.99245
G1 X64.976 Y105.704 E38.00533
G1 X65.038 Y106.084 E38.01813
G1 X65.158 Y106.449 E38.03091
G1 X65.329 Y106.793 E38.04369
G1 X65.541 Y107.089 E38.0558
G1 X65.807 Y107.369 E38.06864
G1 X66.115 Y107.601 E38.08147
G1 X66.454 Y107.785 E38.0943
G1 X66.819 Y107.913 E38.10716
G1 X67.198 Y107.985 E38.11999
G1 X67.584 Y107.996 E38.13284
G1 X67.963 Y107.949 E38.14554
G1 X68.317 Y107.851 E38.15776
G1 X68.58 Y107.732 E38.16736
G0 F9000 X68.469 Y107.347
;TYPE:WALL-OUTER
G1 F2100 X68.747 Y107.165 E38.17841
G1 X68.989 Y106.949 E38.1892
G1 X69.193 Y106.697 E38.19998
G1 X69.357 Y106.419 E38.21072
G1 X69.476 Y106.117 E38.22151
G1 X69.547 Y105.803 E38.23222
G1 X69.57 Y105.498 E38.24239
G1 X69.545 Y105.174 E38.2532
G1 X69.471 Y104.859 E38.26396
G1 X69.349 Y104.559 E38.27473
G1 X69.181 Y104.282 E38.28551
G1 X68.975 Y104.033 E38.29626
G1 X68.732 Y103.819 E38.30703
G1 X68.459 Y103.645 E38.3178
G1 X68.18 Y103.521 E38.32795
G1 X67.868 Y103.435 E38.33871
G1 X67.546 Y103.399 E38.34949
G1 X67.221 Y103.412 E38.36031
G1 X66.905 Y103.475 E38.37103
G1 X66.6 Y103.586 E38.38182
G1 X66.316 Y103.742 E38.3926
G1 X66.06 Y103.941 E38.40338
G1 X65.85 Y104.162 E38.41352
G1 X65.686 Y104.394 E38.42297
G1 X65.666 Y104.418 E38.42401
G1 X65.54 Y104.678 E38.43362
G1 X65.523 Y104.704 E38.43465
G1 X65.423 Y105.025 E38.44584
G1 X65.374 Y105.346 E38.45664
G1 X65.376 Y105.67 E38.46741
G1 X65.428 Y105.989 E38.47816
G1 X65.529 Y106.297 E38.48894
G1 X65.673 Y106.586 E38.49968
G1 X65.85 Y106.834 E38.50982
G1 X66.074 Y107.069 E38.52062
G1 X66.332 Y107.264 E38.53137
G1 X66.617 Y107.418 E38.54215
G1 X66.923 Y107.526 E38.55294
G1 X67.241 Y107.586 E38.5637
G1 X67.565 Y107.595 E38.57448
G1 X67.885 Y107.556 E38.58521
G1 X68.18 Y107.474 E38.59539
G1 X68.43 Y107.361 E38.60451
G1 X68.469 Y107.347 E38.60589
G0 F9000 X68.664 Y107.74
G1 F2700 E33.60589
G0 F9000 X70.041 Y106.292
G0 X68.648 Y105.86
G0 X111.883 Y91.489
G0 X111.199 Y92.78
G0 X112.765 Y92.888
;TYPE:WALL-INNER
G1 F2700 E38.60589
G1 F2100 X113.143 Y92.813 E38.61871
G1 X113.505 Y92.682 E38.63151
G1 X113.844 Y92.495 E38.64439
G1 X114.147 Y92.26 E38.65714
G1 X114.4 Y91.995 E38.66933
G1 X114.575 Y91.747 E38.67943
G1 X114.611 Y91.704 E38.68129
G1 X114.754 Y91.411 E38.69213
G1 X114.785 Y91.361 E38.69409
G1 X114.907 Y90.967 E38.70781
G1 X114.965 Y90.586 E38.72063
G1 X114.963 Y90.199 E38.7335
G1 X114.901 Y89.821 E38.74624
G1 X114.791 Y89.473 E38.75838
G1 X114.62 Y89.129 E38.77116
G1 X114.4 Y88.814 E38.78394
G1 X114.131 Y88.535 E38.79683
G1 X113.825 Y88.301 E38.80964
G1 X113.485 Y88.118 E38.82248
G1 X113.121 Y87.989 E38.83532
G1 X112.741 Y87.918 E38.84818
G1 X112.357 Y87.906 E38.86096
