;FLAVOR:Marlin
;TIME:3216
;Filament used: 3.5915m
;Layer height: 0.2
;MINX:75.627
;MINY:93.406
;MINZ:0.2
;MAXX:142.299
;MAXY:131.594
;MAXZ:48
;POSTPROCESSED
;Generated with Cura_SteamEngine 4.13.1
;
;

M82 ;absolute extrusion mode
; Ender 3 Custom Start G-code
M117 Getting the bed up to temp!
M140 S50 ; Set Heat Bed temperature
M190 S50 ; Wait for Heat Bed temperature
M117 Pre-heating the extruder!
M104 S160; start warming extruder to 160
G28 ; Home all axes
M117 Auto bed-level GO!
G29 ; Auto bed-level (BL-Touch)
G92 E0 ; Reset Extruder
M117 Getting the extruder up to temp!
M104 S210 ; Set Extruder temperature
M109 S210 ; Wait for Extruder temperature
G1 Z2.0 F3000 ; move z up little to prevent scratching of surface
G1 X0.1 Y20 Z0.3 F5000.0 ; move to start-line position
M117 LET THE PURGE BEGIN!
G1 X0.1 Y200.0 Z0.3 F1500.0 E15 ; draw 1st line
G1 X0.4 Y200.0 Z0.3 F5000.0 ; move to side a little
G1 X0.4 Y20 Z0.3 F1500.0 E30 ; draw 2nd line
G92 E0 ; reset extruder
G1 Z1.0 F3000 ; move z up little to prevent scratching of surface
G1 X5 Y20 Z0.3 F5000.0 ; Move over to prevent blob squish
M117 Autobots! Roll Out!
; End of custom start GCode
G92 E0
G92 E0
G1 F2100 E-1.5
;LAYER_COUNT:240
;LAYER:0
M107
G0 F6000 X80.643 Y97.457 Z0.2
;TYPE:SKIRT
G1 F2100 E0
G1 F1200 X81.409 Y96.917 E0.03117
G1 X81.841 Y96.654 E0.04799
G1 X82.093 Y96.508 E0.05768
G1 X82.923 Y96.073 E0.08885
G1 X83.546 Y95.803 E0.11143
G1 X83.765 Y95.716 E0.11927
G1 X84.65 Y95.407 E0.15045
G1 X85.107 Y95.28 E0.16622
G1 X85.303 Y95.23 E0.17295
G1 X86.439 Y95.004 E0.21147
G1 X86.604 Y94.98 E0.21702
G1 X87.368 Y94.896 E0.24258
G1 X88.27 Y94.829 E0.27267
G1 X110.486 Y93.479 E1.01294
G1 X111.379 Y93.436 E1.04267
G1 X111.654 Y93.426 E1.05183
G1 X112.442 Y93.408 E1.07804
G1 X112.865 Y93.406 E1.09211
G1 X113.286 Y93.417 E1.10612
G1 X113.782 Y93.438 E1.12263
G1 X114.105 Y93.456 E1.13339
G1 X114.718 Y93.5 E1.15383
G1 X115.121 Y93.537 E1.16729
G1 X115.58 Y93.587 E1.18265
G1 X115.9 Y93.626 E1.19337
G1 X116.311 Y93.683 E1.20717
G1 X116.645 Y93.735 E1.21841
G1 X117.262 Y93.84 E1.23923
G1 X117.676 Y93.918 E1.25324
G1 X117.981 Y93.982 E1.26361
G1 X118.303 Y94.055 E1.27459
G1 X118.535 Y94.111 E1.28253
G1 X118.827 Y94.186 E1.29255
G1 X119.821 Y94.455 E1.3268
G1 X120.28 Y94.59 E1.34272
G1 X120.667 Y94.713 E1.35622
G1 X120.934 Y94.802 E1.36558
G1 X121.453 Y94.984 E1.38388
G1 X121.83 Y95.126 E1.39727
G1 X122.229 Y95.282 E1.41152
G1 X122.725 Y95.49 E1.42941
G1 X123.374 Y95.781 E1.45307
G1 X123.645 Y95.907 E1.46301
G1 X124.245 Y96.198 E1.48519
G1 X124.409 Y96.281 E1.4913
G1 X124.693 Y96.43 E1.50197
G1 X125.017 Y96.606 E1.51423
G1 X125.325 Y96.78 E1.526
G1 X125.95 Y97.146 E1.55009
G1 X126.297 Y97.358 E1.56361
G1 X126.506 Y97.491 E1.57185
G1 X126.89 Y97.743 E1.58713
G1 X127.361 Y98.065 E1.6061
G1 X128.131 Y98.622 E1.63771
G1 X128.482 Y98.887 E1.65234
G1 X128.641 Y99.012 E1.65907
G1 X128.953 Y99.266 E1.67245
G1 X129.293 Y99.554 E1.68727
G1 X129.476 Y99.713 E1.69533
G1 X129.957 Y100.139 E1.7167
G1 X130.218 Y100.378 E1.72847
G1 X130.616 Y100.754 E1.74668
G1 X131.079 Y101.218 E1.76849
G1 X131.561 Y101.731 E1.7919
G1 X131.817 Y102.013 E1.80457
G1 X132.242 Y102.498 E1.82601
G1 X132.431 Y102.719 E1.83569
G1 X132.691 Y103.032 E1.84922
G1 X133.013 Y103.44 E1.86651
G1 X133.371 Y103.915 E1.88629
G1 X133.558 Y104.171 E1.89683
G1 X133.729 Y104.412 E1.90666
G1 X133.915 Y104.682 E1.91757
G1 X134.132 Y105.008 E1.93059
G1 X134.324 Y105.306 E1.94238
G1 X134.745 Y105.985 E1.96896
G1 X135.055 Y106.519 E1.98949
G1 X135.134 Y106.664 E1.99498
G1 X135.548 Y107.506 E2.02619
G1 X135.951 Y108.573 E2.06413
G1 X136.016 Y108.776 E2.07122
G1 X136.282 Y109.764 E2.10525
G1 X136.345 Y110.05 E2.11499
G1 X136.508 Y110.973 E2.14616
G1 X136.591 Y111.908 E2.17738
G1 X136.595 Y112.848 E2.20865
G1 X136.584 Y113.128 E2.21797
G1 X136.453 Y114.441 E2.26186
G1 X136.444 Y114.497 E2.26374
G1 X136.255 Y115.416 E2.29495
G1 X136.126 Y115.889 E2.31125
G1 X136.054 Y116.131 E2.31965
G1 X135.749 Y117.018 E2.35085
G1 X135.467 Y117.671 E2.37451
G1 X135.374 Y117.869 E2.38178
G1 X134.81 Y118.918 E2.4214
G1 X134.471 Y119.474 E2.44305
G1 X134.216 Y119.872 E2.45878
G1 X134.021 Y120.162 E2.4704
G1 X133.685 Y120.651 E2.49013
G1 X133.486 Y120.931 E2.50156
G1 X133.173 Y121.355 E2.51909
G1 X133.069 Y121.492 E2.52481
G1 X132.853 Y121.767 E2.53644
G1 X132.358 Y122.375 E2.56251
G1 X132.134 Y122.639 E2.57403
G1 X131.903 Y122.903 E2.5857
G1 X131.718 Y123.107 E2.59486
G1 X131.48 Y123.363 E2.60648
G1 X131.08 Y123.78 E2.6257
G1 X130.671 Y124.194 E2.64506
G1 X130.245 Y124.602 E2.66468
G1 X129.695 Y125.102 E2.6894
G1 X129.408 Y125.354 E2.7021
G1 X129.08 Y125.632 E2.7164
G1 X128.683 Y125.953 E2.73338
G1 X128.177 Y126.343 E2.75463
G1 X127.93 Y126.528 E2.7649
G1 X127.56 Y126.797 E2.78011
G1 X127.266 Y127.004 E2.79207
G1 X126.716 Y127.377 E2.81417
G1 X126.233 Y127.686 E2.83324
G1 X125.755 Y127.975 E2.85182
G1 X125.522 Y128.113 E2.86083
G1 X125.198 Y128.296 E2.87321
G1 X124.69 Y128.574 E2.89247
G1 X124.392 Y128.732 E2.90368
G1 X124.063 Y128.897 E2.91593
G1 X123.613 Y129.114 E2.93254
G1 X123.259 Y129.277 E2.9455
G1 X122.79 Y129.483 E2.96254
G1 X122.462 Y129.621 E2.97438
G1 X121.981 Y129.814 E2.99162
G1 X121.693 Y129.925 E3.00188
G1 X121.151 Y130.125 E3.0211
G1 X120.706 Y130.278 E3.03675
G1 X120.186 Y130.445 E3.05491
G1 X119.748 Y130.576 E3.07012
G1 X119.313 Y130.696 E3.08513
G1 X118.928 Y130.795 E3.09835
G1 X118.296 Y130.945 E3.11995
G1 X117.999 Y131.011 E3.13007
G1 X117.562 Y131.102 E3.14492
G1 X117.173 Y131.176 E3.15809
G1 X116.67 Y131.262 E3.17506
G1 X116.226 Y131.331 E3.19001
G1 X115.988 Y131.364 E3.198
G1 X115.629 Y131.41 E3.21004
G1 X115.354 Y131.441 E3.21924
G1 X114.867 Y131.491 E3.23552
G1 X114.371 Y131.531 E3.25207
G1 X113.703 Y131.568 E3.27433
G1 X113.221 Y131.584 E3.29037
G1 X112.607 Y131.594 E3.31079
G1 X112.085 Y131.59 E3.32815
G1 X111.284 Y131.565 E3.35481
G1 X110.973 Y131.551 E3.36516
G1 X88.236 Y130.169 E4.12279
G1 X87.637 Y130.124 E4.14277
G1 X87.27 Y130.09 E4.15503
G1 X86.805 Y130.039 E4.17059
G1 X85.878 Y129.898 E4.20178
G1 X84.987 Y129.683 E4.23226
G1 X84.717 Y129.606 E4.2416
G1 X83.827 Y129.311 E4.27278
G1 X83.224 Y129.061 E4.2945
G1 X83.026 Y128.972 E4.30172
G1 X82.188 Y128.551 E4.33291
G1 X81.782 Y128.314 E4.34854
G1 X81.593 Y128.198 E4.35592
G1 X80.815 Y127.674 E4.38712
G1 X80.31 Y127.278 E4.40846
G1 X80.143 Y127.139 E4.41569
G1 X79.448 Y126.508 E4.44691
G1 X78.883 Y125.906 E4.47437
G1 X78.668 Y125.659 E4.48526
G1 X78.083 Y124.926 E4.51645
G1 X77.516 Y124.068 E4.55066
G1 X77.398 Y123.87 E4.55833
G1 X76.952 Y123.045 E4.58952
G1 X76.634 Y122.324 E4.61573
G1 X76.502 Y121.994 E4.62755
G1 X76.191 Y121.109 E4.65875
G1 X75.899 Y119.915 E4.69963
G1 X75.843 Y119.613 E4.70985
G1 X75.712 Y118.684 E4.74105
G1 X75.671 Y118.112 E4.76013
G1 X75.652 Y117.636 E4.77597
G1 X75.629 Y116.514 E4.8133
G1 X75.627 Y116.288 E4.82081
G1 X75.629 Y108.119 E5.09252
G1 X75.637 Y107.554 E5.11131
G1 X75.647 Y107.212 E5.12269
G1 X75.659 Y106.947 E5.13151
G1 X75.773 Y105.791 E5.17015
G1 X75.806 Y105.574 E5.17745
G1 X76.043 Y104.429 E5.21634
G1 X76.098 Y104.22 E5.22353
G1 X76.463 Y103.087 E5.26312
G1 X76.525 Y102.925 E5.26889
G1 X77.099 Y101.668 E5.31485
G1 X77.206 Y101.468 E5.32239
G1 X77.683 Y100.661 E5.35357
G1 X78.043 Y100.14 E5.37463
G1 X78.207 Y99.917 E5.38384
G1 X78.795 Y99.186 E5.41504
G1 X79.639 Y98.323 E5.45519
G1 X79.925 Y98.061 E5.46809
G1 X80.643 Y97.457 E5.4993
G0 F6000 X80.9 Y97.764
G1 F1200 X82.041 Y97 E5.54497
G1 X82.293 Y96.854 E5.55466
G1 X83.109 Y96.428 E5.58527
G1 X83.694 Y96.175 E5.60647
G1 X83.913 Y96.088 E5.61431
G1 X85.206 Y95.668 E5.65953
G1 X85.402 Y95.618 E5.66625
G1 X86.496 Y95.399 E5.70336
G1 X86.661 Y95.375 E5.70891
G1 X87.398 Y95.294 E5.73357
G1 X88.148 Y95.238 E5.75858
G1 X110.646 Y93.871 E6.50825
G1 X111.398 Y93.835 E6.53329
G1 X111.663 Y93.826 E6.54211
G1 X112.451 Y93.808 E6.56832
G1 X112.859 Y93.806 E6.5819
G1 X113.269 Y93.816 E6.59554
G1 X113.765 Y93.837 E6.61205
G1 X114.076 Y93.855 E6.62241
G1 X114.689 Y93.899 E6.64285
G1 X115.078 Y93.934 E6.65584
G1 X115.537 Y93.984 E6.6712
G1 X115.845 Y94.022 E6.68152
G1 X116.256 Y94.079 E6.69532
G1 X116.578 Y94.129 E6.70616
G1 X117.195 Y94.234 E6.72697
G1 X117.594 Y94.31 E6.74048
G1 X117.899 Y94.374 E6.75085
G1 X118.209 Y94.444 E6.76142
G1 X118.441 Y94.5 E6.76936
G1 X118.723 Y94.572 E6.77904
G1 X119.717 Y94.841 E6.81329
G1 X120.159 Y94.971 E6.82861
G1 X120.546 Y95.094 E6.84212
G1 X120.804 Y95.18 E6.85116
G1 X121.314 Y95.359 E6.86914
G1 X121.685 Y95.499 E6.88233
G1 X122.084 Y95.655 E6.89658
G1 X122.561 Y95.855 E6.91378
G1 X123.21 Y96.146 E6.93744
G1 X123.471 Y96.267 E6.94701
G1 X124.065 Y96.555 E6.96896
G1 X124.229 Y96.638 E6.97507
G1 X124.502 Y96.782 E6.98534
G1 X124.826 Y96.958 E6.9976
G1 X125.122 Y97.125 E7.00891
G1 X125.747 Y97.491 E7.033
G1 X126.082 Y97.695 E7.04604
G1 X126.291 Y97.828 E7.05428
G1 X126.672 Y98.079 E7.06946
G1 X127.127 Y98.39 E7.08779
G1 X127.897 Y98.947 E7.1194
G1 X128.235 Y99.202 E7.13348
G1 X128.394 Y99.327 E7.14021
G1 X128.694 Y99.572 E7.15309
G1 X129.034 Y99.86 E7.16791
G1 X129.211 Y100.013 E7.17569
G1 X129.692 Y100.439 E7.19706
G1 X129.943 Y100.669 E7.20838
G1 X130.341 Y101.045 E7.22659
G1 X130.787 Y101.492 E7.2476
G1 X131.269 Y102.005 E7.27101
G1 X131.516 Y102.277 E7.28323
G1 X131.941 Y102.762 E7.30468
G1 X132.123 Y102.975 E7.314
G1 X132.383 Y103.288 E7.32753
G1 X132.694 Y103.681 E7.3442
G1 X133.052 Y104.156 E7.36398
G1 X133.232 Y104.402 E7.37412
G1 X133.403 Y104.643 E7.38395
G1 X133.582 Y104.903 E7.39445
G1 X133.799 Y105.229 E7.40747
G1 X133.984 Y105.517 E7.41886
G1 X134.405 Y106.196 E7.44543
G1 X134.704 Y106.711 E7.46524
G1 X134.783 Y106.856 E7.47073
G1 X135.188 Y107.682 E7.50133
G1 X135.57 Y108.695 E7.53733
G1 X135.635 Y108.898 E7.54442
G1 X135.892 Y109.85 E7.57722
G1 X135.955 Y110.136 E7.58696
G1 X136.114 Y111.043 E7.61759
G1 X136.193 Y111.96 E7.6482
G1 X136.195 Y112.832 E7.6772
G1 X136.184 Y113.112 E7.68652
G1 X136.058 Y114.378 E7.72884
G1 X136.049 Y114.434 E7.73073
G1 X135.743 Y115.775 E7.77647
G1 X135.671 Y116.017 E7.78487
G1 X135.37 Y116.887 E7.81549
G1 X135.105 Y117.5 E7.8377
G1 X135.012 Y117.698 E7.84498
G1 X134.468 Y118.71 E7.88319
G1 X134.129 Y119.266 E7.90485
G1 X133.884 Y119.65 E7.92
G1 X133.691 Y119.936 E7.93148
G1 X133.355 Y120.425 E7.95121
G1 X133.164 Y120.694 E7.96218
G1 X132.855 Y121.113 E7.9795
G1 X132.751 Y121.25 E7.98522
G1 X132.543 Y121.516 E7.99645
G1 X132.205 Y121.933 E8.01431
G1 X132.053 Y122.116 E8.02222
G1 X131.829 Y122.38 E8.03373
G1 X131.603 Y122.638 E8.04514
G1 X131.425 Y122.834 E8.05395
G1 X131.187 Y123.09 E8.06557
G1 X130.796 Y123.499 E8.08439
G1 X130.387 Y123.913 E8.10375
G1 X129.976 Y124.306 E8.12266
G1 X129.426 Y124.806 E8.14738
G1 X129.15 Y125.049 E8.15961
G1 X128.822 Y125.327 E8.17392
G1 X128.439 Y125.637 E8.1903
G1 X127.933 Y126.027 E8.21155
G1 X127.695 Y126.205 E8.22144
G1 X127.325 Y126.474 E8.23665
G1 X127.042 Y126.673 E8.24816
G1 X126.492 Y127.046 E8.27026
G1 X126.026 Y127.344 E8.28866
G1 X125.548 Y127.633 E8.30724
G1 X125.176 Y127.849 E8.32154
G1 X125.006 Y127.945 E8.32804
G1 X124.498 Y128.223 E8.3473
G1 X124.206 Y128.377 E8.35828
G1 X123.889 Y128.537 E8.37009
G1 X123.439 Y128.754 E8.38671
G1 X123.098 Y128.911 E8.39919
G1 X122.629 Y129.117 E8.41623
G1 X122.313 Y129.25 E8.42763
G1 X121.832 Y129.443 E8.44487
G1 X121.555 Y129.55 E8.45475
G1 X121.013 Y129.75 E8.47396
G1 X120.584 Y129.897 E8.48904
G1 X120.064 Y130.064 E8.50721
G1 X119.642 Y130.19 E8.52186
G1 X119.207 Y130.31 E8.53687
G1 X118.836 Y130.405 E8.5496
G1 X118.204 Y130.555 E8.57121
G1 X117.917 Y130.619 E8.58099
G1 X117.48 Y130.71 E8.59584
G1 X117.105 Y130.781 E8.60853
G1 X116.393 Y130.901 E8.63254
G1 X115.937 Y130.967 E8.64787
G1 X115.578 Y131.013 E8.65991
G1 X115.314 Y131.044 E8.66875
G1 X114.827 Y131.094 E8.68503
G1 X114.348 Y131.132 E8.70101
G1 X113.687 Y131.168 E8.72303
G1 X113.215 Y131.184 E8.73874
G1 X112.601 Y131.194 E8.75916
G1 X112.097 Y131.19 E8.77593
G1 X111.296 Y131.165 E8.80258
G1 X110.997 Y131.151 E8.81254
G1 X88.102 Y129.759 E9.57543
G1 X87.667 Y129.726 E9.58994
G1 X87.313 Y129.693 E9.60177
G1 X86.848 Y129.642 E9.61733
G1 X85.938 Y129.502 E9.64795
G1 X85.097 Y129.299 E9.67672
G1 X84.827 Y129.222 E9.68606
G1 X83.953 Y128.931 E9.7167
G1 X83.388 Y128.696 E9.73705
G1 X83.19 Y128.607 E9.74427
G1 X81.991 Y127.973 E9.78939
G1 X81.802 Y127.857 E9.79676
G1 X81.039 Y127.342 E9.82738
G1 X80.566 Y126.97 E9.84739
G1 X80.399 Y126.831 E9.85462
G1 X79.717 Y126.212 E9.88525
G1 X79.185 Y125.644 E9.91114
G1 X78.97 Y125.397 E9.92203
G1 X78.396 Y124.676 E9.95268
G1 X77.859 Y123.864 E9.98506
G1 X77.741 Y123.666 E9.99273
G1 X77.305 Y122.855 E10.02335
G1 X77.005 Y122.176 E10.04804
G1 X76.873 Y121.846 E10.05986
G1 X76.569 Y120.977 E10.09048
G1 X76.293 Y119.842 E10.12933
G1 X76.237 Y119.54 E10.13955
G1 X76.108 Y118.628 E10.17018
G1 X76.07 Y118.093 E10.18802
G1 X76.052 Y117.628 E10.2035
G1 X76.029 Y116.506 E10.24083
G1 X76.027 Y116.288 E10.24808
G1 X76.029 Y108.125 E10.51958
G1 X76.037 Y107.56 E10.53837
G1 X76.047 Y107.23 E10.54935
G1 X76.059 Y106.965 E10.55818
G1 X76.168 Y105.851 E10.59541
G1 X76.201 Y105.634 E10.60271
G1 X76.43 Y104.53 E10.64021
G1 X76.485 Y104.321 E10.6474
G1 X76.836 Y103.23 E10.68551
G1 X76.898 Y103.068 E10.69128
G1 X77.452 Y101.857 E10.73558
G1 X77.559 Y101.657 E10.74312
G1 X78.028 Y100.864 E10.77376
G1 X78.366 Y100.377 E10.79348
G1 X78.53 Y100.154 E10.80269
G1 X79.107 Y99.437 E10.8333
G1 X79.909 Y98.618 E10.87142
G1 X80.195 Y98.356 E10.88432
G1 X80.9 Y97.764 E10.91494
G0 F6000 X81.157 Y98.071
G1 F1200 X82.242 Y97.346 E10.95834
G1 X82.494 Y97.2 E10.96803
G1 X83.294 Y96.783 E10.99804
G1 X83.841 Y96.547 E11.01785
G1 X84.06 Y96.46 E11.02569
G1 X85.305 Y96.056 E11.06922
G1 X85.501 Y96.006 E11.07595
G1 X86.554 Y95.795 E11.11167
G1 X86.719 Y95.771 E11.11722
G1 X87.428 Y95.693 E11.14094
G1 X88.318 Y95.628 E11.17062
G1 X110.665 Y94.271 E11.91525
G1 X111.417 Y94.235 E11.94029
G1 X111.672 Y94.226 E11.94878
G1 X112.46 Y94.208 E11.975
G1 X112.852 Y94.206 E11.98803
G1 X113.252 Y94.216 E12.00134
G1 X113.748 Y94.237 E12.01785
G1 X114.047 Y94.254 E12.02781
G1 X114.66 Y94.298 E12.04826
G1 X115.035 Y94.332 E12.06078
G1 X115.494 Y94.382 E12.07614
G1 X115.79 Y94.419 E12.08606
G1 X116.201 Y94.476 E12.09986
G1 X116.511 Y94.524 E12.11029
G1 X117.128 Y94.629 E12.13111
G1 X117.512 Y94.701 E12.1441
G1 X117.817 Y94.765 E12.15447
G1 X118.115 Y94.833 E12.16463
G1 X118.347 Y94.889 E12.17257
G1 X118.619 Y94.958 E12.18191
G1 X119.613 Y95.227 E12.21616
G1 X120.038 Y95.352 E12.23089
G1 X120.425 Y95.475 E12.2444
G1 X120.673 Y95.558 E12.25309
G1 X121.174 Y95.734 E12.27076
G1 X121.539 Y95.871 E12.28372
G1 X121.938 Y96.027 E12.29797
G1 X122.397 Y96.22 E12.31453
G1 X123.046 Y96.511 E12.33819
G1 X123.298 Y96.628 E12.34743
G1 X123.884 Y96.912 E12.36909
G1 X124.048 Y96.995 E12.3752
G1 X124.311 Y97.133 E12.38508
G1 X124.635 Y97.309 E12.39734
G1 X124.92 Y97.47 E12.40823
G1 X125.545 Y97.836 E12.43232
G1 X125.867 Y98.033 E12.44488
G1 X126.299 Y98.311 E12.46196
G1 X126.455 Y98.414 E12.46818
G1 X126.892 Y98.714 E12.48581
G1 X127.662 Y99.271 E12.51742
G1 X127.988 Y99.516 E12.53098
G1 X128.147 Y99.641 E12.53771
G1 X128.436 Y99.877 E12.55012
G1 X128.776 Y100.165 E12.56494
G1 X128.946 Y100.312 E12.57241
G1 X129.427 Y100.738 E12.59378
G1 X129.669 Y100.959 E12.60468
G1 X130.067 Y101.335 E12.6229
G1 X130.496 Y101.766 E12.64312
G1 X130.978 Y102.279 E12.66653
G1 X131.215 Y102.541 E12.67828
G1 X131.64 Y103.026 E12.69973
G1 X131.815 Y103.23 E12.70867
G1 X132.075 Y103.543 E12.72221
G1 X132.375 Y103.922 E12.73828
G1 X132.733 Y104.397 E12.75807
G1 X132.906 Y104.634 E12.76782
G1 X133.077 Y104.875 E12.77765
G1 X133.249 Y105.125 E12.78775
G1 X133.466 Y105.451 E12.80077
G1 X133.644 Y105.728 E12.81172
G1 X134.065 Y106.407 E12.83829
G1 X134.353 Y106.902 E12.85734
G1 X134.432 Y107.047 E12.86283
G1 X134.828 Y107.858 E12.89285
G1 X135.189 Y108.817 E12.92693
G1 X135.254 Y109.02 E12.93402
G1 X135.501 Y109.936 E12.96558
G1 X135.564 Y110.222 E12.97532
G1 X135.719 Y111.111 E13.00533
G1 X135.795 Y112.011 E13.03537
G1 X135.795 Y112.816 E13.06215
G1 X135.784 Y113.096 E13.07147
G1 X135.663 Y114.315 E13.11221
