;FLAVOR:Marlin
;TIME:6645
;Filament used: 3.61673m
;Layer height: 0.2
;MINX:87.465
;MINY:91.432
;MINZ:0.2
;MAXX:131.981
;MAXY:135.943
;MAXZ:75.4
;POSTPROCESSED
;Generated with Cura_SteamEngine 4.12.1
;
;

M82 ;absolute extrusion mode
; Ender 3 Custom Start G-code
M117 Getting the bed up to temp!
M140 S60 ; Set Heat Bed temperature
M190 S60 ; Wait for Heat Bed temperature
M117 Pre-heating the extruder!
M104 S198.0; start warming extruder to 160
G28 ; Home all axes
M117 Auto bed-level GO!
G29 ; Auto bed-level (BL-Touch)
G92 E0 ; Reset Extruder
M117 Getting the extruder up to temp!
M104 S198.0 ; Set Extruder temperature
M109 S198.0 ; Wait for Extruder temperature
G1 Z2.0 F3000 ; move z up little to prevent scratching of surface
G1 X0.1 Y20 Z0.3 F5000.0 ; move to start-line position
M117 LET THE PURGE BEGIN!
G1 X0.1 Y200.0 Z0.3 F1500.0 E15 ; draw 1st line
G1 X0.4 Y200.0 Z0.3 F5000.0 ; move to side a little
G1 X0.4 Y20 Z0.3 F1500.0 E30 ; draw 2nd line
G92 E0 ; reset extruder
G1 Z1.0 F3000 ; move z up little to prevent scratching of surface
G1 X5 Y20 Z0.3 F5000.0 ; Move over to prevent blob squish
; SET_GCODE_OFFSET Z=+.075
M117 Autobots! Roll Out!
; End of custom start GCode
G92 E0
G92 E0
G1 F2700 E-5
;LAYER_COUNT:394
;LAYER:0
M107
G0 F9000 X96.236 Y96.24 Z0.2
;TYPE:SKIRT
G1 F2700 E0
G1 F2100 X96.92 Y95.599 E0.03118
G1 X97.657 Y95.019 E0.06237
G1 X98.44 Y94.503 E0.09356
G1 X99.265 Y94.056 E0.12477
G1 X100.124 Y93.681 E0.15594
G1 X101.254 Y93.312 E0.19548
G1 X101.796 Y93.169 E0.21412
G1 X103.629 Y92.715 E0.27693
G1 X106.117 Y92.023 E0.36282
G1 X106.278 Y91.974 E0.36842
G1 X106.548 Y91.897 E0.37776
G1 X106.834 Y91.819 E0.38762
G1 X107.748 Y91.611 E0.4188
G1 X108.677 Y91.481 E0.45
G1 X109.614 Y91.432 E0.4812
G1 X110.551 Y91.462 E0.51239
G1 X111.482 Y91.572 E0.54357
G1 X112.635 Y91.822 E0.58281
G1 X113.109 Y91.953 E0.59916
G1 X114.96 Y92.485 E0.66322
G1 X116.637 Y92.904 E0.72071
G1 X116.811 Y92.956 E0.72675
G1 X118.098 Y93.287 E0.77095
G1 X118.995 Y93.559 E0.80213
G1 X119.866 Y93.907 E0.83332
G1 X120.704 Y94.328 E0.86451
G1 X121.504 Y94.819 E0.89573
G1 X122.258 Y95.376 E0.92691
G1 X123.179 Y96.208 E0.96819
G1 X123.519 Y96.553 E0.9843
G1 X124.868 Y97.952 E1.04894
G1 X126.129 Y99.172 E1.1073
G1 X126.249 Y99.298 E1.11309
G1 X127.173 Y100.204 E1.15613
G1 X127.814 Y100.888 E1.18731
G1 X128.395 Y101.625 E1.21852
G1 X128.911 Y102.408 E1.24971
G1 X129.358 Y103.232 E1.28089
G1 X129.733 Y104.092 E1.31209
G1 X130.105 Y105.234 E1.35204
G1 X130.253 Y105.797 E1.3714
G1 X130.692 Y107.571 E1.43219
G1 X131.384 Y110.061 E1.51814
G1 X131.501 Y110.457 E1.53188
G1 X131.576 Y110.725 E1.54113
G1 X131.79 Y111.638 E1.57232
G1 X131.925 Y112.566 E1.60351
G1 X131.981 Y113.502 E1.6347
G1 X131.957 Y114.439 E1.66587
G1 X131.854 Y115.372 E1.69709
G1 X131.594 Y116.589 E1.73849
G1 X131.464 Y117.06 E1.75474
G1 X130.927 Y118.929 E1.81942
G1 X130.511 Y120.597 E1.87659
G1 X130.458 Y120.777 E1.88283
G1 X130.126 Y122.065 E1.92707
G1 X129.853 Y122.962 E1.95826
G1 X129.505 Y123.833 E1.98945
G1 X129.084 Y124.671 E2.02065
G1 X128.593 Y125.47 E2.05184
G1 X128.036 Y126.225 E2.08304
G1 X127.22 Y127.129 E2.12355
G1 X126.868 Y127.477 E2.14001
G1 X125.456 Y128.84 E2.20529
G1 X124.253 Y130.084 E2.26284
G1 X124.122 Y130.208 E2.26884
G1 X123.211 Y131.138 E2.31214
G1 X122.527 Y131.779 E2.34332
G1 X121.79 Y132.359 E2.37451
G1 X121.007 Y132.875 E2.4057
G1 X120.182 Y133.322 E2.43691
G1 X119.323 Y133.697 E2.46809
G1 X118.172 Y134.071 E2.50834
G1 X117.654 Y134.207 E2.52615
G1 X115.836 Y134.658 E2.58845
G1 X114.113 Y135.151 E2.64806
G1 X113.934 Y135.194 E2.65418
G1 X112.691 Y135.541 E2.6971
G1 X111.778 Y135.754 E2.72829
G1 X110.939 Y135.88 E2.7565
G1 X110.003 Y135.943 E2.78771
G1 X109.065 Y135.927 E2.81891
G1 X108.132 Y135.831 E2.8501
G1 X106.832 Y135.56 E2.89427
G1 X106.305 Y135.415 E2.91245
G1 X104.498 Y134.895 E2.97499
G1 X102.782 Y134.466 E3.03382
G1 X102.625 Y134.42 E3.03926
G1 X101.344 Y134.089 E3.08327
G1 X100.447 Y133.816 E3.11445
G1 X99.576 Y133.468 E3.14565
G1 X98.738 Y133.047 E3.17684
G1 X97.939 Y132.555 E3.20805
G1 X97.185 Y131.998 E3.23923
G1 X96.285 Y131.186 E3.27955
G1 X95.91 Y130.807 E3.29728
G1 X94.616 Y129.464 E3.35931
G1 X93.326 Y128.216 E3.41901
G1 X93.203 Y128.087 E3.42494
G1 X92.27 Y127.171 E3.46842
G1 X91.63 Y126.486 E3.4996
G1 X91.049 Y125.749 E3.53082
G1 X90.534 Y124.966 E3.56199
G1 X90.087 Y124.141 E3.5932
G1 X89.712 Y123.281 E3.6244
G1 X89.338 Y122.124 E3.66484
G1 X89.201 Y121.601 E3.68283
G1 X88.757 Y119.809 E3.74423
G1 X88.064 Y117.316 E3.83029
G1 X88.005 Y117.123 E3.837
G1 X87.913 Y116.802 E3.84811
G1 X87.845 Y116.55 E3.85679
G1 X87.639 Y115.635 E3.88799
G1 X87.513 Y114.705 E3.9192
G1 X87.465 Y113.769 E3.95037
G1 X87.498 Y112.831 E3.98159
G1 X87.611 Y111.9 E4.01278
G1 X87.859 Y110.765 E4.05142
G1 X87.983 Y110.319 E4.06682
G1 X88.521 Y108.446 E4.13164
G1 X88.946 Y106.748 E4.18985
G1 X89 Y106.565 E4.1962
G1 X89.324 Y105.31 E4.23931
G1 X89.597 Y104.413 E4.27049
G1 X89.945 Y103.542 E4.30169
G1 X90.366 Y102.704 E4.33288
G1 X90.858 Y101.905 E4.36409
G1 X91.415 Y101.151 E4.39527
G1 X92.233 Y100.244 E4.43589
G1 X92.662 Y99.821 E4.45593
G1 X93.972 Y98.558 E4.51646
G1 X95.201 Y97.289 E4.57521
G1 X95.299 Y97.196 E4.57971
G1 X96.236 Y96.24 E4.62423
G0 F9000 X96.522 Y96.52
G1 F2100 X97.194 Y95.892 E4.65482
G1 X97.918 Y95.323 E4.68545
G1 X98.689 Y94.82 E4.71607
G1 X99.501 Y94.386 E4.74669
G1 X100.347 Y94.023 E4.77731
G1 X101.357 Y93.699 E4.81259
G1 X101.893 Y93.558 E4.83102
G1 X103.718 Y93.105 E4.89356
G1 X106.197 Y92.416 E4.97914
G1 X106.393 Y92.357 E4.98595
G1 X106.653 Y92.283 E4.99494
G1 X106.939 Y92.205 E5.0048
G1 X107.837 Y92.001 E5.03543
G1 X108.749 Y91.876 E5.06604
G1 X109.669 Y91.831 E5.09668
G1 X110.589 Y91.866 E5.1273
G1 X111.502 Y91.981 E5.15791
G1 X112.53 Y92.208 E5.19292
G1 X112.999 Y92.337 E5.2091
G1 X114.87 Y92.875 E5.27385
G1 X116.54 Y93.292 E5.3311
G1 X116.704 Y93.341 E5.33679
G1 X117.998 Y93.674 E5.38124
G1 X118.879 Y93.942 E5.41186
G1 X119.733 Y94.286 E5.44249
G1 X120.554 Y94.702 E5.4731
G1 X121.336 Y95.188 E5.50372
G1 X122.073 Y95.74 E5.53435
G1 X122.894 Y96.489 E5.57131
G1 X123.231 Y96.831 E5.58728
G1 X124.585 Y98.235 E5.65215
G1 X125.851 Y99.46 E5.71075
G1 X125.955 Y99.57 E5.71578
G1 X126.893 Y100.489 E5.75946
G1 X127.522 Y101.162 E5.79009
G1 X128.09 Y101.886 E5.8207
G1 X128.594 Y102.657 E5.85134
G1 X129.028 Y103.469 E5.88196
G1 X129.39 Y104.315 E5.91257
G1 X129.718 Y105.337 E5.94827
G1 X129.864 Y105.893 E5.96739
G1 X130.304 Y107.669 E6.02824
G1 X130.994 Y110.156 E6.11408
G1 X131.116 Y110.564 E6.12825
G1 X131.191 Y110.832 E6.1375
G1 X131.4 Y111.729 E6.16814
G1 X131.531 Y112.64 E6.19875
G1 X131.582 Y113.559 E6.22936
G1 X131.553 Y114.48 E6.26001
G1 X131.445 Y115.394 E6.29062
G1 X131.208 Y116.483 E6.32769
G1 X131.08 Y116.95 E6.34379
G1 X130.537 Y118.839 E6.40917
G1 X130.123 Y120.5 E6.4661
G1 X130.065 Y120.695 E6.47287
G1 X129.738 Y121.965 E6.51649
G1 X129.47 Y122.845 E6.54708
G1 X129.126 Y123.7 E6.57774
G1 X128.71 Y124.521 E6.60835
G1 X128.224 Y125.302 E6.63894
G1 X127.672 Y126.039 E6.66957
G1 X126.939 Y126.845 E6.7058
G1 X126.59 Y127.189 E6.7221
G1 X125.169 Y128.56 E6.78778
G1 X123.965 Y129.806 E6.84541
G1 X123.837 Y129.928 E6.85129
G1 X122.925 Y130.858 E6.89461
G1 X122.253 Y131.486 E6.9252
G1 X121.529 Y132.055 E6.95583
G1 X120.758 Y132.558 E6.98645
G1 X119.946 Y132.992 E7.01707
G1 X119.1 Y133.355 E7.04769
G1 X118.07 Y133.684 E7.08365
G1 X117.558 Y133.819 E7.10126
G1 X115.745 Y134.269 E7.16339
G1 X114.003 Y134.767 E7.22365
G1 X113.818 Y134.811 E7.22998
G1 X112.583 Y135.156 E7.27263
G1 X111.687 Y135.364 E7.30322
G1 X110.895 Y135.482 E7.32985
G1 X109.976 Y135.544 E7.36049
G1 X109.056 Y135.526 E7.39109
G1 X108.14 Y135.428 E7.42174
G1 X106.937 Y135.174 E7.46263
G1 X106.416 Y135.031 E7.4806
G1 X104.596 Y134.507 E7.54359
G1 X102.879 Y134.078 E7.60245
G1 X102.733 Y134.035 E7.60752
G1 X101.444 Y133.702 E7.6518
G1 X100.563 Y133.433 E7.68243
G1 X99.709 Y133.089 E7.71306
G1 X98.889 Y132.672 E7.74365
G1 X98.107 Y132.186 E7.77428
G1 X97.37 Y131.634 E7.8049
G1 X96.569 Y130.905 E7.84093
G1 X96.198 Y130.529 E7.85849
G1 X94.913 Y129.195 E7.9201
G1 X93.604 Y127.929 E7.98067
G1 X93.47 Y127.788 E7.98714
G1 X92.551 Y126.886 E8.02997
G1 X91.922 Y126.213 E8.06061
G1 X91.354 Y125.488 E8.09124
G1 X90.851 Y124.717 E8.12186
G1 X90.417 Y123.905 E8.15248
G1 X90.055 Y123.058 E8.18312
G1 X89.724 Y122.022 E8.21929
G1 X89.589 Y121.505 E8.23706
G1 X89.136 Y119.678 E8.29967
G1 X88.453 Y117.221 E8.38449
G1 X88.388 Y117.007 E8.39193
G1 X88.299 Y116.698 E8.40262
G1 X88.231 Y116.446 E8.4113
G1 X88.03 Y115.547 E8.44194
G1 X87.908 Y114.635 E8.47254
G1 X87.865 Y113.715 E8.50318
G1 X87.902 Y112.795 E8.5338
G1 X88.019 Y111.882 E8.56442
G1 X88.245 Y110.871 E8.59887
G1 X88.367 Y110.429 E8.61412
G1 X88.911 Y108.536 E8.67963
G1 X89.334 Y106.845 E8.73761
G1 X89.385 Y106.673 E8.74357
G1 X89.711 Y105.41 E8.78696
G1 X89.98 Y104.529 E8.8176
G1 X90.324 Y103.675 E8.84822
G1 X90.741 Y102.855 E8.87882
G1 X91.227 Y102.073 E8.90944
G1 X91.779 Y101.336 E8.94007
G1 X92.515 Y100.529 E8.97639
G1 X92.94 Y100.109 E8.99627
G1 X94.255 Y98.842 E9.057
G1 X95.489 Y97.567 E9.11602
G1 X95.585 Y97.476 E9.12042
G1 X96.522 Y96.52 E9.16494
G0 F9000 X96.807 Y96.8
G1 F2100 X97.467 Y96.184 E9.19497
G1 X98.179 Y95.628 E9.22501
G1 X98.938 Y95.138 E9.25506
G1 X99.737 Y94.717 E9.2851
G1 X100.569 Y94.368 E9.31511
G1 X101.46 Y94.085 E9.3462
G1 X101.812 Y93.991 E9.35832
G1 X103.816 Y93.493 E9.427
G1 X106.322 Y92.796 E9.51351
G1 X106.758 Y92.668 E9.52863
G1 X107.044 Y92.59 E9.53849
G1 X107.925 Y92.392 E9.56852
G1 X108.82 Y92.271 E9.59856
G1 X109.722 Y92.231 E9.62859
G1 X110.625 Y92.27 E9.65865
G1 X111.52 Y92.39 E9.68868
G1 X112.424 Y92.594 E9.71951
G1 X112.888 Y92.722 E9.73552
G1 X114.746 Y93.256 E9.79982
G1 X116.443 Y93.68 E9.85799
G1 X116.596 Y93.726 E9.86331
G1 X117.898 Y94.061 E9.90802
G1 X118.762 Y94.325 E9.93807
G1 X119.599 Y94.664 E9.96811
G1 X120.403 Y95.076 E9.99815
G1 X121.167 Y95.557 E10.02818
G1 X121.885 Y96.104 E10.0582
G1 X122.61 Y96.77 E10.09095
G1 X122.943 Y97.108 E10.10673
G1 X124.302 Y98.516 E10.17181
G1 X125.573 Y99.747 E10.23066
G1 X125.686 Y99.867 E10.23615
G1 X126.613 Y100.775 E10.27931
G1 X127.23 Y101.435 E10.30936
G1 X127.785 Y102.147 E10.33938
G1 X128.276 Y102.905 E10.36942
G1 X128.697 Y103.704 E10.39946
G1 X129.046 Y104.537 E10.4295
G1 X129.332 Y105.44 E10.461
G1 X129.476 Y105.989 E10.47988
G1 X129.916 Y107.767 E10.5408
G1 X130.614 Y110.28 E10.62755
G1 X130.731 Y110.672 E10.64115
G1 X130.806 Y110.94 E10.65041
G1 X131.01 Y111.82 E10.68045
G1 X131.136 Y112.714 E10.71048
G1 X131.183 Y113.616 E10.74052
G1 X131.149 Y114.518 E10.77054
G1 X131.036 Y115.414 E10.80058
G1 X130.822 Y116.378 E10.83343
G1 X130.695 Y116.839 E10.84933
G1 X130.158 Y118.708 E10.91401
G1 X129.735 Y120.404 E10.97214
G1 X129.679 Y120.592 E10.97867
G1 X129.351 Y121.865 E11.02239
G1 X129.087 Y122.729 E11.05244
G1 X128.748 Y123.566 E11.08248
G1 X128.336 Y124.369 E11.11249
G1 X127.855 Y125.133 E11.14252
G1 X127.307 Y125.852 E11.17259
G1 X126.657 Y126.561 E11.20458
G1 X126.313 Y126.901 E11.22067
G1 X124.887 Y128.277 E11.28658
G1 X123.678 Y129.528 E11.34444
G1 X123.555 Y129.645 E11.35009
G1 X122.64 Y130.578 E11.39355
G1 X121.98 Y131.194 E11.42358
G1 X121.268 Y131.75 E11.45363
G1 X120.509 Y132.24 E11.48367
G1 X119.71 Y132.661 E11.51371
G1 X118.878 Y133.01 E11.54372
G1 X117.967 Y133.298 E11.5755
G1 X117.462 Y133.431 E11.59287
G1 X115.617 Y133.889 E11.65609
G1 X113.893 Y134.382 E11.71573
G1 X113.703 Y134.427 E11.72223
G1 X112.476 Y134.77 E11.7646
G1 X111.596 Y134.974 E11.79465
G1 X110.85 Y135.085 E11.81973
G1 X109.949 Y135.145 E11.84977
G1 X109.046 Y135.124 E11.87981
G1 X108.149 Y135.025 E11.90982
G1 X107.042 Y134.788 E11.94748
G1 X106.526 Y134.647 E11.96527
G1 X104.686 Y134.118 E12.02895
G1 X102.976 Y133.69 E12.08758
G1 X102.815 Y133.642 E12.09316
G1 X101.544 Y133.314 E12.13682
G1 X100.68 Y133.05 E12.16687
G1 X99.844 Y132.711 E12.19688
G1 X99.04 Y132.298 E12.22694
G1 X98.276 Y131.817 E12.25697
G1 X97.558 Y131.269 E12.28701
G1 X96.853 Y130.623 E12.31881
G1 X96.486 Y130.252 E12.33617
G1 X95.182 Y128.899 E12.39867
G1 X93.882 Y127.641 E12.45884
G1 X93.754 Y127.505 E12.46505
G1 X92.831 Y126.6 E12.50804
G1 X92.215 Y125.94 E12.53807
G1 X91.659 Y125.227 E12.56814
G1 X91.169 Y124.469 E12.59816
G1 X90.748 Y123.67 E12.6282
G1 X90.4 Y122.837 E12.65823
G1 X90.111 Y121.92 E12.6902
G1 X89.978 Y121.409 E12.70777
G1 X89.533 Y119.613 E12.76931
G1 X88.841 Y117.125 E12.8552
G1 X88.77 Y116.891 E12.86333
G1 X88.685 Y116.593 E12.87364
G1 X88.617 Y116.341 E12.88232
G1 X88.421 Y115.46 E12.91234
G1 X88.303 Y114.564 E12.9424
G1 X88.265 Y113.662 E12.97243
G1 X88.307 Y112.76 E13.00246
G1 X88.428 Y111.865 E13.0325
G1 X88.631 Y110.977 E13.06279
G1 X88.752 Y110.54 E13.07788
G1 X89.292 Y108.66 E13.14293
G1 X89.722 Y106.942 E13.20184
G1 X89.777 Y106.756 E13.20829
G1 X90.099 Y105.51 E13.25109
G1 X90.363 Y104.646 E13.28114
G1 X90.702 Y103.81 E13.31114
G1 X91.115 Y103.006 E13.34121
G1 X91.596 Y102.242 E13.37123
G1 X92.144 Y101.524 E13.40128
G1 X92.796 Y100.813 E13.43336
G1 X93.218 Y100.397 E13.45307
G1 X94.523 Y99.14 E13.51334
G1 X95.776 Y97.845 E13.57327
G1 X95.868 Y97.758 E13.57748
G1 X96.807 Y96.8 E13.6221
G1 F2700 E8.6221
;MESH:pineappleexpress.stl
G0 F9000 X101.824 Y105.911
G0 X102.522 Y106.743
G0 X100.701 Y108.481
G0 X100.346 Y111.393
G0 X99.305 Y113.689
G0 X100.453 Y116.391
G0 X100.701 Y118.899
G0 X103.047 Y120.663
G0 X104.515 Y122.712
G0 X106.166 Y122.913
G0 X109.723 Y124.299
;TYPE:WALL-INNER
G1 F2700 E13.6221
G1 F2100 X107.37 Y123.23 E13.70806
G1 X106.996 Y123.127 E13.72096
G1 X104.419 Y122.878 E13.80707
G1 X102.916 Y120.774 E13.89307
G1 X102.64 Y120.498 E13.90605
G1 X100.535 Y118.995 E13.99208
G1 X100.285 Y116.421 E14.07809
G1 X100.186 Y116.045 E14.09103
G1 X99.114 Y113.689 E14.17712
G1 X100.185 Y111.335 E14.26313
G1 X100.285 Y110.962 E14.27598
G1 X100.535 Y108.385 E14.36209
G1 X102.639 Y106.881 E14.44811
G1 X102.915 Y106.605 E14.46109
G1 X104.418 Y104.501 E14.54709
G1 X106.992 Y104.251 E14.63311
G1 X107.368 Y104.152 E14.64604
G1 X109.724 Y103.08 E14.73213
G1 X112.077 Y104.149 E14.81809
G1 X112.452 Y104.252 E14.83103
G1 X115.028 Y104.5 E14.9171
G1 X116.531 Y106.604 E15.0031
G1 X116.807 Y106.88 E15.01608
G1 X118.913 Y108.385 E15.10218
G1 X119.162 Y110.958 E15.18815
G1 X119.261 Y111.333 E15.20105
G1 X120.334 Y113.689 E15.28716
G1 X119.264 Y116.043 E15.37316
G1 X119.161 Y116.418 E15.3861
G1 X118.913 Y118.994 E15.47217
G1 X116.808 Y120.497 E15.5582
G1 X116.532 Y120.773 E15.57118
G1 X115.029 Y122.878 E15.65721
G1 X112.455 Y123.128 E15.74322
G1 X112.079 Y123.227 E15.75616
G1 X109.723 Y124.299 E15.84225
G0 F9000 X109.724 Y124.738
;TYPE:WALL-OUTER
G1 F2100 X107.234 Y123.607 E15.93321
G1 X106.923 Y123.522 E15.94393
G1 X104.199 Y123.258 E16.03496
G1 X102.61 Y121.033 E16.12589
G1 X102.381 Y120.804 E16.13667
G1 X100.155 Y119.214 E16.22765
G1 X99.89 Y116.492 E16.31861
G1 X99.808 Y116.18 E16.32934
G1 X98.674 Y113.689 E16.42037
G1 X99.807 Y111.199 E16.51136
G1 X99.89 Y110.89 E16.522
G1 X100.155 Y108.165 E16.61306
G1 X102.38 Y106.575 E16.70402
G1 X102.609 Y106.346 E16.71479
G1 X104.199 Y104.12 E16.80578
G1 X106.921 Y103.856 E16.89674
G1 X107.233 Y103.774 E16.90747
G1 X109.724 Y102.64 E16.9985
G1 X112.213 Y103.772 E17.08944
G1 X112.524 Y103.857 E17.10017
G1 X115.248 Y104.12 E17.19119
G1 X116.837 Y106.345 E17.28213
G1 X117.066 Y106.574 E17.2929
G1 X119.293 Y108.165 E17.38393
G1 X119.557 Y110.887 E17.47489
G1 X119.639 Y111.198 E17.48558
G1 X120.773 Y113.689 E17.57662
G1 X119.641 Y116.179 E17.66759
G1 X119.556 Y116.49 E17.67831
G1 X119.293 Y119.214 E17.76934
G1 X117.067 Y120.803 E17.8603
G1 X116.838 Y121.032 E17.87107
G1 X115.248 Y123.258 E17.96206
G1 X112.526 Y123.523 E18.05302
G1 X112.214 Y123.605 E18.06375
G1 X109.724 Y124.738 E18.15474
G0 F9000 X109.724 Y124.298
G0 X109.723 Y123.87
;TYPE:SKIN
G1 F2100 X107.503 Y122.862 E18.23583
G1 X107.066 Y122.742 E18.2509
G1 X104.634 Y122.507 E18.33217
G1 X103.214 Y120.521 E18.41337
G1 X102.893 Y120.2 E18.42847
G1 X100.906 Y118.78 E18.5097
G1 X100.671 Y116.352 E18.59083
G1 X100.555 Y115.914 E18.6059
G1 X99.543 Y113.689 E18.6872
