;FLAVOR:Marlin
;TIME:15116
;Filament used: 16.3429m
;Layer height: 0.2
;MINX:54
;MINY:81.25
;MINZ:0.2
;MAXX:181
;MAXY:153.75
;MAXZ:95
;Generated with Cura_SteamEngine 4.8.0
M82 ;absolute extrusion mode
; Ender 3 Custom Start G-code
M117 Getting the bed up to temp!
M140 S60 ; Set Heat Bed temperature
M190 S60 ; Wait for Heat Bed temperature
M117 Pre-heating the extruder!
M104 S175; start warming extruder to 160
G28 ; Home all axes
M117 Auto bed-level GO!
G29 ; Auto bed-level (BL-Touch)
M420 S1;
G92 E0 ; Reset Extruder
M117 Getting the extruder up to temp!
M104 S200 ; Set Extruder temperature
M109 S200 ; Wait for Extruder temperature
G1 Z2.0 F3000 ; move z up little to prevent scratching of surface
G1 X0.1 Y20 Z0.3 F5000.0 ; move to start-line position
M117 LET THE PURGE BEGIN!
G1 X0.1 Y200.0 Z0.3 F1500.0 E15 ; draw 1st line
G1 X0.4 Y200.0 Z0.3 F5000.0 ; move to side a little
G1 X0.4 Y20 Z0.3 F1500.0 E30 ; draw 2nd line
G92 E0 ; reset extruder
G1 Z1.0 F3000 ; move z up little to prevent scratching of surface
G1 X5 Y20 Z0.3 F5000.0 ; Move over to prevent blob squish
M117 Autobots! Roll Out!
; End of custom start GCode
G92 E0
G92 E0
G1 F2700 E-5
;LAYER_COUNT:475
;LAYER:0
M107
G0 F6000 X58.626 Y83.301 Z0.2
;TYPE:SKIRT
G1 F2700 E0
G1 F1200 X59.412 Y82.789 E0.0312
G1 X60.239 Y82.347 E0.06239
G1 X61.101 Y81.977 E0.09359
G1 X61.991 Y81.681 E0.12478
G1 X62.903 Y81.463 E0.15597
G1 X63.83 Y81.322 E0.18716
G1 X64.701 Y81.263 E0.21619
G1 X65.022 Y81.254 E0.22687
G1 X65.33 Y81.25 E0.23712
G1 X94.264 Y81.25 E1.19947
G1 X95.122 Y81.261 E1.22801
G1 X96.058 Y81.314 E1.25919
G1 X97.267 Y81.504 E1.29989
G1 X98.382 Y81.744 E1.33783
G1 X100.849 Y82.251 E1.4216
G1 X103.332 Y82.688 E1.50545
G1 X105.811 Y83.052 E1.58879
G1 X108.317 Y83.349 E1.67272
G1 X110.844 Y83.576 E1.75711
G1 X113.327 Y83.728 E1.83985
G1 X115.847 Y83.811 E1.92371
G1 X118.369 Y83.821 E2.00759
G1 X120.895 Y83.762 E2.09163
G1 X123.381 Y83.632 E2.17443
G1 X125.938 Y83.426 E2.25975
G1 X128.404 Y83.158 E2.34225
G1 X130.91 Y82.813 E2.42639
G1 X133.372 Y82.402 E2.50941
G1 X135.909 Y81.905 E2.59539
G1 X137.671 Y81.517 E2.6554
G1 X138.595 Y81.354 E2.68661
G1 X139.729 Y81.263 E2.72444
G1 X140.049 Y81.254 E2.73509
G1 X140.358 Y81.25 E2.74537
G1 X169.435 Y81.251 E3.71247
G1 X170.133 Y81.26 E3.73569
G1 X171.069 Y81.312 E3.76687
G1 X171.998 Y81.444 E3.79808
G1 X172.912 Y81.654 E3.82927
G1 X173.805 Y81.941 E3.86047
G1 X174.67 Y82.304 E3.89167
G1 X175.501 Y82.738 E3.92285
G1 X176.292 Y83.242 E3.95405
G1 X177.037 Y83.812 E3.98525
G1 X177.731 Y84.443 E4.01644
G1 X178.368 Y85.13 E4.0476
G1 X178.945 Y85.87 E4.07881
G1 X179.457 Y86.656 E4.11001
G1 X179.9 Y87.483 E4.14122
G1 X180.271 Y88.344 E4.1724
G1 X180.567 Y89.234 E4.2036
G1 X180.786 Y90.146 E4.23479
G1 X180.927 Y91.073 E4.26598
G1 X180.987 Y91.951 E4.29525
G1 X180.996 Y92.272 E4.30593
G1 X181 Y92.58 E4.31617
G1 X180.999 Y142.15 E5.96488
G1 X180.99 Y142.877 E5.98906
G1 X180.939 Y143.814 E6.02027
G1 X180.807 Y144.742 E6.05145
G1 X180.598 Y145.656 E6.08263
G1 X180.311 Y146.549 E6.11383
G1 X179.949 Y147.415 E6.14505
G1 X179.515 Y148.246 E6.17623
G1 X179.011 Y149.037 E6.20743
G1 X178.442 Y149.782 E6.23861
G1 X177.811 Y150.477 E6.26983
G1 X177.124 Y151.115 E6.30101
G1 X176.385 Y151.692 E6.33219
G1 X175.599 Y152.204 E6.36339
G1 X174.773 Y152.647 E6.39457
G1 X173.911 Y153.019 E6.42579
G1 X173.022 Y153.315 E6.45696
G1 X172.11 Y153.535 E6.48816
G1 X171.183 Y153.676 E6.51935
G1 X170.299 Y153.737 E6.54882
G1 X169.978 Y153.746 E6.5595
G1 X169.67 Y153.75 E6.56975
G1 X65.565 Y153.749 E10.03229
G1 X64.867 Y153.74 E10.05551
G1 X63.931 Y153.688 E10.08669
G1 X63.002 Y153.556 E10.1179
G1 X62.088 Y153.346 E10.14909
G1 X61.195 Y153.059 E10.18029
G1 X60.33 Y152.696 E10.21149
G1 X59.499 Y152.262 E10.24267
G1 X58.708 Y151.758 E10.27387
G1 X57.963 Y151.188 E10.30507
G1 X57.269 Y150.557 E10.33626
G1 X56.632 Y149.87 E10.36742
G1 X56.055 Y149.13 E10.39863
G1 X55.543 Y148.344 E10.42983
G1 X55.1 Y147.517 E10.46104
G1 X54.729 Y146.656 E10.49222
G1 X54.433 Y145.766 E10.52342
G1 X54.214 Y144.854 E10.55461
G1 X54.073 Y143.927 E10.5858
G1 X54.013 Y143.038 E10.61543
G1 X54.004 Y142.705 E10.62651
G1 X54 Y142.408 E10.63639
G1 X54.001 Y92.775 E12.28719
G1 X54.01 Y92.11 E12.30931
G1 X54.063 Y91.174 E12.34049
G1 X54.195 Y90.245 E12.3717
G1 X54.406 Y89.331 E12.4029
G1 X54.694 Y88.439 E12.43408
G1 X55.057 Y87.574 E12.46528
G1 X55.492 Y86.743 E12.49648
G1 X55.996 Y85.953 E12.52764
G1 X56.566 Y85.208 E12.55884
G1 X57.198 Y84.514 E12.59006
G1 X57.886 Y83.877 E12.62125
G1 X58.626 Y83.301 E12.65244
G0 F6000 X59.01 Y83.52
G1 F1200 X59.791 Y83.032 E12.68307
G1 X60.611 Y82.614 E12.71368
G1 X61.465 Y82.269 E12.74431
G1 X62.345 Y81.999 E12.77493
G1 X63.245 Y81.807 E12.80554
G1 X64.159 Y81.693 E12.83617
G1 X64.712 Y81.663 E12.85459
G1 X65.033 Y81.654 E12.86527
G1 X65.33 Y81.65 E12.87515
G1 X94.264 Y81.65 E13.8375
G1 X95.116 Y81.661 E13.86584
G1 X96.035 Y81.714 E13.89646
G1 X97.184 Y81.895 E13.93514
G1 X98.109 Y82.093 E13.96661
G1 X98.281 Y82.132 E13.97247
G1 X100.777 Y82.644 E14.05722
G1 X103.27 Y83.084 E14.14142
G1 X105.742 Y83.447 E14.22452
G1 X108.302 Y83.749 E14.31026
G1 X110.787 Y83.973 E14.39324
G1 X113.323 Y84.128 E14.47775
G1 X115.833 Y84.211 E14.56128
G1 X118.377 Y84.221 E14.64589
G1 X120.89 Y84.162 E14.7295
G1 X123.433 Y84.029 E14.81419
G1 X125.941 Y83.828 E14.89788
G1 X128.47 Y83.552 E14.98249
G1 X130.959 Y83.209 E15.06606
G1 X133.477 Y82.79 E15.15096
G1 X135.944 Y82.306 E15.23457
G1 X137.757 Y81.907 E15.29632
G1 X138.664 Y81.748 E15.32695
G1 X139.74 Y81.663 E15.36284
G1 X140.06 Y81.654 E15.37349
G1 X140.358 Y81.65 E15.3834
G1 X169.43 Y81.651 E16.35034
G1 X170.128 Y81.66 E16.37356
G1 X171.047 Y81.712 E16.40418
G1 X171.958 Y81.843 E16.43479
G1 X172.854 Y82.053 E16.4654
G1 X173.729 Y82.34 E16.49602
G1 X174.576 Y82.702 E16.52666
G1 X175.388 Y83.136 E16.55728
G1 X176.159 Y83.638 E16.58788
G1 X176.884 Y84.206 E16.61852
G1 X177.557 Y84.835 E16.64915
G1 X178.172 Y85.519 E16.67975
G1 X178.726 Y86.254 E16.71036
G1 X179.214 Y87.035 E16.74099
G1 X179.633 Y87.855 E16.77162
G1 X179.979 Y88.708 E16.80223
G1 X180.249 Y89.588 E16.83285
G1 X180.442 Y90.489 E16.8635
G1 X180.556 Y91.402 E16.8941
G1 X180.587 Y91.962 E16.91275
G1 X180.596 Y92.283 E16.92343
G1 X180.6 Y92.58 E16.93331
G1 X180.599 Y142.145 E18.58185
G1 X180.59 Y142.872 E18.60603
G1 X180.539 Y143.791 E18.63665
G1 X180.408 Y144.703 E18.66729
G1 X180.198 Y145.599 E18.6979
G1 X179.912 Y146.474 E18.72852
G1 X179.551 Y147.321 E18.75914
G1 X179.117 Y148.133 E18.78976
G1 X178.615 Y148.905 E18.82039
G1 X178.047 Y149.63 E18.85103
G1 X177.419 Y150.303 E18.88164
G1 X176.735 Y150.919 E18.91226
G1 X176 Y151.473 E18.94287
G1 X175.22 Y151.962 E18.97349
G1 X174.4 Y152.381 E19.00412
G1 X173.547 Y152.727 E19.03473
G1 X172.667 Y152.998 E19.06536
G1 X171.767 Y153.191 E19.09597
G1 X170.853 Y153.306 E19.12661
G1 X170.288 Y153.337 E19.14543
G1 X169.967 Y153.346 E19.15611
G1 X169.67 Y153.35 E19.16599
G1 X65.57 Y153.349 E22.62837
G1 X64.872 Y153.34 E22.65159
G1 X63.953 Y153.288 E22.6822
G1 X63.042 Y153.157 E22.71282
G1 X62.146 Y152.947 E22.74343
G1 X61.271 Y152.66 E22.77405
G1 X60.424 Y152.298 E22.80469
G1 X59.612 Y151.864 E22.83531
G1 X58.841 Y151.362 E22.86591
G1 X58.116 Y150.794 E22.89655
G1 X57.443 Y150.165 E22.92718
G1 X56.828 Y149.481 E22.95778
G1 X56.274 Y148.746 E22.98839
G1 X55.786 Y147.965 E23.01902
G1 X55.367 Y147.145 E23.04965
G1 X55.021 Y146.292 E23.08026
G1 X54.751 Y145.412 E23.11088
G1 X54.558 Y144.511 E23.14153
G1 X54.444 Y143.598 E23.17213
G1 X54.413 Y143.027 E23.19115
G1 X54.404 Y142.694 E23.20223
G1 X54.4 Y142.408 E23.21174
G1 X54.401 Y92.781 E24.86234
G1 X54.41 Y92.116 E24.88446
G1 X54.462 Y91.196 E24.91511
G1 X54.594 Y90.285 E24.94573
G1 X54.805 Y89.389 E24.97634
G1 X55.092 Y88.514 E25.00697
G1 X55.455 Y87.668 E25.03759
G1 X55.889 Y86.856 E25.06821
G1 X56.392 Y86.085 E25.09883
G1 X56.961 Y85.361 E25.12946
G1 X57.589 Y84.689 E25.16005
G1 X58.274 Y84.073 E25.19069
G1 X59.01 Y83.52 E25.22131
G0 F6000 X59.394 Y83.744
G1 F1200 X60.169 Y83.281 E25.25134
G1 X60.982 Y82.888 E25.28137
G1 X61.827 Y82.568 E25.31142
G1 X62.696 Y82.325 E25.34143
G1 X63.584 Y82.159 E25.37148
G1 X64.723 Y82.063 E25.4095
G1 X65.044 Y82.054 E25.42018
G1 X65.33 Y82.05 E25.42969
G1 X94.264 Y82.05 E26.39204
G1 X95.11 Y82.061 E26.42018
G1 X96.012 Y82.114 E26.45023
G1 X97.1 Y82.286 E26.48687
G1 X98.232 Y82.53 E26.52539
G1 X100.692 Y83.036 E26.60892
G1 X103.18 Y83.474 E26.69294
G1 X105.709 Y83.846 E26.77796
G1 X108.256 Y84.146 E26.86326
G1 X110.761 Y84.371 E26.94691
G1 X113.323 Y84.528 E27.03229
G1 X115.817 Y84.611 E27.11528
G1 X118.385 Y84.621 E27.2007
G1 X120.921 Y84.561 E27.28507
G1 X123.45 Y84.43 E27.36929
G1 X125.984 Y84.226 E27.45385
G1 X128.492 Y83.953 E27.53776
G1 X131.048 Y83.601 E27.62357
G1 X133.514 Y83.189 E27.70673
G1 X136.071 Y82.689 E27.79339
G1 X137.844 Y82.298 E27.85377
G1 X138.733 Y82.143 E27.88379
G1 X139.751 Y82.063 E27.91775
G1 X140.071 Y82.054 E27.9284
G1 X140.358 Y82.05 E27.93794
G1 X169.425 Y82.051 E28.90472
G1 X170.123 Y82.06 E28.92793
G1 X171.024 Y82.111 E28.95795
G1 X171.918 Y82.243 E28.98801
G1 X172.796 Y82.452 E29.01802
G1 X173.653 Y82.739 E29.04808
G1 X174.48 Y83.1 E29.0781
G1 X175.273 Y83.533 E29.10815
G1 X176.024 Y84.034 E29.13817
G1 X176.728 Y84.6 E29.16822
G1 X177.379 Y85.226 E29.19826
G1 X177.972 Y85.907 E29.22829
G1 X178.502 Y86.638 E29.25832
G1 X178.966 Y87.413 E29.28837
G1 X179.36 Y88.226 E29.31841
G1 X179.68 Y89.07 E29.34844
G1 X179.924 Y89.94 E29.37849
G1 X180.09 Y90.828 E29.40854
G1 X180.187 Y91.973 E29.44675
G1 X180.196 Y92.294 E29.45744
G1 X180.2 Y92.58 E29.46695
G1 X180.199 Y142.14 E31.11532
G1 X180.19 Y142.867 E31.1395
G1 X180.139 Y143.769 E31.16955
G1 X180.008 Y144.663 E31.1996
G1 X179.799 Y145.541 E31.22962
G1 X179.513 Y146.398 E31.25967
G1 X179.152 Y147.226 E31.28971
G1 X178.72 Y148.018 E31.31972
G1 X178.219 Y148.77 E31.34977
G1 X177.653 Y149.474 E31.37982
G1 X177.028 Y150.125 E31.40983
G1 X176.347 Y150.719 E31.43989
G1 X175.616 Y151.25 E31.46994
G1 X174.842 Y151.714 E31.49996
G1 X174.029 Y152.108 E31.53
G1 X173.185 Y152.428 E31.56003
G1 X172.315 Y152.673 E31.59009
G1 X171.428 Y152.839 E31.6201
G1 X170.277 Y152.937 E31.65852
G1 X169.956 Y152.946 E31.6692
G1 X169.67 Y152.95 E31.67872
G1 X65.575 Y152.949 E35.14093
G1 X64.877 Y152.94 E35.16415
G1 X63.976 Y152.889 E35.19416
G1 X63.082 Y152.757 E35.22422
G1 X62.204 Y152.548 E35.25424
G1 X61.347 Y152.261 E35.2843
G1 X60.52 Y151.9 E35.31431
G1 X59.727 Y151.467 E35.34436
G1 X58.976 Y150.966 E35.37439
G1 X58.272 Y150.4 E35.40443
G1 X57.621 Y149.774 E35.43447
G1 X57.028 Y149.093 E35.46451
G1 X56.498 Y148.362 E35.49454
G1 X56.034 Y147.587 E35.52458
G1 X55.64 Y146.774 E35.55463
G1 X55.32 Y145.93 E35.58465
G1 X55.076 Y145.06 E35.6147
G1 X54.91 Y144.172 E35.64475
G1 X54.813 Y143.017 E35.6833
G1 X54.804 Y142.684 E35.69438
G1 X54.8 Y142.408 E35.70356
G1 X54.801 Y92.786 E37.35399
G1 X54.81 Y92.121 E37.37611
G1 X54.862 Y91.219 E37.40617
G1 X54.994 Y90.326 E37.43619
G1 X55.204 Y89.448 E37.46622
G1 X55.491 Y88.591 E37.49628
G1 X55.853 Y87.764 E37.5263
G1 X56.286 Y86.972 E37.55632
G1 X56.788 Y86.221 E37.58637
G1 X57.355 Y85.517 E37.61643
G1 X57.981 Y84.867 E37.64645
G1 X58.662 Y84.274 E37.67648
G1 X59.394 Y83.744 E37.70654
G1 F2700 E32.70654
;MESH:brickHolder v1.stl
G0 F6000 X65.42 Y91.585
G0 X65.42 Y92.67
G0 X94.189 Y93.032
G0 X94.544 Y132.678
G0 X140.456 Y132.678
G0 X140.81 Y93.032
G0 X169.218 Y93.032
G0 X169.4 Y142.15
;TYPE:WALL-INNER
G1 F2700 E37.70654
G1 F1200 X65.6 Y142.15 E41.15894
G1 X65.6 Y92.85 E42.79867
G1 X94.371 Y92.85 E43.75559
G1 X94.372 Y132.85 E45.086
G1 X140.628 Y132.85 E46.62448
G1 X140.628 Y92.85 E47.95489
G1 X169.4 Y92.85 E48.91185
G1 X169.4 Y142.15 E50.55157
G0 F6000 X169.8 Y142.55
;TYPE:WALL-OUTER
G1 F1200 X65.2 Y142.55 E54.03058
G1 X65.2 Y92.45 E55.69691
G1 X94.771 Y92.45 E56.68045
G1 X94.772 Y132.45 E58.01085
G1 X140.228 Y132.45 E59.52273
G1 X140.228 Y92.45 E60.85313
G1 X169.8 Y92.45 E61.8367
G1 X169.8 Y142.55 E63.50303
G0 F6000 X169.53 Y142.28
G0 X169.29 Y141.76
G0 X169.01 Y141.76
;TYPE:SKIN
G1 F1200 X65.99 Y141.76 E66.92949
G1 X65.99 Y93.24 E68.54327
G1 X93.981 Y93.24 E69.47426
G1 X93.982 Y133.24 E70.80466
G1 X141.018 Y133.24 E72.36909
G1 X141.018 Y93.24 E73.69949
G1 X169.01 Y93.24 E74.63051
G1 X169.01 Y141.76 E76.24429
G1 F2700 E71.24429
G0 F6000 X169.29 Y141.76
G0 X169.29 Y93.613
G0 X168.849 Y93.613
G1 F2700 E76.24429
G1 F1200 X168.635 Y93.399 E76.25436
G0 F6000 X168.07 Y93.399
G1 F1200 X168.849 Y94.178 E76.291
G0 F6000 X168.849 Y94.744
G1 F1200 X167.504 Y93.399 E76.35427
G0 F6000 X166.938 Y93.399
G1 F1200 X168.849 Y95.31 E76.44415
G0 F6000 X168.849 Y95.875
G1 F1200 X166.373 Y93.399 E76.56062
G0 F6000 X165.807 Y93.399
G1 F1200 X168.849 Y96.441 E76.7037
G0 F6000 X168.849 Y97.007
G1 F1200 X165.241 Y93.399 E76.87341
G0 F6000 X164.675 Y93.399
G1 F1200 X168.849 Y97.572 E77.06972
G0 F6000 X168.849 Y98.138
G1 F1200 X164.11 Y93.399 E77.29263
G0 F6000 X163.544 Y93.399
G1 F1200 X168.849 Y98.704 E77.54216
G0 F6000 X168.849 Y99.27
G1 F1200 X162.978 Y93.399 E77.81831
G0 F6000 X162.413 Y93.399
G1 F1200 X168.849 Y99.835 E78.12104
G0 F6000 X168.849 Y100.401
G1 F1200 X161.847 Y93.399 E78.4504
G0 F6000 X161.281 Y93.399
G1 F1200 X168.849 Y100.967 E78.80637
G0 F6000 X168.849 Y101.532
G1 F1200 X160.716 Y93.399 E79.18892
G0 F6000 X160.15 Y93.399
G1 F1200 X168.849 Y102.098 E79.5981
G0 F6000 X168.849 Y102.664
G1 F1200 X159.584 Y93.399 E80.03389
G0 F6000 X159.019 Y93.399
G1 F1200 X168.849 Y103.229 E80.49627
G0 F6000 X168.849 Y103.795
G1 F1200 X158.453 Y93.399 E80.98526
G0 F6000 X157.887 Y93.399
G1 F1200 X168.849 Y104.361 E81.50088
G0 F6000 X168.849 Y104.926
G1 F1200 X157.322 Y93.399 E82.04308
G0 F6000 X156.756 Y93.399
G1 F1200 X168.849 Y105.492 E82.61189
G0 F6000 X168.849 Y106.058
G1 F1200 X156.19 Y93.399 E83.20734
G0 F6000 X155.625 Y93.399
G1 F1200 X168.849 Y106.623 E83.82935
G0 F6000 X168.849 Y107.189
G1 F1200 X155.059 Y93.399 E84.47799
G0 F6000 X154.493 Y93.399
G1 F1200 X168.849 Y107.755 E85.15325
G0 F6000 X168.849 Y108.32
G1 F1200 X153.927 Y93.399 E85.85511
G0 F6000 X153.362 Y93.399
G1 F1200 X168.849 Y108.886 E86.58358
G0 F6000 X168.849 Y109.452
G1 F1200 X152.796 Y93.399 E87.33866
G0 F6000 X152.23 Y93.399
G1 F1200 X168.849 Y110.018 E88.12037
G0 F6000 X168.849 Y110.583
G1 F1200 X151.665 Y93.399 E88.92865
G0 F6000 X151.099 Y93.399
G1 F1200 X168.849 Y111.149 E89.76355
G0 F6000 X168.849 Y111.715
G1 F1200 X150.533 Y93.399 E90.62508
G0 F6000 X149.968 Y93.399
G1 F1200 X168.849 Y112.28 E91.51319
G0 F6000 X168.849 Y112.846
G1 F1200 X149.402 Y93.399 E92.42791
G0 F6000 X148.836 Y93.399
G1 F1200 X168.849 Y113.412 E93.36927
G0 F6000 X168.849 Y113.977
G1 F1200 X148.271 Y93.399 E94.33719
G0 F6000 X147.705 Y93.399
G1 F1200 X168.849 Y114.543 E95.33174
G0 F6000 X168.849 Y115.109
G1 F1200 X147.139 Y93.399 E96.35291
G0 F6000 X146.574 Y93.399
G1 F1200 X168.849 Y115.674 E97.40066
G0 F6000 X168.849 Y116.24
G1 F1200 X146.008 Y93.399 E98.47503
G0 F6000 X145.442 Y93.399
G1 F1200 X168.849 Y116.806 E99.57602
G0 F6000 X168.849 Y117.371
G1 F1200 X144.876 Y93.399 E100.70362
G0 F6000 X144.311 Y93.399
G1 F1200 X168.849 Y117.937 E101.85781
G0 F6000 X168.849 Y118.503
G1 F1200 X143.745 Y93.399 E103.03862
G0 F6000 X143.179 Y93.399
G1 F1200 X168.849 Y119.069 E104.24606
G0 F6000 X168.849 Y119.634
G1 F1200 X142.614 Y93.399 E105.48008
G0 F6000 X142.048 Y93.399
G1 F1200 X168.849 Y120.2 E106.74071
G0 F6000 X168.849 Y120.766
G1 F1200 X141.482 Y93.399 E108.02797
G0 F6000 X141.176 Y93.659
G1 F1200 X168.849 Y121.331 E109.3296
G0 F6000 X168.849 Y121.897
G1 F1200 X141.176 Y94.224 E110.63126
G0 F6000 X141.176 Y94.79
G1 F1200 X168.849 Y122.463 E111.93291
G0 F6000 X168.849 Y123.028
G1 F1200 X141.176 Y95.356 E113.23454
G0 F6000 X141.176 Y95.921
G1 F1200 X168.849 Y123.594 E114.53619
G0 F6000 X168.849 Y124.16
G1 F1200 X141.176 Y96.487 E115.83784
G0 F6000 X141.176 Y97.053
G1 F1200 X168.849 Y124.725 E117.13947
G0 F6000 X168.849 Y125.291
G1 F1200 X141.176 Y97.618 E118.44113
G0 F6000 X141.176 Y98.184
G1 F1200 X168.849 Y125.857 E119.74278
G0 F6000 X168.849 Y126.422
G1 F1200 X141.176 Y98.75 E121.04441
G0 F6000 X141.176 Y99.315
