;FLAVOR:Marlin
;TIME:12041
;Filament used: 8.63262m
;Layer height: 0.2
;MINX:47.526
;MINY:50.291
;MINZ:0.2
;MAXX:185.688
;MAXY:181.299
;MAXZ:13.6
;Generated with Cura_SteamEngine 4.8.0
M82 ;absolute extrusion mode
; Ender 3 Custom Start G-code
M117 Getting the bed up to temp!
M140 S50 ; Set Heat Bed temperature
M190 S50 ; Wait for Heat Bed temperature
M117 Pre-heating the extruder!
M104 S175; start warming extruder to 160
G28 ; Home all axes
M117 Auto bed-level GO!
G29 ; Auto bed-level (BL-Touch)
M420 S1;
G92 E0 ; Reset Extruder
M117 Getting the extruder up to temp!
M104 S200 ; Set Extruder temperature
M109 S200 ; Wait for Extruder temperature
G1 Z2.0 F3000 ; move z up little to prevent scratching of surface
G1 X0.1 Y20 Z0.3 F5000.0 ; move to start-line position
M117 LET THE PURGE BEGIN!
G1 X0.1 Y200.0 Z0.3 F1500.0 E15 ; draw 1st line
G1 X0.4 Y200.0 Z0.3 F5000.0 ; move to side a little
G1 X0.4 Y20 Z0.3 F1500.0 E30 ; draw 2nd line
G92 E0 ; reset extruder
G1 Z1.0 F3000 ; move z up little to prevent scratching of surface
G1 X5 Y20 Z0.3 F5000.0 ; Move over to prevent blob squish
M117 Autobots! Roll Out!
; End of custom start GCode
G92 E0
G92 E0
G1 F2700 E-5
;LAYER_COUNT:68
;LAYER:0
M107
G0 F6000 X55.838 Y83.162 Z0.2
;TYPE:SKIRT
G1 F2700 E0
G1 F1200 X56.36 Y82.824 E0.02068
G1 X56.891 Y82.501 E0.04136
G1 X57.226 Y82.31 E0.05418
G1 X57.541 Y82.137 E0.06613
G1 X57.668 Y82.07 E0.07091
G1 X57.997 Y81.903 E0.08318
G1 X58.444 Y81.686 E0.09971
G1 X58.748 Y81.544 E0.11087
G1 X59.096 Y81.388 E0.12355
G1 X59.595 Y81.179 E0.14155
G1 X60.097 Y80.983 E0.15947
G1 X60.363 Y80.883 E0.16892
G1 X60.532 Y80.822 E0.1749
G1 X60.799 Y80.73 E0.18429
G1 X61.826 Y80.39 E0.22027
G1 X153.854 Y50.997 E3.43347
G1 X154.557 Y50.782 E3.45792
G1 X155.465 Y50.546 E3.48912
G1 X156.389 Y50.389 E3.52029
G1 X157.606 Y50.302 E3.56087
G1 X158.428 Y50.291 E3.58822
G1 X165.768 Y50.291 E3.83235
G1 X166.624 Y50.302 E3.86082
G1 X167.56 Y50.356 E3.892
G1 X168.488 Y50.488 E3.92318
G1 X169.402 Y50.7 E3.95439
G1 X170.294 Y50.989 E3.98557
G1 X171.159 Y51.352 E4.01677
G1 X171.989 Y51.788 E4.04796
G1 X172.78 Y52.293 E4.07917
G1 X173.524 Y52.864 E4.11036
G1 X174.217 Y53.496 E4.14156
G1 X174.854 Y54.184 E4.17274
G1 X175.429 Y54.925 E4.20394
G1 X175.94 Y55.711 E4.23512
G1 X176.382 Y56.539 E4.26634
G1 X176.751 Y57.401 E4.29752
G1 X177.046 Y58.291 E4.32871
G1 X177.264 Y59.203 E4.3599
G1 X177.404 Y60.131 E4.39111
G1 X177.462 Y60.992 E4.41981
G1 X177.471 Y61.312 E4.43046
G1 X177.475 Y61.621 E4.44074
G1 X177.474 Y111.328 E6.094
G1 X177.473 Y113.969 E6.18184
G1 X177.545 Y116.5 E6.26606
G1 X177.688 Y119.04 E6.35067
G1 X177.897 Y121.5 E6.43279
G1 X178.183 Y124.02 E6.51714
G1 X178.538 Y126.519 E6.60109
G1 X178.967 Y129.018 E6.68542
G1 X179.456 Y131.459 E6.76822
G1 X180.014 Y133.89 E6.85118
G1 X180.657 Y136.359 E6.93604
G1 X181.356 Y138.765 E7.01937
G1 X182.131 Y141.175 E7.10357
G1 X182.964 Y143.537 E7.18688
G1 X183.998 Y146.204 E7.28201
G1 X184.138 Y146.55 E7.29443
G1 X184.351 Y147.105 E7.3142
G1 X184.473 Y147.442 E7.32612
G1 X184.646 Y147.946 E7.34384
G1 X184.854 Y148.62 E7.3673
G1 X185.029 Y149.261 E7.3894
G1 X185.188 Y149.924 E7.41208
G1 X185.283 Y150.382 E7.42764
G1 X185.35 Y150.734 E7.43956
G1 X185.375 Y150.878 E7.44442
G1 X185.424 Y151.189 E7.45489
G1 X185.467 Y151.487 E7.4649
G1 X185.508 Y151.798 E7.47534
G1 X185.554 Y152.197 E7.4887
G1 X185.598 Y152.66 E7.50416
G1 X185.62 Y152.956 E7.51404
G1 X185.654 Y153.512 E7.53256
G1 X185.674 Y154.043 E7.55024
G1 X185.688 Y155.204 E7.58885
G1 X185.687 Y166.557 E7.96646
G1 X185.681 Y167.014 E7.98166
G1 X185.669 Y167.397 E7.9944
G1 X185.636 Y168.085 E8.01731
G1 X185.489 Y169.43 E8.06231
G1 X185.465 Y169.569 E8.06701
G1 X185.396 Y169.932 E8.0793
G1 X185.346 Y170.173 E8.08748
G1 X185.099 Y171.138 E8.12061
G1 X185.054 Y171.286 E8.12576
G1 X184.897 Y171.763 E8.14246
G1 X184.803 Y172.028 E8.15181
G1 X184.492 Y172.809 E8.17977
G1 X184.449 Y172.906 E8.1833
G1 X184.181 Y173.468 E8.20401
G1 X184.042 Y173.739 E8.21414
G1 X183.482 Y174.707 E8.25133
G1 X183.336 Y174.932 E8.26026
G1 X182.546 Y176.001 E8.30447
G1 X182.168 Y176.453 E8.32406
G1 X181.536 Y177.146 E8.35526
G1 X180.955 Y177.691 E8.38175
G1 X180.738 Y177.88 E8.39133
G1 X179.856 Y178.572 E8.42861
G1 X179.438 Y178.867 E8.44563
G1 X178.287 Y179.578 E8.49063
G1 X178.188 Y179.631 E8.49436
G1 X177.731 Y179.862 E8.51139
G1 X177.471 Y179.986 E8.52097
G1 X176.348 Y180.447 E8.56135
G1 X176.069 Y180.544 E8.57117
G1 X174.847 Y180.891 E8.61342
G1 X174.299 Y181.013 E8.6321
G1 X173.038 Y181.218 E8.67459
G1 X172.912 Y181.231 E8.6788
G1 X172.359 Y181.274 E8.69725
G1 X172.092 Y181.288 E8.70614
G1 X171.232 Y181.299 E8.73475
G1 X171.116 Y181.296 E8.73861
G1 X170.539 Y181.266 E8.75782
G1 X170.246 Y181.243 E8.7676
G1 X169.387 Y181.142 E8.79637
G1 X169.248 Y181.12 E8.80105
G1 X168.674 Y181.013 E8.82047
G1 X168.402 Y180.955 E8.82972
G1 X168.121 Y180.891 E8.8393
G1 X167.088 Y180.642 E8.87465
G1 X164.521 Y180.062 E8.96218
G1 X162.051 Y179.576 E9.0459
G1 X159.561 Y179.159 E9.12988
G1 X157.089 Y178.817 E9.21288
G1 X154.584 Y178.542 E9.29669
G1 X152.07 Y178.338 E9.38059
G1 X149.575 Y178.206 E9.46369
G1 X146.008 Y178.138 E9.58235
G1 X67.287 Y178.138 E12.20062
G1 X66.589 Y178.128 E12.22384
G1 X65.653 Y178.074 E12.25502
G1 X64.725 Y177.942 E12.28619
G1 X63.811 Y177.73 E12.3174
G1 X62.919 Y177.441 E12.34859
G1 X62.054 Y177.078 E12.37979
G1 X61.224 Y176.642 E12.41097
G1 X60.433 Y176.137 E12.44218
G1 X59.689 Y175.566 E12.47338
G1 X58.996 Y174.934 E12.50457
G1 X58.359 Y174.246 E12.53576
G1 X57.784 Y173.505 E12.56695
G1 X57.273 Y172.719 E12.59813
G1 X56.831 Y171.891 E12.62935
G1 X56.462 Y171.029 E12.66054
G1 X56.167 Y170.139 E12.69172
G1 X55.949 Y169.227 E12.72291
G1 X55.809 Y168.299 E12.75413
G1 X55.751 Y167.432 E12.78303
G1 X55.742 Y167.105 E12.79391
G1 X55.738 Y166.802 E12.80399
G1 X55.738 Y152.307 E13.28609
G1 X55.701 Y149.699 E13.37284
G1 X55.594 Y147.177 E13.4568
G1 X55.417 Y144.682 E13.53999
G1 X55.169 Y142.183 E13.62352
G1 X54.851 Y139.694 E13.70698
G1 X54.457 Y137.185 E13.79145
G1 X53.998 Y134.719 E13.87488
G1 X53.464 Y132.236 E13.95935
G1 X52.877 Y129.841 E14.04137
G1 X52.199 Y127.375 E14.12643
G1 X51.47 Y124.995 E14.20922
G1 X50.659 Y122.592 E14.29357
G1 X49.779 Y120.204 E14.37822
G1 X48.809 Y117.792 E14.46469
G1 X48.581 Y117.231 E14.48483
G1 X48.466 Y116.935 E14.49539
G1 X48.249 Y116.318 E14.51714
G1 X48.163 Y116.048 E14.52657
G1 X47.939 Y115.239 E14.55449
G1 X47.909 Y115.112 E14.55883
G1 X47.804 Y114.62 E14.57556
G1 X47.755 Y114.36 E14.58436
G1 X47.605 Y113.261 E14.62125
G1 X47.586 Y113.039 E14.62866
G1 X47.548 Y112.3 E14.65327
G1 X47.526 Y110.999 E14.69655
G1 X47.526 Y99.839 E15.06773
G1 X47.536 Y98.974 E15.09651
G1 X47.544 Y98.655 E15.10712
G1 X47.567 Y98.088 E15.12599
G1 X47.6 Y97.569 E15.14329
G1 X47.639 Y97.126 E15.15808
G1 X47.672 Y96.806 E15.16878
G1 X47.704 Y96.534 E15.17789
G1 X47.748 Y96.205 E15.18893
G1 X47.783 Y95.969 E15.19687
G1 X47.829 Y95.684 E15.20647
G1 X47.89 Y95.336 E15.21822
G1 X47.962 Y94.959 E15.23098
G1 X48.056 Y94.525 E15.24575
G1 X48.16 Y94.089 E15.26066
G1 X48.334 Y93.447 E15.28279
G1 X48.493 Y92.923 E15.301
G1 X48.734 Y92.215 E15.32587
G1 X48.926 Y91.709 E15.34387
G1 X49.209 Y91.033 E15.36825
G1 X49.507 Y90.382 E15.39206
G1 X49.809 Y89.772 E15.4147
G1 X49.878 Y89.643 E15.41957
G1 X50.126 Y89.205 E15.43631
G1 X50.301 Y88.911 E15.44769
G1 X50.451 Y88.665 E15.45727
G1 X50.564 Y88.486 E15.46431
G1 X50.843 Y88.066 E15.48108
G1 X51.025 Y87.805 E15.49166
G1 X51.266 Y87.472 E15.50534
G1 X51.587 Y87.057 E15.52279
G1 X51.842 Y86.743 E15.53624
G1 X52.068 Y86.473 E15.54795
G1 X52.146 Y86.383 E15.55191
G1 X52.422 Y86.076 E15.56564
G1 X52.679 Y85.801 E15.57816
G1 X53.039 Y85.433 E15.59528
G1 X53.195 Y85.281 E15.60253
G1 X53.702 Y84.818 E15.62537
G1 X54.236 Y84.359 E15.64879
G1 X54.837 Y83.878 E15.67439
G1 X55.248 Y83.572 E15.69143
G1 X55.838 Y83.162 E15.71533
G0 F6000 X56.056 Y83.497
G1 F1200 X56.578 Y83.159 E15.73601
G1 X57.089 Y82.849 E15.75589
G1 X57.424 Y82.658 E15.76872
G1 X57.728 Y82.491 E15.78025
G1 X57.855 Y82.424 E15.78503
G1 X58.172 Y82.263 E15.79685
G1 X58.619 Y82.046 E15.81338
G1 X58.912 Y81.909 E15.82414
G1 X59.26 Y81.753 E15.83682
G1 X59.741 Y81.552 E15.85416
G1 X60.243 Y81.356 E15.87209
G1 X60.668 Y81.199 E15.88715
G1 X60.925 Y81.11 E15.8962
G1 X61.948 Y80.771 E15.93204
G1 X153.971 Y51.379 E19.14507
G1 X154.674 Y51.164 E19.16952
G1 X155.565 Y50.934 E19.20013
G1 X156.473 Y50.781 E19.23075
G1 X157.612 Y50.702 E19.26873
G1 X158.428 Y50.691 E19.29587
G1 X165.768 Y50.691 E19.54
G1 X166.618 Y50.702 E19.56827
G1 X167.537 Y50.755 E19.59889
G1 X168.448 Y50.888 E19.62951
G1 X169.344 Y51.099 E19.66013
G1 X170.218 Y51.387 E19.69073
G1 X171.065 Y51.75 E19.72138
G1 X171.876 Y52.185 E19.75199
G1 X172.646 Y52.689 E19.7826
G1 X173.37 Y53.258 E19.81323
G1 X174.042 Y53.888 E19.84387
G1 X174.657 Y54.573 E19.87448
G1 X175.21 Y55.309 E19.9051
G1 X175.697 Y56.09 E19.93572
G1 X176.114 Y56.911 E19.96634
G1 X176.459 Y57.765 E19.99698
G1 X176.728 Y58.645 E20.02758
G1 X176.92 Y59.546 E20.05822
G1 X177.033 Y60.459 E20.08882
G1 X177.062 Y61.003 E20.10694
G1 X177.071 Y61.323 E20.11759
G1 X177.075 Y61.621 E20.1275
G1 X177.074 Y111.322 E21.78056
G1 X177.073 Y113.98 E21.86897
G1 X177.145 Y116.535 E21.95398
G1 X177.286 Y119.027 E22.037
G1 X177.503 Y121.578 E22.12215
G1 X177.783 Y124.05 E22.2049
G1 X178.146 Y126.605 E22.29073
G1 X178.568 Y129.064 E22.37371
G1 X179.068 Y131.556 E22.45825
G1 X179.623 Y133.975 E22.54079
G1 X180.272 Y136.466 E22.62641
G1 X180.974 Y138.884 E22.71016
G1 X181.749 Y141.293 E22.79432
G1 X182.59 Y143.678 E22.87844
G1 X183.642 Y146.393 E22.97528
G1 X183.856 Y146.926 E22.99438
G1 X183.978 Y147.247 E23.0058
G1 X184.095 Y147.572 E23.01729
G1 X184.268 Y148.076 E23.03502
G1 X184.468 Y148.725 E23.0576
G1 X184.643 Y149.366 E23.0797
G1 X184.796 Y150.005 E23.10156
G1 X184.891 Y150.463 E23.11711
G1 X184.956 Y150.803 E23.12863
G1 X184.981 Y150.947 E23.13349
G1 X185.028 Y151.246 E23.14356
G1 X185.071 Y151.544 E23.15357
G1 X185.11 Y151.844 E23.16363
G1 X185.156 Y152.243 E23.17699
G1 X185.185 Y152.525 E23.18642
G1 X185.2 Y152.695 E23.1921
G1 X185.221 Y152.98 E23.2016
G1 X185.255 Y153.536 E23.22013
G1 X185.274 Y154.048 E23.23717
G1 X185.288 Y155.204 E23.27562
G1 X185.287 Y166.552 E23.65306
G1 X185.281 Y167.009 E23.66826
G1 X185.27 Y167.378 E23.68054
G1 X185.237 Y168.066 E23.70345
G1 X185.094 Y169.362 E23.74681
G1 X185.07 Y169.501 E23.7515
G1 X185.004 Y169.85 E23.76332
G1 X184.954 Y170.091 E23.7715
G1 X184.717 Y171.022 E23.80346
G1 X184.672 Y171.17 E23.8086
G1 X184.52 Y171.63 E23.82471
G1 X184.426 Y171.895 E23.83407
G1 X184.127 Y172.647 E23.86098
G1 X184.084 Y172.744 E23.86451
G1 X183.825 Y173.286 E23.88449
G1 X183.686 Y173.557 E23.89462
G1 X183.146 Y174.489 E23.93045
G1 X183 Y174.714 E23.93937
G1 X182.239 Y175.744 E23.98196
G1 X181.861 Y176.196 E24.00156
G1 X181.241 Y176.876 E24.03217
G1 X180.692 Y177.389 E24.05716
G1 X180.475 Y177.578 E24.06673
G1 X179.625 Y178.245 E24.10266
G1 X179.207 Y178.54 E24.11968
G1 X178.098 Y179.225 E24.16304
G1 X177.999 Y179.278 E24.16677
G1 X177.559 Y179.501 E24.18318
G1 X177.299 Y179.625 E24.19276
G1 X176.217 Y180.069 E24.23166
G1 X175.938 Y180.166 E24.24148
G1 X174.76 Y180.501 E24.28222
G1 X174.212 Y180.623 E24.30089
G1 X172.997 Y180.82 E24.34183
G1 X172.871 Y180.833 E24.34604
G1 X172.338 Y180.874 E24.36382
G1 X172.071 Y180.888 E24.37271
G1 X171.242 Y180.899 E24.40029
G1 X171.126 Y180.896 E24.40415
G1 X170.57 Y180.867 E24.42267
G1 X170.277 Y180.844 E24.43244
G1 X169.45 Y180.747 E24.46014
G1 X169.311 Y180.725 E24.46482
G1 X168.757 Y180.622 E24.48356
G1 X168.485 Y180.564 E24.49281
G1 X168.215 Y180.502 E24.50202
G1 X167.191 Y180.255 E24.53706
G1 X164.616 Y179.673 E24.62486
G1 X162.13 Y179.184 E24.70913
G1 X159.61 Y178.762 E24.79411
G1 X157.152 Y178.422 E24.87665
G1 X154.59 Y178.141 E24.96237
G1 X152.091 Y177.938 E25.04576
G1 X149.604 Y177.807 E25.12859
G1 X146.016 Y177.738 E25.24795
G1 X67.293 Y177.738 E27.86629
G1 X66.595 Y177.728 E27.88951
G1 X65.676 Y177.675 E27.92012
G1 X64.765 Y177.542 E27.95075
G1 X63.869 Y177.331 E27.98136
G1 X62.995 Y177.043 E28.01197
G1 X62.148 Y176.68 E28.04262
G1 X61.337 Y176.245 E28.07323
G1 X60.567 Y175.741 E28.10384
G1 X59.843 Y175.172 E28.13446
G1 X59.171 Y174.542 E28.1651
G1 X58.556 Y173.857 E28.19572
G1 X58.003 Y173.121 E28.22634
G1 X57.516 Y172.34 E28.25695
G1 X57.099 Y171.519 E28.28758
G1 X56.754 Y170.665 E28.31821
G1 X56.485 Y169.785 E28.34882
G1 X56.293 Y168.884 E28.37946
G1 X56.18 Y167.971 E28.41006
G1 X56.151 Y167.421 E28.42837
G1 X56.142 Y167.094 E28.43925
G1 X56.138 Y166.802 E28.44897
G1 X56.138 Y152.301 E28.93127
G1 X56.101 Y149.676 E29.01859
G1 X55.994 Y147.168 E29.10208
G1 X55.816 Y144.647 E29.18614
G1 X55.566 Y142.129 E29.2703
G1 X55.245 Y139.618 E29.3545
G1 X54.858 Y137.156 E29.43739
G1 X54.389 Y134.634 E29.52271
G1 X53.857 Y132.162 E29.60681
G1 X53.257 Y129.712 E29.6907
G1 X52.59 Y127.289 E29.77429
G1 X51.845 Y124.855 E29.85895
G1 X51.027 Y122.43 E29.94408
G1 X50.166 Y120.095 E30.02685
G1 X49.164 Y117.601 E30.11624
G1 X48.952 Y117.08 E30.13495
G1 X48.839 Y116.791 E30.14527
G1 X48.63 Y116.197 E30.16622
G1 X48.544 Y115.927 E30.17564
G1 X48.328 Y115.147 E30.20256
G1 X48.298 Y115.02 E30.2069
G1 X48.197 Y114.546 E30.22302
G1 X48.148 Y114.286 E30.23182
G1 X48.004 Y113.227 E30.26737
G1 X47.985 Y113.005 E30.27478
G1 X47.948 Y112.293 E30.29849
G1 X47.926 Y110.999 E30.34154
G1 X47.926 Y99.843 E30.71259
G1 X47.936 Y98.978 E30.74136
G1 X47.944 Y98.671 E30.75157
G1 X47.967 Y98.104 E30.77045
G1 X47.999 Y97.604 E30.78711
G1 X48.038 Y97.161 E30.8019
G1 X48.07 Y96.852 E30.81223
G1 X48.102 Y96.58 E30.82134
G1 X48.144 Y96.264 E30.83195
G1 X48.179 Y96.028 E30.83988
G1 X48.223 Y95.753 E30.84914
G1 X48.323 Y95.194 E30.86803
G1 X48.354 Y95.036 E30.87339
G1 X48.445 Y94.618 E30.88761
G1 X48.549 Y94.182 E30.90252
G1 X48.717 Y93.563 E30.92386
G1 X48.876 Y93.039 E30.94207
G1 X49.108 Y92.356 E30.96606
G1 X49.3 Y91.85 E30.98406
G1 X49.573 Y91.199 E31.00754
G1 X49.871 Y90.548 E31.03135
G1 X50.162 Y89.96 E31.05317
G1 X50.231 Y89.831 E31.05804
G1 X50.469 Y89.409 E31.07415
G1 X50.644 Y89.115 E31.08553
G1 X50.903 Y88.7 E31.1018
G1 X51.171 Y88.295 E31.11796
G1 X51.353 Y88.034 E31.12854
G1 X51.588 Y87.709 E31.14188
G1 X51.898 Y87.309 E31.15871
G1 X52.153 Y86.995 E31.17216
G1 X52.371 Y86.735 E31.18345
G1 X52.449 Y86.645 E31.18741
G1 X52.714 Y86.349 E31.20062
G1 X52.971 Y86.074 E31.21314
G1 X53.319 Y85.72 E31.22965
G1 X53.475 Y85.568 E31.2369
G1 X53.962 Y85.121 E31.25889
G1 X54.496 Y84.662 E31.28231
G1 X55.076 Y84.199 E31.30699
G1 X55.487 Y83.893 E31.32403
G1 X56.056 Y83.497 E31.34709
G0 F6000 X56.273 Y83.833
G1 F1200 X56.795 Y83.495 E31.36777
G1 X57.287 Y83.196 E31.38692
G1 X57.622 Y83.005 E31.39975
G1 X57.915 Y82.844 E31.41087
G1 X58.042 Y82.777 E31.41564
G1 X58.346 Y82.623 E31.42698
G1 X58.793 Y82.406 E31.4435
G1 X59.076 Y82.274 E31.45389
G1 X59.424 Y82.118 E31.46657
G1 X59.886 Y81.925 E31.48323
G1 X60.388 Y81.729 E31.50115
G1 X60.635 Y81.636 E31.50993
G1 X61.051 Y81.489 E31.5246
G1 X62.07 Y81.152 E31.5603
G1 X154.088 Y51.762 E34.77315
G1 X154.791 Y51.547 E34.7976
G1 X155.665 Y51.321 E34.82763
G1 X156.556 Y51.174 E34.85766
G1 X157.618 Y51.102 E34.89306
G1 X158.428 Y51.091 E34.92001
G1 X165.768 Y51.091 E35.16414
G1 X166.612 Y51.102 E35.19221
G1 X167.514 Y51.155 E35.22226
G1 X168.407 Y51.287 E35.25229
G1 X169.285 Y51.498 E35.28232
G1 X170.141 Y51.786 E35.31236
G1 X170.968 Y52.148 E35.34239
G1 X171.76 Y52.583 E35.37244
G1 X172.511 Y53.085 E35.40248
G1 X173.214 Y53.652 E35.43252
G1 X173.864 Y54.279 E35.46256
G1 X174.456 Y54.961 E35.4926
G1 X174.986 Y55.692 E35.52263
G1 X175.448 Y56.468 E35.55267
G1 X175.841 Y57.281 E35.5827
G1 X176.159 Y58.126 E35.61273
G1 X176.402 Y58.996 E35.64277
G1 X176.567 Y59.884 E35.67282
G1 X176.662 Y61.014 E35.71053
G1 X176.671 Y61.334 E35.72118
G1 X176.675 Y61.621 E35.73073
G1 X176.674 Y111.317 E37.38362
G1 X176.673 Y113.991 E37.47256
G1 X176.745 Y116.532 E37.55711
G1 X176.889 Y119.084 E37.64212
G1 X177.102 Y121.586 E37.72564
G1 X177.389 Y124.115 E37.81029
G1 X177.751 Y126.663 E37.89589
G1 X178.174 Y129.133 E37.97924
