;FLAVOR:Marlin
;TIME:1783
;Filament used: 1.79308m
;Layer height: 0.2
;MINX:87.5
;MINY:92
;MINZ:0.2
;MAXX:137.297
;MAXY:132.798
;MAXZ:25
;POSTPROCESSED
;Generated with Cura_SteamEngine 4.13.1
;
;

M82 ;absolute extrusion mode
; Ender 3 Custom Start G-code
M117 Getting the bed up to temp!
M140 S55.0 ; Set Heat Bed temperature
M190 S55.0 ; Wait for Heat Bed temperature
M117 Pre-heating the extruder!
M104 S160; start warming extruder to 160
G28 ; Home all axes
M117 Auto bed-level GO!
G29 ; Auto bed-level (BL-Touch)
G92 E0 ; Reset Extruder
M117 Getting the extruder up to temp!
M104 S210 ; Set Extruder temperature
M109 S210 ; Wait for Extruder temperature
G1 Z2.0 F3000 ; move z up little to prevent scratching of surface
G1 X0.1 Y20 Z0.3 F5000.0 ; move to start-line position
M117 LET THE PURGE BEGIN!
G1 X0.1 Y200.0 Z0.3 F1500.0 E15 ; draw 1st line
G1 X0.4 Y200.0 Z0.3 F5000.0 ; move to side a little
G1 X0.4 Y20 Z0.3 F1500.0 E30 ; draw 2nd line
G92 E0 ; reset extruder
G1 Z1.0 F3000 ; move z up little to prevent scratching of surface
G1 X5 Y20 Z0.3 F5000.0 ; Move over to prevent blob squish
M117 Autobots! Roll Out!
; End of custom start GCode
G92 E0
G92 E0
G1 F2100 E-1.5
;LAYER_COUNT:125
;LAYER:0
M107
G0 F9000 X95.111 Y95.486 Z0.2
;TYPE:SKIRT
G1 F2100 E0
G1 X95.781 Y94.83 E0.02947
G1 X96.505 Y94.233 E0.05897
G1 X97.276 Y93.7 E0.08843
G1 X98.091 Y93.235 E0.11792
G1 X98.942 Y92.84 E0.14741
G1 X99.823 Y92.52 E0.17687
G1 X100.729 Y92.276 E0.20636
G1 X101.652 Y92.11 E0.23584
G1 X102.83 Y92.013 E0.27299
G1 X103.152 Y92.004 E0.28311
G1 X103.459 Y92 E0.29276
G1 X106.318 Y92 E0.38262
G1 X107.182 Y92.011 E0.40978
G1 X107.808 Y92.038 E0.42947
G1 X108.667 Y92.099 E0.45654
G1 X111.274 Y92.248 E0.53861
G1 X113.759 Y92.319 E0.61675
G1 X116.283 Y92.319 E0.69608
G1 X118.845 Y92.247 E0.77664
G1 X121.096 Y92.124 E0.8475
G1 X122.402 Y92.035 E0.88864
G1 X122.789 Y92.016 E0.90082
G1 X123.086 Y92.008 E0.91016
G1 X123.786 Y92 E0.93216
G1 X125.447 Y92.001 E0.98437
G1 X126.035 Y92.009 E1.00285
G1 X127.211 Y92.088 E1.0399
G1 X127.491 Y92.122 E1.04876
G1 X128.416 Y92.275 E1.07823
G1 X129.325 Y92.506 E1.10771
G1 X130.211 Y92.813 E1.13718
G1 X131.068 Y93.195 E1.16667
G1 X131.87 Y93.637 E1.19545
G1 X131.992 Y93.711 E1.19994
G1 X132.772 Y94.231 E1.2294
G1 X133.505 Y94.816 E1.25888
G1 X134.186 Y95.461 E1.28836
G1 X134.81 Y96.162 E1.31786
G1 X135.371 Y96.913 E1.34732
G1 X135.866 Y97.709 E1.37678
G1 X136.292 Y98.545 E1.40628
G1 X136.645 Y99.414 E1.43576
G1 X136.923 Y100.31 E1.46524
G1 X137.123 Y101.226 E1.49471
G1 X137.245 Y102.156 E1.52419
G1 X137.278 Y102.666 E1.54026
G1 X137.291 Y103.108 E1.55415
G1 X137.297 Y103.672 E1.57188
G1 X137.293 Y108.296 E1.71722
G1 X137.293 Y120.887 E2.11296
G1 X137.291 Y121.369 E2.12811
G1 X137.242 Y122.36 E2.1593
G1 X137.217 Y122.624 E2.16764
G1 X137.089 Y123.553 E2.19711
G1 X136.882 Y124.468 E2.2266
G1 X136.598 Y125.362 E2.25608
G1 X136.239 Y126.228 E2.28554
G1 X135.807 Y127.061 E2.31504
G1 X135.306 Y127.854 E2.34452
G1 X134.74 Y128.601 E2.37398
G1 X133.98 Y129.428 E2.40928
G1 X133.795 Y129.61 E2.41744
G1 X133.099 Y130.239 E2.44692
G1 X132.352 Y130.806 E2.4764
G1 X131.56 Y131.308 E2.50587
G1 X130.727 Y131.74 E2.53536
G1 X129.976 Y132.056 E2.56097
G1 X129.086 Y132.353 E2.59046
G1 X128.174 Y132.572 E2.61994
G1 X127.247 Y132.713 E2.64941
G1 X126.254 Y132.775 E2.68069
G1 X125.096 Y132.794 E2.71709
G1 X105.7 Y132.793 E3.32672
G1 X103.927 Y132.798 E3.38245
G1 X103.051 Y132.785 E3.40998
G1 X102.114 Y132.73 E3.43949
G1 X101.186 Y132.595 E3.46896
G1 X100.273 Y132.381 E3.49843
G1 X99.381 Y132.091 E3.52791
G1 X98.518 Y131.725 E3.55738
G1 X97.688 Y131.287 E3.58688
G1 X96.899 Y130.78 E3.61635
G1 X96.156 Y130.208 E3.64582
G1 X95.464 Y129.575 E3.6753
G1 X94.829 Y128.885 E3.70478
G1 X94.512 Y128.491 E3.72067
G1 X94.128 Y127.963 E3.74119
G1 X93.986 Y127.754 E3.74913
G1 X92.499 Y125.649 E3.83014
G1 X90.976 Y123.619 E3.9099
G1 X90.46 Y122.969 E3.93599
G1 X89.812 Y122.132 E3.96926
G1 X89.27 Y121.367 E3.99872
G1 X88.795 Y120.558 E4.02821
G1 X88.391 Y119.711 E4.05771
G1 X88.06 Y118.834 E4.08717
G1 X87.806 Y117.931 E4.11665
G1 X87.629 Y117.01 E4.14613
G1 X87.516 Y115.762 E4.18552
G1 X87.506 Y115.381 E4.1975
G1 X87.5 Y114.838 E4.21456
G1 X87.501 Y110.135 E4.36238
G1 X87.512 Y109.43 E4.38454
G1 X87.567 Y108.494 E4.41401
G1 X87.701 Y107.566 E4.44348
G1 X87.914 Y106.652 E4.47298
G1 X88.204 Y105.76 E4.50246
G1 X88.568 Y104.896 E4.53193
G1 X89.005 Y104.067 E4.56139
G1 X89.665 Y103.064 E4.59912
G1 X90.422 Y102.041 E4.63912
G1 X90.573 Y101.843 E4.64695
G1 X92.021 Y99.828 E4.72494
G1 X93.581 Y97.52 E4.8125
G1 X93.951 Y96.958 E4.83365
G1 X94.5 Y96.197 E4.86314
G1 X95.111 Y95.486 E4.89261
G0 F9000 X95.426 Y95.735
G1 F2100 X96.087 Y95.094 E4.92155
G1 X96.8 Y94.512 E4.95047
G1 X97.561 Y93.994 E4.97941
G1 X98.365 Y93.544 E5.00837
G1 X99.204 Y93.166 E5.03729
G1 X100.073 Y92.862 E5.06623
G1 X100.965 Y92.634 E5.09517
G1 X101.873 Y92.485 E5.12409
G1 X102.841 Y92.413 E5.1546
G1 X103.163 Y92.404 E5.16472
G1 X103.459 Y92.4 E5.17402
G1 X106.318 Y92.4 E5.26389
G1 X107.176 Y92.411 E5.29085
G1 X107.78 Y92.437 E5.30986
G1 X108.619 Y92.497 E5.33629
G1 X111.239 Y92.646 E5.41878
G1 X113.783 Y92.719 E5.49877
G1 X116.294 Y92.719 E5.57769
G1 X118.841 Y92.648 E5.65778
G1 X121.144 Y92.521 E5.73027
G1 X122.429 Y92.434 E5.77075
G1 X122.805 Y92.415 E5.78259
G1 X123.091 Y92.408 E5.79158
G1 X123.786 Y92.4 E5.81342
G1 X125.441 Y92.401 E5.86544
G1 X126.029 Y92.409 E5.88393
G1 X127.163 Y92.485 E5.91965
G1 X127.443 Y92.519 E5.92851
G1 X128.351 Y92.67 E5.95744
G1 X129.243 Y92.899 E5.98639
G1 X130.111 Y93.204 E6.01531
G1 X130.95 Y93.584 E6.04426
G1 X131.662 Y93.979 E6.06985
G1 X131.784 Y94.053 E6.07433
G1 X132.55 Y94.564 E6.10327
G1 X133.268 Y95.14 E6.13221
G1 X133.934 Y95.776 E6.16115
G1 X134.542 Y96.467 E6.19008
G1 X135.088 Y97.208 E6.21901
G1 X135.568 Y97.994 E6.24796
G1 X135.977 Y98.819 E6.2769
G1 X136.313 Y99.676 E6.30583
G1 X136.574 Y100.559 E6.33477
G1 X136.757 Y101.461 E6.3637
G1 X136.878 Y102.682 E6.40227
G1 X136.891 Y103.113 E6.41582
G1 X136.897 Y103.671 E6.43336
G1 X136.893 Y108.295 E6.57869
G1 X136.893 Y120.885 E6.97441
G1 X136.891 Y121.367 E6.98956
G1 X136.844 Y122.322 E7.01961
G1 X136.819 Y122.586 E7.02795
G1 X136.692 Y123.498 E7.05689
G1 X136.487 Y124.396 E7.08584
G1 X136.205 Y125.272 E7.11476
G1 X135.848 Y126.121 E7.14371
G1 X135.418 Y126.935 E7.17265
G1 X134.919 Y127.709 E7.20159
G1 X134.356 Y128.437 E7.23052
G1 X133.7 Y129.143 E7.26081
G1 X133.515 Y129.325 E7.26896
G1 X132.831 Y129.942 E7.29792
G1 X132.096 Y130.497 E7.32687
G1 X131.316 Y130.986 E7.3558
G1 X130.497 Y131.405 E7.38472
G1 X129.834 Y131.683 E7.40731
G1 X128.96 Y131.973 E7.43626
G1 X128.064 Y132.186 E7.4652
G1 X127.153 Y132.32 E7.49414
G1 X126.247 Y132.375 E7.52267
G1 X125.096 Y132.394 E7.55885
G1 X105.699 Y132.393 E8.16852
G1 X103.926 Y132.398 E8.22425
G1 X103.72 Y132.397 E8.23072
G1 X103.057 Y132.386 E8.25156
G1 X102.138 Y132.33 E8.2805
G1 X101.227 Y132.196 E8.30944
G1 X100.332 Y131.982 E8.33837
G1 X99.458 Y131.692 E8.36731
G1 X98.613 Y131.327 E8.39624
G1 X97.802 Y130.89 E8.42519
G1 X97.033 Y130.385 E8.45411
G1 X96.31 Y129.814 E8.48307
G1 X95.64 Y129.183 E8.512
G1 X94.845 Y128.268 E8.55009
G1 X94.459 Y127.737 E8.57073
G1 X94.33 Y127.548 E8.57792
G1 X92.83 Y125.423 E8.65967
G1 X91.293 Y123.375 E8.74016
G1 X90.776 Y122.724 E8.76628
G1 X90.128 Y121.887 E8.79955
G1 X89.597 Y121.135 E8.82849
G1 X89.133 Y120.34 E8.85742
G1 X88.739 Y119.508 E8.88636
G1 X88.419 Y118.645 E8.91528
G1 X88.176 Y117.757 E8.94422
G1 X88.01 Y116.851 E8.97317
G1 X87.916 Y115.749 E9.00793
G1 X87.906 Y115.377 E9.01963
G1 X87.9 Y114.838 E9.03657
G1 X87.901 Y110.142 E9.18417
G1 X87.912 Y109.437 E9.20633
G1 X87.967 Y108.518 E9.23527
G1 X88.1 Y107.607 E9.26421
G1 X88.313 Y106.711 E9.29315
G1 X88.602 Y105.837 E9.32209
G1 X88.966 Y104.991 E9.35104
G1 X89.402 Y104.18 E9.37998
G1 X89.987 Y103.301 E9.41316
G1 X90.741 Y102.283 E9.45298
G1 X90.883 Y102.096 E9.46036
G1 X92.361 Y100.04 E9.53995
G1 X93.88 Y97.793 E9.6252
G1 X94.285 Y97.178 E9.64834
G1 X94.824 Y96.432 E9.67727
G1 X95.426 Y95.735 E9.70621
G0 F9000 X95.741 Y95.985
G1 F2100 X96.391 Y95.358 E9.7346
G1 X97.094 Y94.791 E9.76299
G1 X97.845 Y94.289 E9.79138
G1 X98.637 Y93.855 E9.81977
G1 X99.464 Y93.493 E9.84814
G1 X100.32 Y93.206 E9.87652
G1 X101.199 Y92.995 E9.90493
G1 X102.092 Y92.863 E9.9333
G1 X102.852 Y92.813 E9.95724
G1 X103.174 Y92.804 E9.96737
G1 X103.459 Y92.8 E9.97632
G1 X106.318 Y92.8 E10.06619
G1 X107.171 Y92.811 E10.093
G1 X107.751 Y92.836 E10.11124
G1 X108.632 Y92.899 E10.13901
G1 X111.207 Y93.046 E10.22007
G1 X113.771 Y93.119 E10.30069
G1 X116.305 Y93.119 E10.38034
G1 X118.838 Y93.048 E10.45998
G1 X121.193 Y92.919 E10.53412
G1 X122.456 Y92.833 E10.5739
G1 X122.821 Y92.815 E10.58539
G1 X123.096 Y92.808 E10.59404
G1 X123.786 Y92.8 E10.61573
G1 X125.436 Y92.801 E10.66759
G1 X126.024 Y92.809 E10.68607
G1 X127.115 Y92.882 E10.72044
G1 X127.395 Y92.916 E10.7293
G1 X128.285 Y93.065 E10.75767
G1 X129.16 Y93.291 E10.78607
G1 X130.01 Y93.595 E10.81444
G1 X130.831 Y93.972 E10.84284
G1 X131.455 Y94.321 E10.86531
G1 X131.577 Y94.395 E10.8698
G1 X132.328 Y94.897 E10.89819
G1 X133.031 Y95.464 E10.92657
G1 X133.681 Y96.09 E10.95494
G1 X134.274 Y96.772 E10.98334
G1 X134.804 Y97.503 E11.01172
G1 X135.267 Y98.278 E11.0401
G1 X135.659 Y99.091 E11.06847
G1 X135.979 Y99.936 E11.09687
G1 X136.222 Y100.806 E11.12526
G1 X136.387 Y101.694 E11.15365
G1 X136.478 Y102.698 E11.18533
G1 X136.491 Y103.118 E11.19854
G1 X136.497 Y103.671 E11.21592
G1 X136.493 Y108.295 E11.36126
G1 X136.493 Y120.883 E11.75691
G1 X136.491 Y121.365 E11.77206
G1 X136.446 Y122.285 E11.80101
G1 X136.421 Y122.549 E11.80935
G1 X136.296 Y123.443 E11.83772
G1 X136.092 Y124.323 E11.86611
G1 X135.812 Y125.181 E11.89448
G1 X135.456 Y126.012 E11.92289
G1 X135.029 Y126.807 E11.95126
G1 X134.533 Y127.562 E11.97965
G1 X133.972 Y128.27 E12.00804
G1 X133.419 Y128.858 E12.03341
G1 X133.234 Y129.04 E12.04157
G1 X132.563 Y129.644 E12.06994
G1 X131.841 Y130.187 E12.09834
G1 X131.074 Y130.663 E12.12671
G1 X130.268 Y131.07 E12.15509
G1 X129.691 Y131.309 E12.17472
G1 X128.834 Y131.593 E12.2031
G1 X127.955 Y131.799 E12.23147
G1 X127.061 Y131.928 E12.25986
G1 X126.24 Y131.975 E12.28571
G1 X125.096 Y131.994 E12.32167
G1 X105.698 Y131.993 E12.93137
G1 X103.727 Y131.997 E12.99332
G1 X103.064 Y131.986 E13.01416
G1 X102.162 Y131.931 E13.04256
G1 X101.269 Y131.796 E13.07095
G1 X100.392 Y131.583 E13.09932
G1 X99.536 Y131.294 E13.12771
G1 X98.71 Y130.929 E13.1561
G1 X97.919 Y130.493 E13.18449
G1 X97.17 Y129.989 E13.21286
G1 X96.468 Y129.421 E13.24124
G1 X95.819 Y128.792 E13.26965
G1 X95.145 Y128.002 E13.30229
G1 X94.789 Y127.512 E13.32133
G1 X94.625 Y127.272 E13.33046
G1 X93.161 Y125.198 E13.41025
G1 X91.611 Y123.132 E13.49143
G1 X91.093 Y122.479 E13.51763
G1 X90.445 Y121.642 E13.5509
G1 X89.924 Y120.904 E13.5793
G1 X89.471 Y120.123 E13.60767
G1 X89.088 Y119.305 E13.63606
G1 X88.779 Y118.456 E13.66446
G1 X88.547 Y117.584 E13.69282
G1 X88.393 Y116.694 E13.72121
G1 X88.316 Y115.736 E13.75142
G1 X88.306 Y115.372 E13.76286
G1 X88.3 Y114.838 E13.77965
G1 X88.301 Y110.148 E13.92706
G1 X88.312 Y109.443 E13.94922
G1 X88.366 Y108.541 E13.97762
G1 X88.5 Y107.648 E14.006
G1 X88.712 Y106.77 E14.03439
G1 X89.001 Y105.915 E14.06276
G1 X89.364 Y105.088 E14.09115
G1 X89.799 Y104.297 E14.11952
G1 X90.308 Y103.539 E14.14822
G1 X90.971 Y102.642 E14.18328
G1 X91.193 Y102.35 E14.19481
G1 X92.689 Y100.268 E14.27539
G1 X94.244 Y97.968 E14.36265
G1 X94.619 Y97.398 E14.38409
G1 X95.149 Y96.667 E14.41247
G1 X95.741 Y95.985 E14.44086
G1 F2100 E12.94086
;MESH:light bracket v3.stl
G0 F9000 X102.464 Y103.414
G0 X103.543 Y103.414
G0 X106.804 Y103.782
G0 X106.986 Y119.661
;TYPE:WALL-INNER
G1 F2100 E14.44086
G1 X123.186 Y119.661 E14.95004
G1 X123.186 Y103.634 E15.45378
G1 X123.268 Y103.6 E15.45657
G1 X125.697 Y103.6 E15.53292
G1 X125.693 Y108.286 E15.6802
G1 X125.693 Y121.195 E16.08594
G1 X123.459 Y121.193 E16.15616
G1 X105.67 Y121.193 E16.71528
G1 X103.729 Y121.198 E16.77629
G1 X103.729 Y113.4 E17.02139
G1 X100.279 Y113.4 E17.12982
G1 X100.279 Y115.85 E17.20683
G1 X100.279 Y116.331 E17.22195
G1 X99.939 Y115.991 E17.23007
G1 X99.1 Y115.152 E17.26736
G1 X99.1 Y109.848 E17.43407
G1 X99.939 Y109.009 E17.47136
G1 X100.279 Y108.669 E17.48648
G1 X100.279 Y109.15 E17.49462
G1 X100.279 Y111.6 E17.57162
G1 X103.729 Y111.6 E17.68006
G1 X103.729 Y103.6 E17.93151
G1 X106.903 Y103.6 E18.03127
G1 X106.986 Y103.634 E18.03409
G1 X106.986 Y119.661 E18.53783
G0 F9000 X107.386 Y119.261
;TYPE:WALL-OUTER
G1 F2100 X122.786 Y119.261 E19.02186
G1 X122.786 Y103.861 E19.5059
G1 X121.592 Y103.861 E19.54343
G1 X123.187 Y103.2 E19.59769
G1 X125.992 Y103.2 E19.68586
G1 X126.097 Y103.219 E19.68921
G1 X126.093 Y108.286 E19.84847
G1 X126.093 Y121.505 E20.26396
G1 X126.001 Y121.595 E20.268
G1 X123.459 Y121.593 E20.3479
G1 X105.67 Y121.593 E20.90702
G1 X103.848 Y121.598 E20.96429
G1 X103.347 Y121.597 E20.98003
G1 X103.329 Y121.5 E20.98314
G1 X103.329 Y113.8 E21.22515
G1 X100.679 Y113.8 E21.30844
G1 X100.679 Y117.297 E21.41836
G1 X98.7 Y115.318 E21.50632
G1 X98.7 Y109.682 E21.68347
G1 X100.679 Y107.703 E21.77144
G1 X100.679 Y111.2 E21.88135
G1 X103.329 Y111.2 E21.96464
G1 X103.329 Y103.2 E22.21609
G1 X106.984 Y103.2 E22.33097
G1 X108.58 Y103.861 E22.38526
G1 X107.386 Y103.861 E22.42279
G1 X107.386 Y119.261 E22.90683
G0 F9000 X107.086 Y119.261
G0 X106.846 Y119.801
G0 X106.596 Y120.051
;TYPE:SKIN
G1 F2100 X123.576 Y120.051 E23.44052
G1 X123.576 Y103.99 E23.94533
G1 X125.307 Y103.99 E23.99974
G1 X125.303 Y108.286 E24.13477
G1 X125.303 Y120.805 E24.52825
G1 X123.459 Y120.803 E24.58621
G1 X105.67 Y120.803 E25.14533
G1 X104.119 Y120.807 E25.19408
G1 X104.119 Y113.01 E25.43914
G1 X99.889 Y113.01 E25.5721
G1 X99.889 Y115.391 E25.64693
G1 X99.49 Y114.992 E25.66467
G1 X99.49 Y110.008 E25.82132
G1 X99.889 Y109.609 E25.83906
G1 X99.889 Y111.99 E25.91389
G1 X104.119 Y111.99 E26.04685
G1 X104.119 Y103.99 E26.29829
G1 X106.596 Y103.99 E26.37615
G1 X106.596 Y120.051 E26.88096
G1 F2100 E25.38096
G0 F9000 X106.846 Y119.801
G0 X106.804 Y103.782
G0 X103.911 Y103.782
G0 X103.911 Y111.782
G0 X100.097 Y111.782
G0 X100.084 Y109.139
G0 X99.274 Y109.919
G0 X99.274 Y115.081
G0 X100.084 Y115.861
G0 X100.097 Y113.218
G0 X103.911 Y113.218
G0 X103.911 Y121.015
G0 X104.804 Y121.085
G1 F2100 E26.88096
G0 F9000 X104.804 Y120.643
G1 F2100 X104.278 Y120.117 E26.90434
G0 F9000 X104.278 Y119.551
G1 F2100 X105.368 Y120.642 E26.95281
G0 F9000 X105.934 Y120.642
G1 F2100 X104.278 Y118.986 E27.02642
G0 F9000 X104.278 Y118.42
G1 F2100 X106.5 Y120.642 E27.12519
G0 F9000 X106.634 Y120.21
G1 F2100 X107.065 Y120.642 E27.14437
G0 F9000 X107.2 Y120.21
G1 F2100 X107.631 Y120.642 E27.16355
G0 F9000 X107.765 Y120.21
G1 F2100 X108.197 Y120.642 E27.18275
G0 F9000 X108.331 Y120.21
G1 F2100 X108.762 Y120.642 E27.20193
G0 F9000 X108.897 Y120.21
G1 F2100 X109.328 Y120.642 E27.22111
G0 F9000 X109.462 Y120.21
G1 F2100 X109.894 Y120.642 E27.24031
G0 F9000 X110.028 Y120.21
G1 F2100 X110.459 Y120.642 E27.25949
G0 F9000 X110.594 Y120.21
G1 F2100 X111.025 Y120.642 E27.27867
G0 F9000 X111.16 Y120.21
G1 F2100 X111.591 Y120.642 E27.29785
G0 F9000 X111.725 Y120.21
G1 F2100 X112.157 Y120.642 E27.31705
G0 F9000 X112.291 Y120.21
G1 F2100 X112.722 Y120.642 E27.33623
G0 F9000 X112.857 Y120.21
G1 F2100 X113.288 Y120.642 E27.35542
G0 F9000 X113.422 Y120.21
G1 F2100 X113.854 Y120.642 E27.37462
G0 F9000 X113.988 Y120.21
G1 F2100 X114.419 Y120.642 E27.3938
G0 F9000 X114.554 Y120.21
G1 F2100 X114.985 Y120.642 E27.41298
G0 F9000 X115.119 Y120.21
G1 F2100 X115.551 Y120.642 E27.43218
G0 F9000 X115.685 Y120.21
G1 F2100 X116.116 Y120.642 E27.45136
G0 F9000 X116.251 Y120.21
G1 F2100 X116.682 Y120.642 E27.47054
G0 F9000 X116.816 Y120.21
G1 F2100 X117.248 Y120.642 E27.48974
G0 F9000 X117.382 Y120.21
G1 F2100 X117.813 Y120.642 E27.50892
G0 F9000 X117.948 Y120.21
G1 F2100 X118.379 Y120.642 E27.5281
G0 F9000 X118.513 Y120.21
G1 F2100 X118.945 Y120.642 E27.54731
G0 F9000 X119.079 Y120.21
G1 F2100 X119.51 Y120.642 E27.56649
G0 F9000 X119.645 Y120.21
G1 F2100 X120.076 Y120.642 E27.58567
