;FLAVOR:Marlin
;TIME:2969
;Filament used: 3.65952m
;Layer height: 0.2
;MINX:87.5
;MINY:71.703
;MINZ:0.2
;MAXX:137.298
;MAXY:133
;MAXZ:25
;POSTPROCESSED
;Generated with Cura_SteamEngine 4.13.1
;
;

M82 ;absolute extrusion mode
; Ender 3 Custom Start G-code
M117 Getting the bed up to temp!
M140 S55.0 ; Set Heat Bed temperature
M190 S55.0 ; Wait for Heat Bed temperature
M117 Pre-heating the extruder!
M104 S160; start warming extruder to 160
G28 ; Home all axes
M117 Auto bed-level GO!
G29 ; Auto bed-level (BL-Touch)
G92 E0 ; Reset Extruder
M117 Getting the extruder up to temp!
M104 S210 ; Set Extruder temperature
M109 S210 ; Wait for Extruder temperature
G1 Z2.0 F3000 ; move z up little to prevent scratching of surface
G1 X0.1 Y20 Z0.3 F5000.0 ; move to start-line position
M117 LET THE PURGE BEGIN!
G1 X0.1 Y200.0 Z0.3 F1500.0 E15 ; draw 1st line
G1 X0.4 Y200.0 Z0.3 F5000.0 ; move to side a little
G1 X0.4 Y20 Z0.3 F1500.0 E30 ; draw 2nd line
G92 E0 ; reset extruder
G1 Z1.0 F3000 ; move z up little to prevent scratching of surface
G1 X5 Y20 Z0.3 F5000.0 ; Move over to prevent blob squish
M117 Autobots! Roll Out!
; End of custom start GCode
G92 E0
G92 E0
G1 F2100 E-1.5
;LAYER_COUNT:125
;LAYER:0
M107
G0 F9000 X94.621 Y75.884 Z0.2
;TYPE:SKIRT
G1 F2100 E0
G1 X94.723 Y75.759 E0.00507
G1 X95.347 Y75.058 E0.03457
G1 X96.028 Y74.413 E0.06405
G1 X96.761 Y73.828 E0.09353
G1 X97.541 Y73.308 E0.12299
G1 X98.363 Y72.856 E0.15248
G1 X99.221 Y72.476 E0.18197
G1 X100.107 Y72.17 E0.21143
G1 X101.017 Y71.941 E0.24093
G1 X101.942 Y71.791 E0.27038
G1 X102.813 Y71.722 E0.29784
G1 X103.241 Y71.709 E0.3113
G1 X103.8 Y71.703 E0.32887
G1 X108.3 Y71.707 E0.47031
G1 X125.459 Y71.707 E1.00963
G1 X126.168 Y71.717 E1.03192
G1 X127.104 Y71.77 E1.06138
G1 X128.033 Y71.903 E1.09088
G1 X128.947 Y72.114 E1.12036
G1 X129.839 Y72.403 E1.14983
G1 X130.704 Y72.766 E1.17932
G1 X131.296 Y73.068 E1.20021
G1 X131.517 Y73.189 E1.20813
G1 X132.319 Y73.674 E1.23759
G1 X133.078 Y74.225 E1.26706
G1 X133.787 Y74.84 E1.29656
G1 X134.44 Y75.512 E1.32602
G1 X135.034 Y76.238 E1.3555
G1 X135.565 Y77.011 E1.38498
G1 X136.027 Y77.827 E1.41445
G1 X136.418 Y78.68 E1.44394
G1 X136.781 Y79.712 E1.47833
G1 X136.829 Y79.874 E1.48364
G1 X137.057 Y80.784 E1.51312
G1 X137.206 Y81.71 E1.5426
G1 X137.281 Y82.825 E1.57773
G1 X137.293 Y83.582 E1.60152
G1 X137.293 Y98.858 E2.08166
G1 X137.298 Y100.65 E2.13798
G1 X137.293 Y101.045 E2.1504
G1 X137.293 Y104.099 E2.24639
G1 X137.293 Y119.358 E2.72599
G1 X137.297 Y121.36 E2.78892
G1 X137.286 Y122.066 E2.81111
G1 X137.231 Y123.003 E2.84061
G1 X137.097 Y123.931 E2.87008
G1 X136.884 Y124.844 E2.89955
G1 X136.594 Y125.736 E2.92903
G1 X136.23 Y126.6 E2.9585
G1 X135.793 Y127.43 E2.98798
G1 X135.287 Y128.22 E3.01747
G1 X134.715 Y128.963 E3.04694
G1 X134.083 Y129.656 E3.07642
G1 X133.393 Y130.292 E3.10591
G1 X132.652 Y130.866 E3.13537
G1 X131.865 Y131.376 E3.16485
G1 X131.037 Y131.817 E3.19434
G1 X130.54 Y132.04 E3.21146
G1 X130.342 Y132.123 E3.2182
G1 X129.462 Y132.448 E3.24769
G1 X128.558 Y132.697 E3.27716
G1 X127.636 Y132.869 E3.30664
G1 X126.311 Y132.976 E3.34842
G1 X125.219 Y132.998 E3.38275
G1 X124.997 Y133 E3.38973
G1 X123.698 Y132.999 E3.43056
G1 X122.989 Y132.989 E3.45284
G1 X122.363 Y132.962 E3.47254
G1 X121.504 Y132.901 E3.49961
G1 X118.897 Y132.752 E3.58168
G1 X116.412 Y132.681 E3.65982
G1 X113.888 Y132.681 E3.73915
G1 X111.323 Y132.753 E3.8198
G1 X109.089 Y132.875 E3.89012
G1 X107.743 Y132.967 E3.93253
G1 X107.152 Y132.991 E3.95112
G1 X106.435 Y133 E3.97365
G1 X103.679 Y132.999 E4.06028
G1 X102.977 Y132.989 E4.08234
G1 X102.041 Y132.936 E4.11181
G1 X101.113 Y132.803 E4.14128
G1 X100.199 Y132.591 E4.17077
G1 X99.306 Y132.303 E4.20026
G1 X98.442 Y131.939 E4.22973
G1 X97.611 Y131.503 E4.25922
G1 X96.821 Y130.998 E4.28869
G1 X96.077 Y130.428 E4.31815
G1 X95.384 Y129.796 E4.34763
G1 X94.747 Y129.107 E4.37712
G1 X94.013 Y128.139 E4.41531
G1 X93.673 Y127.633 E4.43447
G1 X92.717 Y126.178 E4.48919
G1 X91.304 Y124.151 E4.56685
G1 X90.181 Y122.644 E4.62592
G1 X89.615 Y121.866 E4.65616
G1 X89.096 Y121.085 E4.68563
G1 X88.646 Y120.262 E4.71512
G1 X88.267 Y119.404 E4.7446
G1 X87.962 Y118.517 E4.77408
G1 X87.735 Y117.607 E4.80356
G1 X87.585 Y116.682 E4.83301
G1 X87.516 Y115.766 E4.86188
G1 X87.506 Y115.381 E4.87399
G1 X87.5 Y114.838 E4.89105
G1 X87.501 Y110.151 E5.03837
G1 X87.511 Y109.444 E5.0606
G1 X87.538 Y108.82 E5.08023
G1 X87.55 Y108.653 E5.08549
G1 X87.696 Y106.065 E5.16696
G1 X87.768 Y103.57 E5.24541
G1 X87.768 Y101.045 E5.32478
G1 X87.696 Y98.476 E5.40555
G1 X87.595 Y96.584 E5.46511
G1 X87.532 Y95.6 E5.4961
G1 X87.516 Y95.263 E5.5067
G1 X87.506 Y94.882 E5.51868
G1 X87.5 Y94.339 E5.53575
G1 X87.501 Y89.651 E5.6831
G1 X87.511 Y88.948 E5.70519
G1 X87.564 Y88.011 E5.73469
G1 X87.697 Y87.083 E5.76416
G1 X87.909 Y86.169 E5.79365
G1 X88.197 Y85.277 E5.82311
G1 X88.561 Y84.412 E5.85261
G1 X88.997 Y83.582 E5.88207
G1 X89.502 Y82.791 E5.91157
G1 X89.851 Y82.32 E5.93
G1 X90.54 Y81.441 E5.9651
G1 X92.124 Y79.358 E6.04735
G1 X93.575 Y77.336 E6.12557
G1 X93.935 Y76.808 E6.14566
G1 X94.097 Y76.577 E6.15453
G1 X94.218 Y76.409 E6.16103
G1 X94.621 Y75.884 E6.18184
G0 F9000 X94.931 Y76.136
G1 F2100 X95.033 Y76.011 E6.18691
G1 X95.646 Y75.324 E6.21585
G1 X96.316 Y74.692 E6.2448
G1 X97.038 Y74.121 E6.27373
G1 X97.807 Y73.615 E6.30266
G1 X98.617 Y73.177 E6.3316
G1 X99.461 Y72.812 E6.36051
G1 X100.335 Y72.521 E6.38946
G1 X101.23 Y72.306 E6.41839
G1 X102.141 Y72.171 E6.44734
G1 X102.829 Y72.121 E6.46902
G1 X103.246 Y72.109 E6.48213
G1 X103.799 Y72.103 E6.49951
G1 X108.299 Y72.107 E6.64095
G1 X125.453 Y72.107 E7.18012
G1 X126.162 Y72.117 E7.2024
G1 X127.082 Y72.17 E7.23137
G1 X127.993 Y72.303 E7.2603
G1 X128.889 Y72.514 E7.28924
G1 X129.763 Y72.802 E7.31816
G1 X130.609 Y73.164 E7.34708
G1 X131.104 Y73.418 E7.36457
G1 X131.325 Y73.539 E7.37249
G1 X132.112 Y74.016 E7.40141
G1 X132.855 Y74.559 E7.43034
G1 X133.549 Y75.165 E7.4593
G1 X134.187 Y75.829 E7.48824
G1 X134.765 Y76.545 E7.51716
G1 X135.279 Y77.309 E7.5461
G1 X135.724 Y78.115 E7.57504
G1 X136.098 Y78.956 E7.60397
G1 X136.397 Y79.826 E7.63288
G1 X136.445 Y79.988 E7.6382
G1 X136.668 Y80.881 E7.66713
G1 X136.813 Y81.79 E7.69606
G1 X136.881 Y82.831 E7.72885
G1 X136.894 Y83.757 E7.75795
G1 X136.893 Y98.858 E8.23259
G1 X136.898 Y100.651 E8.28895
G1 X136.893 Y101.038 E8.30111
G1 X136.893 Y104.106 E8.39754
G1 X136.893 Y119.358 E8.87692
G1 X136.897 Y121.354 E8.93966
G1 X136.886 Y122.06 E8.96185
G1 X136.831 Y122.979 E8.99079
G1 X136.698 Y123.89 E9.01973
G1 X136.485 Y124.786 E9.04867
G1 X136.196 Y125.66 E9.07761
G1 X135.832 Y126.505 E9.10653
G1 X135.396 Y127.316 E9.13547
G1 X134.891 Y128.086 E9.16441
G1 X134.321 Y128.809 E9.19335
G1 X133.691 Y129.481 E9.2223
G1 X133.005 Y130.094 E9.25121
G1 X132.268 Y130.646 E9.28015
G1 X131.486 Y131.132 E9.30909
G1 X130.385 Y131.671 E9.34762
G1 X130.187 Y131.754 E9.35437
G1 X129.323 Y132.073 E9.38332
G1 X128.435 Y132.315 E9.41225
G1 X127.529 Y132.48 E9.44119
G1 X126.303 Y132.576 E9.47984
G1 X125.211 Y132.598 E9.51417
G1 X124.997 Y132.6 E9.5209
G1 X123.704 Y132.599 E9.56154
G1 X122.995 Y132.589 E9.58383
G1 X122.391 Y132.563 E9.60283
G1 X121.552 Y132.503 E9.62927
G1 X118.932 Y132.354 E9.71175
G1 X116.388 Y132.281 E9.79174
G1 X113.877 Y132.281 E9.87066
G1 X111.327 Y132.352 E9.95084
G1 X108.966 Y132.482 E10.02516
G1 X107.716 Y132.567 E10.06454
G1 X107.146 Y132.591 E10.08248
G1 X106.435 Y132.6 E10.10482
G1 X103.685 Y132.599 E10.19126
G1 X102.983 Y132.589 E10.21333
G1 X102.064 Y132.536 E10.24226
G1 X101.153 Y132.403 E10.2712
G1 X100.257 Y132.192 E10.30013
G1 X99.382 Y131.904 E10.32908
G1 X98.536 Y131.541 E10.35802
G1 X97.725 Y131.106 E10.38694
G1 X96.954 Y130.602 E10.41589
G1 X96.23 Y130.034 E10.44482
G1 X95.558 Y129.404 E10.47377
G1 X94.944 Y128.719 E10.50268
G1 X94.345 Y127.916 E10.53417
G1 X94.007 Y127.414 E10.55319
G1 X93.047 Y125.952 E10.60816
G1 X91.629 Y123.919 E10.68607
G1 X90.504 Y122.409 E10.74526
G1 X89.938 Y121.631 E10.7755
G1 X89.43 Y120.864 E10.80441
G1 X88.989 Y120.055 E10.83337
G1 X88.621 Y119.211 E10.86231
G1 X88.327 Y118.339 E10.89123
G1 X88.11 Y117.444 E10.92018
G1 X87.971 Y116.534 E10.94911
G1 X87.916 Y115.753 E10.97372
G1 X87.906 Y115.377 E10.98554
G1 X87.9 Y114.838 E11.00249
G1 X87.901 Y110.157 E11.14961
G1 X87.911 Y109.45 E11.17184
G1 X87.937 Y108.848 E11.19078
G1 X87.947 Y108.705 E11.19528
G1 X88.095 Y106.098 E11.27735
G1 X88.168 Y103.546 E11.3576
G1 X88.168 Y101.034 E11.43655
G1 X88.097 Y98.481 E11.51683
G1 X87.988 Y96.446 E11.58088
G1 X87.932 Y95.574 E11.60834
G1 X87.916 Y95.25 E11.61854
G1 X87.906 Y94.877 E11.63027
G1 X87.9 Y94.339 E11.64718
G1 X87.901 Y89.656 E11.79437
G1 X87.911 Y88.953 E11.81647
G1 X87.964 Y88.034 E11.8454
G1 X88.097 Y87.123 E11.87434
G1 X88.308 Y86.227 E11.90327
G1 X88.596 Y85.353 E11.93219
G1 X88.959 Y84.506 E11.96116
G1 X89.394 Y83.695 E11.99008
G1 X90.166 Y82.567 E12.03305
G1 X90.827 Y81.723 E12.06674
G1 X92.452 Y79.588 E12.15107
G1 X93.911 Y77.554 E12.22975
G1 X94.266 Y77.033 E12.24956
G1 X94.543 Y76.643 E12.2646
G1 X94.931 Y76.136 E12.28466
G0 F9000 X95.241 Y76.389
G1 F2100 X95.343 Y76.264 E12.28974
G1 X95.945 Y75.591 E12.31812
G1 X96.603 Y74.973 E12.34649
G1 X97.314 Y74.415 E12.3749
G1 X98.071 Y73.923 E12.40327
G1 X98.869 Y73.5 E12.43166
G1 X99.701 Y73.149 E12.46004
G1 X100.561 Y72.873 E12.48843
G1 X101.442 Y72.674 E12.51682
G1 X102.337 Y72.554 E12.5452
G1 X102.845 Y72.521 E12.5612
G1 X103.251 Y72.509 E12.57397
G1 X103.799 Y72.503 E12.5912
G1 X108.299 Y72.507 E12.73263
G1 X125.448 Y72.507 E13.27164
G1 X126.157 Y72.517 E13.29393
G1 X127.058 Y72.57 E13.3223
G1 X127.952 Y72.702 E13.3507
G1 X128.83 Y72.913 E13.37908
G1 X129.686 Y73.2 E13.40746
G1 X130.911 Y73.769 E13.44991
G1 X131.132 Y73.89 E13.45783
G1 X131.905 Y74.359 E13.48625
G1 X132.632 Y74.893 E13.5146
G1 X133.31 Y75.49 E13.543
G1 X133.932 Y76.145 E13.57139
G1 X134.494 Y76.852 E13.59977
G1 X134.991 Y77.606 E13.62816
G1 X135.419 Y78.401 E13.65654
G1 X135.775 Y79.231 E13.68492
G1 X136.014 Y79.939 E13.70841
G1 X136.062 Y80.101 E13.71372
G1 X136.28 Y80.978 E13.74212
G1 X136.419 Y81.87 E13.7705
G1 X136.481 Y82.837 E13.80095
G1 X136.494 Y83.757 E13.82987
G1 X136.493 Y98.858 E14.30451
G1 X136.497 Y100.852 E14.36718
G1 X136.493 Y101.091 E14.3747
G1 X136.493 Y104.112 E14.46965
G1 X136.493 Y119.358 E14.94884
G1 X136.497 Y121.348 E15.01139
G1 X136.486 Y122.054 E15.03358
G1 X136.432 Y122.955 E15.06195
G1 X136.298 Y123.849 E15.09037
G1 X136.086 Y124.726 E15.11872
G1 X135.797 Y125.582 E15.14712
G1 X135.434 Y126.409 E15.17551
G1 X134.999 Y127.2 E15.20388
G1 X134.495 Y127.95 E15.23228
G1 X133.928 Y128.652 E15.26065
G1 X133.3 Y129.302 E15.28905
G1 X132.617 Y129.893 E15.31744
G1 X131.885 Y130.422 E15.34583
G1 X131.109 Y130.883 E15.3742
G1 X130.23 Y131.302 E15.4048
G1 X130.032 Y131.385 E15.41155
G1 X129.185 Y131.697 E15.43992
G1 X128.313 Y131.933 E15.46832
G1 X127.424 Y132.09 E15.49669
G1 X126.294 Y132.176 E15.53231
G1 X125.202 Y132.198 E15.56664
G1 X124.997 Y132.2 E15.57308
G1 X123.709 Y132.199 E15.61357
G1 X123 Y132.189 E15.63585
G1 X122.42 Y132.164 E15.6541
G1 X121.539 Y132.101 E15.68186
G1 X118.964 Y131.954 E15.76293
G1 X116.4 Y131.881 E15.84355
G1 X113.866 Y131.881 E15.92319
G1 X111.331 Y131.952 E16.0029
G1 X108.919 Y132.084 E16.07883
G1 X107.689 Y132.168 E16.11758
G1 X107.141 Y132.191 E16.13482
G1 X106.435 Y132.2 E16.15701
G1 X103.691 Y132.199 E16.24325
G1 X102.989 Y132.189 E16.26532
G1 X102.087 Y132.136 E16.29372
G1 X101.194 Y132.004 E16.32209
G1 X100.316 Y131.793 E16.35048
G1 X99.46 Y131.505 E16.37886
G1 X98.632 Y131.143 E16.40727
G1 X97.84 Y130.709 E16.43565
G1 X97.09 Y130.206 E16.46403
G1 X96.387 Y129.64 E16.4924
G1 X95.737 Y129.013 E16.52079
G1 X95.145 Y128.331 E16.54917
G1 X94.677 Y127.692 E16.57407
G1 X94.342 Y127.194 E16.59293
G1 X93.393 Y125.75 E16.64724
G1 X91.95 Y123.681 E16.72653
G1 X90.828 Y122.174 E16.78558
G1 X90.262 Y121.396 E16.81582
G1 X89.763 Y120.643 E16.84421
G1 X89.333 Y119.848 E16.87262
G1 X88.976 Y119.019 E16.90099
G1 X88.692 Y118.162 E16.92937
G1 X88.486 Y117.282 E16.95777
G1 X88.358 Y116.388 E16.98616
G1 X88.316 Y115.739 E17.0066
G1 X88.306 Y115.372 E17.01814
G1 X88.3 Y114.838 E17.03492
G1 X88.301 Y110.163 E17.18186
G1 X88.311 Y109.456 E17.20409
G1 X88.336 Y108.876 E17.22233
G1 X88.345 Y108.752 E17.22624
G1 X88.495 Y106.097 E17.30982
G1 X88.568 Y103.558 E17.38966
G1 X88.568 Y101.023 E17.46934
G1 X88.496 Y98.449 E17.55027
G1 X88.394 Y96.533 E17.61058
G1 X88.331 Y95.549 E17.64157
G1 X88.316 Y95.237 E17.65139
G1 X88.306 Y94.872 E17.66286
G1 X88.3 Y94.339 E17.67962
G1 X88.301 Y89.662 E17.82662
G1 X88.311 Y88.959 E17.84872
G1 X88.364 Y88.057 E17.87712
G1 X88.496 Y87.164 E17.90549
G1 X88.707 Y86.286 E17.93387
G1 X88.995 Y85.43 E17.96226
G1 X89.357 Y84.603 E17.99063
G1 X89.791 Y83.811 E18.01902
G1 X90.481 Y82.814 E18.05713
G1 X91.175 Y81.928 E18.0925
G1 X92.75 Y79.858 E18.17426
G1 X94.24 Y77.78 E18.25462
G1 X94.596 Y77.259 E18.27446
G1 X94.746 Y77.045 E18.28267
G1 X94.867 Y76.877 E18.28918
G1 X95.241 Y76.389 E18.3085
G1 F2100 E16.8085
;MESH:light bracket v2.stl(1)
G0 F9000 X100.464 Y86.196
G0 X101.222 Y86.953
G0 X99.274 Y89.419
G0 X99.274 Y94.581
G0 X100.834 Y96.111
G0 X100.847 Y92.718
G0 X103.613 Y92.726
G0 X103.911 Y100.718
G0 X106.986 Y100.866
;TYPE:WALL-INNER
G1 F2100 E18.3085
G1 X106.903 Y100.9 E18.31132
G1 X103.729 Y100.9 E18.41108
G1 X103.729 Y92.9 E18.66253
G1 X101.029 Y92.9 E18.74739
G1 X101.029 Y96.1 E18.84797
G1 X101.029 Y96.581 E18.86309
G1 X100.689 Y96.241 E18.87121
G1 X99.1 Y94.652 E18.94184
G1 X99.1 Y89.348 E19.10855
G1 X100.689 Y87.759 E19.17918
G1 X101.029 Y87.419 E19.1943
G1 X101.029 Y87.9 E19.20244
G1 X101.029 Y91.1 E19.30302
G1 X103.729 Y91.1 E19.38788
G1 X103.729 Y83.303 E19.63295
G1 X108.211 Y83.307 E19.77382
G1 X125.694 Y83.306 E20.32332
G1 X125.693 Y98.858 E20.81214
G1 X125.698 Y100.9 E20.87632
G1 X123.268 Y100.9 E20.9527
G1 X123.186 Y100.866 E20.95549
G1 X123.186 Y84.839 E21.45923
G1 X106.986 Y84.839 E21.96841
G1 X106.986 Y100.866 E22.47215
G0 F9000 X107.386 Y100.639
;TYPE:WALL-OUTER
G1 F2100 X108.58 Y100.639 E22.50968
G1 X106.984 Y101.3 E22.56397
G1 X103.329 Y101.3 E22.67885
G1 X103.329 Y93.3 E22.9303
G1 X101.429 Y93.3 E22.99002
G1 X101.429 Y97.547 E23.1235
G1 X98.7 Y94.818 E23.24481
G1 X98.7 Y89.182 E23.42195
G1 X101.429 Y86.453 E23.54326
G1 X101.429 Y90.7 E23.67674
G1 X103.329 Y90.7 E23.73646
G1 X103.329 Y83.008 E23.97823
G1 X103.347 Y82.903 E23.98158
G1 X108.211 Y82.907 E24.13446
G1 X126.003 Y82.906 E24.69367
G1 X126.076 Y82.948 E24.69632
G1 X126.094 Y83.012 E24.69841
G1 X126.093 Y98.857 E25.19643
G1 X126.098 Y100.755 E25.25609
G1 X126.097 Y101.281 E25.27262
G1 X125.992 Y101.3 E25.27597
G1 X123.187 Y101.3 E25.36414
G1 X121.592 Y100.639 E25.4184
G1 X122.786 Y100.639 E25.45593
G1 X122.786 Y85.239 E25.93997
G1 X107.386 Y85.239 E26.424
G1 X107.386 Y100.639 E26.90804
G0 F9000 X106.596 Y100.51
;TYPE:SKIN
G1 F2100 X104.119 Y100.51 E26.98589
G1 X104.119 Y92.51 E27.23734
G1 X100.639 Y92.51 E27.34672
G1 X100.639 Y95.641 E27.44513
G1 X99.49 Y94.492 E27.4962
G1 X99.49 Y89.508 E27.65285
G1 X100.639 Y88.359 E27.70392
G1 X100.639 Y91.49 E27.80233
G1 X104.119 Y91.49 E27.91171
G1 X104.119 Y83.693 E28.15678
G1 X108.211 Y83.697 E28.28539
G1 X125.304 Y83.696 E28.82264
G1 X125.303 Y98.858 E29.29919
G1 X125.307 Y100.51 E29.35112
G1 X123.576 Y100.51 E29.40553
G1 X123.576 Y84.449 E29.91034
G1 X106.596 Y84.449 E30.44403
G1 X106.596 Y100.51 E30.94884
G0 F9000 X106.876 Y100.51
G0 X104.875 Y100.79
G0 X104.875 Y100.349
G1 F2100 X104.278 Y99.752 E30.97538
G0 F9000 X104.278 Y99.187
G1 F2100 X105.44 Y100.349 E31.02703
G0 F9000 X106.006 Y100.349
G1 F2100 X104.278 Y98.621 E31.10384
G0 F9000 X104.278 Y98.055
G1 F2100 X106.435 Y100.212 E31.19972
G0 F9000 X106.435 Y99.646
G1 F2100 X104.278 Y97.49 E31.29557
G0 F9000 X104.278 Y96.924
G1 F2100 X106.435 Y99.081 E31.39145
G0 F9000 X106.435 Y98.515
G1 F2100 X104.278 Y96.358 E31.48733
G0 F9000 X104.278 Y95.793
G1 F2100 X106.435 Y97.949 E31.58319
G0 F9000 X106.435 Y97.384
G1 F2100 X104.278 Y95.227 E31.67906
G0 F9000 X104.278 Y94.661
G1 F2100 X106.435 Y96.818 E31.77494
G0 F9000 X106.435 Y96.252
