;FLAVOR:Marlin
;TIME:3988
;Filament used: 3.45619m
;Layer height: 0.22
;MINX:62.112
;MINY:86.422
;MINZ:0.2
;MAXX:145.351
;MAXY:140.58
;MAXZ:26.6
;POSTPROCESSED
;Generated with Cura_SteamEngine 4.13.1
;
;

M82 ;absolute extrusion mode
; Ender 3 Custom Start G-code
M117 Getting the bed up to temp!
M140 S55.0 ; Set Heat Bed temperature
M190 S55.0 ; Wait for Heat Bed temperature
M117 Pre-heating the extruder!
M104 S210; start warming extruder to 160
G28 ; Home all axes
M117 Auto bed-level GO!
G29 ; Auto bed-level (BL-Touch)
G92 E0 ; Reset Extruder
M117 Getting the extruder up to temp!
M104 S210 ; Set Extruder temperature
M109 S210 ; Wait for Extruder temperature
G1 Z2.0 F3000 ; move z up little to prevent scratching of surface
G1 X0.1 Y20 Z0.3 F5000.0 ; move to start-line position
M117 LET THE PURGE BEGIN!
SET_GCODE_OFFSET Z=-.005
G1 X0.1 Y200.0 Z0.3 F1500.0 E15 ; draw 1st line
G1 X0.4 Y200.0 Z0.3 F5000.0 ; move to side a little
G1 X0.4 Y20 Z0.3 F1500.0 E30 ; draw 2nd line
G92 E0 ; reset extruder
G1 Z1.0 F3000 ; move z up little to prevent scratching of surface
G1 X5 Y20 Z0.3 F5000.0 ; Move over to prevent blob squish
; SET_GCODE_OFFSET Z=+.075
M117 Autobots! Roll Out!
; End of custom start GCode
G92 E0
G92 E0
G1 F2700 E-3.5
;LAYER_COUNT:121
;LAYER:0
M107
G0 F6000 X69.164 Y103.135 Z0.2
;TYPE:SKIRT
G1 F2700 E0
G1 F900 X69.426 Y102.962 E0.01234
G1 X69.691 Y102.792 E0.0247
G1 X70.047 Y102.571 E0.04117
G1 X70.874 Y102.105 E0.07846
G1 X71.777 Y101.694 E0.11744
G1 X71.983 Y101.611 E0.12617
G1 X72.457 Y101.432 E0.14607
G1 X72.898 Y101.277 E0.16444
G1 X73.805 Y101.001 E0.20169
G1 X74.457 Y100.853 E0.22795
G1 X75.893 Y100.571 E0.28545
G1 X78.506 Y100.019 E0.39038
G1 X80.91 Y99.441 E0.48752
G1 X83.37 Y98.773 E0.58767
G1 X85.74 Y98.057 E0.68494
G1 X88.154 Y97.254 E0.78489
G1 X90.497 Y96.4 E0.88287
G1 X92.846 Y95.467 E0.98217
G1 X95.136 Y94.482 E1.08011
G1 X97.427 Y93.419 E1.17934
G1 X99.637 Y92.316 E1.27638
G1 X100.86 Y91.654 E1.33102
G1 X100.992 Y91.59 E1.33678
G1 X102.198 Y90.951 E1.3904
G1 X103.054 Y90.543 E1.42766
G1 X103.941 Y90.208 E1.46491
G1 X104.528 Y90.033 E1.48897
G1 X104.824 Y89.953 E1.50102
G1 X105.179 Y89.863 E1.51541
G1 X105.387 Y89.814 E1.52381
G1 X105.998 Y89.688 E1.54832
G1 X107.379 Y89.444 E1.60341
G1 X109.836 Y88.973 E1.7017
G1 X112.271 Y88.435 E1.79968
G1 X114.692 Y87.827 E1.89775
G1 X117.703 Y86.973 E2.02071
G1 X117.897 Y86.914 E2.02868
G1 X118.816 Y86.679 E2.06595
G1 X119.752 Y86.522 E2.10324
G1 X120.271 Y86.47 E2.12373
G1 X120.361 Y86.463 E2.12728
G1 X121.093 Y86.43 E2.15606
G1 X121.796 Y86.422 E2.18369
G1 X124.448 Y86.422 E2.28788
G1 X125.307 Y86.433 E2.32163
G1 X126.191 Y86.481 E2.35641
G1 X126.459 Y86.506 E2.36699
G1 X126.783 Y86.541 E2.37979
G1 X127.147 Y86.586 E2.3942
G1 X127.343 Y86.604 E2.40193
G1 X127.848 Y86.668 E2.42193
G1 X128.177 Y86.717 E2.435
G1 X128.371 Y86.743 E2.44269
G1 X129.031 Y86.839 E2.4689
G1 X129.963 Y87.015 E2.50616
G1 X130.672 Y87.205 E2.535
G1 X131.917 Y87.583 E2.58612
G1 X132.325 Y87.713 E2.60294
G1 X132.555 Y87.789 E2.61246
G1 X133.09 Y87.974 E2.6347
G1 X133.717 Y88.2 E2.66088
G1 X134.595 Y88.558 E2.69814
G1 X135.439 Y88.99 E2.73539
G1 X136.244 Y89.491 E2.77264
G1 X137.005 Y90.059 E2.80995
G1 X137.714 Y90.688 E2.84719
G1 X138.368 Y91.375 E2.88445
G1 X138.946 Y92.092 E2.92063
G1 X139.037 Y92.215 E2.92665
G1 X139.568 Y93.001 E2.96391
G1 X140.038 Y93.84 E3.0017
G1 X140.527 Y94.813 E3.04448
G1 X140.787 Y95.349 E3.06789
G1 X142.448 Y98.51 E3.20818
G1 X142.853 Y99.368 E3.24545
G1 X143.185 Y100.256 E3.2827
G1 X143.384 Y100.941 E3.31073
G1 X143.455 Y101.217 E3.32192
G1 X143.653 Y102.145 E3.3592
G1 X143.791 Y103.368 E3.40756
G1 X143.838 Y104.178 E3.43944
G1 X143.852 Y104.483 E3.45143
G1 X143.868 Y105.002 E3.47183
G1 X143.873 Y105.319 E3.48429
G1 X143.874 Y106.238 E3.52039
G1 X143.86 Y107.306 E3.56236
G1 X143.872 Y108.075 E3.59257
G1 X143.873 Y110.13 E3.67331
G1 X143.861 Y111.066 E3.71009
G1 X143.871 Y111.769 E3.73771
G1 X143.873 Y113.881 E3.82069
G1 X143.861 Y114.881 E3.85998
G1 X143.87 Y115.46 E3.88273
G1 X143.875 Y118.028 E3.98362
G1 X143.87 Y118.494 E4.00193
G1 X143.911 Y120.985 E4.09982
G1 X143.887 Y121.933 E4.13707
G1 X143.783 Y122.875 E4.17431
G1 X143.696 Y123.372 E4.19413
G1 X143.509 Y124.304 E4.23148
G1 X143.318 Y125.191 E4.26713
G1 X143.238 Y125.545 E4.28138
G1 X142.99 Y126.46 E4.31863
G1 X142.666 Y127.352 E4.35592
G1 X142.268 Y128.213 E4.39318
G1 X141.799 Y129.037 E4.43043
G1 X141.262 Y129.819 E4.4677
G1 X140.661 Y130.553 E4.50497
G1 X140.001 Y131.233 E4.54221
G1 X139.225 Y131.903 E4.58248
G1 X138.908 Y132.148 E4.59823
G1 X138.403 Y132.523 E4.62294
G1 X136.838 Y133.654 E4.6988
G1 X134.881 Y135.155 E4.7957
G1 X132.908 Y136.758 E4.89558
G1 X132.711 Y136.924 E4.9057
G1 X132.056 Y137.466 E4.9391
G1 X131.365 Y137.994 E4.97327
G1 X131.199 Y138.111 E4.98124
G1 X130.402 Y138.625 E5.0185
G1 X129.564 Y139.069 E5.05576
G1 X128.691 Y139.441 E5.09305
G1 X127.79 Y139.738 E5.13032
G1 X126.868 Y139.959 E5.16757
G1 X125.667 Y140.126 E5.21521
G1 X125.197 Y140.164 E5.23374
G1 X121.149 Y140.426 E5.39311
G1 X119.958 Y140.528 E5.44007
G1 X119.336 Y140.564 E5.46455
G1 X118.97 Y140.575 E5.47894
G1 X118.631 Y140.58 E5.49226
G1 X108.487 Y140.578 E5.8908
G1 X107.781 Y140.568 E5.91854
G1 X106.834 Y140.514 E5.95581
G1 X105.509 Y140.303 E6.00852
G1 X105.387 Y140.276 E6.01343
G1 X104.885 Y140.153 E6.03374
G1 X104.548 Y140.062 E6.04745
G1 X103.67 Y139.786 E6.08361
G1 X102.682 Y139.429 E6.12488
G1 X101.822 Y139.104 E6.161
G1 X99.436 Y138.281 E6.26017
G1 X97.062 Y137.535 E6.35793
G1 X94.626 Y136.846 E6.45739
G1 X92.181 Y136.229 E6.55647
G1 X89.749 Y135.689 E6.65434
G1 X87.317 Y135.218 E6.75167
G1 X84.794 Y134.804 E6.85212
G1 X82.33 Y134.472 E6.9498
G1 X79.82 Y134.205 E7.04897
G1 X77.879 Y134.046 E7.12549
G1 X76.703 Y133.963 E7.1718
G1 X76.344 Y133.932 E7.18596
G1 X75.752 Y133.871 E7.20934
G1 X75.415 Y133.831 E7.22268
G1 X75.183 Y133.8 E7.23187
G1 X74.249 Y133.635 E7.26914
G1 X72.998 Y133.282 E7.3202
G1 X72.538 Y133.123 E7.33933
G1 X72.193 Y132.997 E7.35376
G1 X71.963 Y132.909 E7.36343
G1 X71.092 Y132.533 E7.4007
G1 X70.252 Y132.083 E7.43814
G1 X70.078 Y131.98 E7.44609
G1 X69.641 Y131.708 E7.46631
G1 X69.191 Y131.413 E7.48745
G1 X68.084 Y130.585 E7.54176
G1 X67.636 Y130.188 E7.56528
G1 X67.425 Y129.991 E7.57662
G1 X67.188 Y129.763 E7.58954
G1 X66.891 Y129.469 E7.60596
G1 X66.245 Y128.774 E7.64324
G1 X65.848 Y128.281 E7.66811
G1 X65.506 Y127.831 E7.69032
G1 X65.271 Y127.51 E7.70595
G1 X65.096 Y127.262 E7.71787
G1 X64.442 Y126.217 E7.76631
G1 X64.316 Y125.989 E7.77654
G1 X64.063 Y125.505 E7.798
G1 X63.794 Y124.957 E7.82198
G1 X63.31 Y123.815 E7.87071
G1 X63.142 Y123.349 E7.89018
G1 X63.012 Y122.968 E7.90599
G1 X62.878 Y122.55 E7.92324
G1 X62.64 Y121.693 E7.95818
G1 X62.555 Y121.314 E7.97344
G1 X62.508 Y121.089 E7.98247
G1 X62.446 Y120.77 E7.99524
G1 X62.341 Y120.183 E8.01867
G1 X62.217 Y119.282 E8.0544
G1 X62.19 Y119.002 E8.06545
G1 X62.151 Y118.456 E8.08696
G1 X62.119 Y117.782 E8.11347
G1 X62.112 Y116.874 E8.14915
G1 X62.122 Y116.573 E8.16098
G1 X62.152 Y116.044 E8.18179
G1 X62.203 Y115.411 E8.20674
G1 X62.318 Y114.476 E8.24376
G1 X62.371 Y114.156 E8.2565
G1 X62.462 Y113.674 E8.27577
G1 X62.587 Y113.081 E8.29958
G1 X62.801 Y112.23 E8.33406
G1 X62.848 Y112.07 E8.34061
G1 X62.953 Y111.733 E8.35448
G1 X63.017 Y111.538 E8.36254
G1 X63.115 Y111.251 E8.37446
G1 X63.292 Y110.757 E8.39507
G1 X63.786 Y109.591 E8.44482
G1 X64.012 Y109.131 E8.46496
G1 X64.176 Y108.81 E8.47912
G1 X64.36 Y108.464 E8.49452
G1 X64.995 Y107.413 E8.54276
G1 X65.136 Y107.206 E8.5526
G1 X65.439 Y106.782 E8.57308
G1 X65.765 Y106.348 E8.5944
G1 X66.366 Y105.615 E8.63164
G1 X66.847 Y105.108 E8.6591
G1 X67.23 Y104.729 E8.68027
G1 X67.514 Y104.458 E8.69569
G1 X67.734 Y104.255 E8.70746
G1 X68.457 Y103.642 E8.7447
G1 X69.164 Y103.135 E8.77888
G0 F6000 X69.44 Y103.552
G1 F900 X69.702 Y103.379 E8.79121
G1 X69.955 Y103.217 E8.80302
G1 X70.311 Y102.996 E8.81948
G1 X71.119 Y102.541 E8.85591
G1 X71.964 Y102.158 E8.89236
G1 X72.17 Y102.075 E8.90109
G1 X72.622 Y101.904 E8.92007
G1 X73.063 Y101.749 E8.93844
G1 X73.951 Y101.48 E8.97489
G1 X74.553 Y101.343 E8.99915
G1 X76.092 Y101.04 E9.06077
G1 X78.587 Y100.514 E9.16095
G1 X81.053 Y99.92 E9.26061
G1 X83.498 Y99.257 E9.36014
G1 X85.906 Y98.529 E9.45898
G1 X88.316 Y97.728 E9.55875
G1 X90.661 Y96.872 E9.65683
G1 X93.03 Y95.931 E9.75698
G1 X95.335 Y94.94 E9.85556
G1 X97.652 Y93.865 E9.95591
G1 X99.874 Y92.756 E10.05348
G1 X101.098 Y92.094 E10.10815
G1 X101.224 Y92.033 E10.11365
G1 X102.432 Y91.393 E10.16736
G1 X103.269 Y90.995 E10.20377
G1 X104.138 Y90.67 E10.24022
G1 X104.658 Y90.515 E10.26154
G1 X104.954 Y90.435 E10.27359
G1 X105.294 Y90.349 E10.28737
G1 X105.502 Y90.3 E10.29576
G1 X106.086 Y90.18 E10.31919
G1 X107.442 Y89.94 E10.37329
G1 X109.933 Y89.464 E10.47293
G1 X112.396 Y88.92 E10.57203
G1 X114.813 Y88.312 E10.66995
G1 X117.88 Y87.442 E10.7952
G1 X118.042 Y87.393 E10.80185
G1 X118.94 Y87.164 E10.83826
G1 X120.309 Y86.968 E10.89259
G1 X120.399 Y86.961 E10.89614
G1 X121.099 Y86.93 E10.92367
G1 X121.796 Y86.922 E10.95105
G1 X124.448 Y86.922 E11.05525
G1 X125.3 Y86.933 E11.08872
G1 X126.144 Y86.978 E11.12193
G1 X126.412 Y87.003 E11.13251
G1 X126.722 Y87.037 E11.14476
G1 X127.183 Y87.093 E11.163
G1 X127.281 Y87.1 E11.16686
G1 X127.786 Y87.164 E11.18686
G1 X128.114 Y87.213 E11.19989
G1 X128.299 Y87.238 E11.20723
G1 X128.959 Y87.334 E11.23343
G1 X129.87 Y87.507 E11.26986
G1 X130.527 Y87.683 E11.29658
G1 X131.766 Y88.059 E11.34745
G1 X132.174 Y88.189 E11.36428
G1 X132.758 Y88.387 E11.38851
G1 X133.547 Y88.67 E11.42144
G1 X134.405 Y89.022 E11.45787
G1 X135.229 Y89.446 E11.49428
G1 X136.014 Y89.94 E11.53072
G1 X136.753 Y90.499 E11.56713
G1 X137.442 Y91.12 E11.60357
G1 X138.074 Y91.799 E11.64001
G1 X138.544 Y92.389 E11.66965
G1 X138.635 Y92.512 E11.67566
G1 X139.154 Y93.281 E11.71211
G1 X139.592 Y94.065 E11.7474
G1 X140.002 Y94.878 E11.78317
G1 X140.347 Y95.588 E11.81418
G1 X142.005 Y98.743 E11.95421
G1 X142.4 Y99.582 E11.99065
G1 X142.722 Y100.451 E12.02706
G1 X142.9 Y101.066 E12.05221
G1 X142.971 Y101.342 E12.06341
G1 X143.163 Y102.249 E12.09983
G1 X143.292 Y103.397 E12.14522
G1 X143.339 Y104.207 E12.1771
G1 X143.352 Y104.499 E12.18858
G1 X143.368 Y105.018 E12.20898
G1 X143.373 Y105.32 E12.22085
G1 X143.374 Y106.232 E12.25668
G1 X143.36 Y107.308 E12.29896
G1 X143.372 Y108.076 E12.32913
G1 X143.373 Y110.124 E12.4096
G1 X143.361 Y111.068 E12.44669
G1 X143.371 Y111.77 E12.47427
G1 X143.373 Y113.875 E12.55697
G1 X143.361 Y114.883 E12.59658
G1 X143.37 Y115.461 E12.61929
G1 X143.375 Y118.022 E12.71991
G1 X143.37 Y118.432 E12.73602
G1 X143.412 Y120.993 E12.83665
G1 X143.387 Y121.92 E12.87308
G1 X143.205 Y123.274 E12.92676
G1 X143.02 Y124.2 E12.96386
G1 X142.831 Y125.081 E12.99926
G1 X142.751 Y125.435 E13.01352
G1 X142.507 Y126.329 E13.04993
G1 X142.188 Y127.2 E13.08637
G1 X141.795 Y128.039 E13.12277
G1 X141.331 Y128.842 E13.15921
G1 X140.799 Y129.602 E13.19565
G1 X140.204 Y130.313 E13.23208
G1 X139.55 Y130.97 E13.2685
G1 X138.916 Y131.511 E13.30125
G1 X138.609 Y131.747 E13.31646
G1 X138.11 Y132.118 E13.34089
G1 X136.558 Y133.24 E13.41613
G1 X134.539 Y134.788 E13.51609
G1 X132.579 Y136.38 E13.61529
G1 X132.392 Y136.539 E13.62494
G1 X131.737 Y137.081 E13.65834
G1 X131.077 Y137.586 E13.69099
G1 X130.911 Y137.703 E13.69897
G1 X130.131 Y138.204 E13.73539
G1 X129.311 Y138.636 E13.7718
G1 X128.456 Y138.995 E13.80824
G1 X127.574 Y139.28 E13.84465
G1 X126.67 Y139.487 E13.88109
G1 X125.625 Y139.628 E13.92252
G1 X125.164 Y139.665 E13.94069
G1 X121.123 Y139.927 E14.09979
G1 X119.915 Y140.03 E14.14742
G1 X119.321 Y140.064 E14.17079
G1 X118.955 Y140.075 E14.18518
G1 X118.631 Y140.08 E14.19791
G1 X108.494 Y140.078 E14.59618
G1 X107.788 Y140.068 E14.62392
G1 X106.862 Y140.015 E14.66036
G1 X105.617 Y139.815 E14.7099
G1 X105.495 Y139.788 E14.71481
G1 X105.016 Y139.67 E14.73419
G1 X104.679 Y139.579 E14.74791
G1 X103.84 Y139.316 E14.78245
G1 X103.015 Y139.019 E14.8169
G1 X101.994 Y138.634 E14.85977
G1 X99.602 Y137.809 E14.95918
G1 X97.211 Y137.058 E15.05765
G1 X94.746 Y136.361 E15.15829
G1 X92.299 Y135.743 E15.25745
G1 X89.848 Y135.198 E15.3561
G1 X87.388 Y134.723 E15.45453
G1 X84.905 Y134.315 E15.55339
G1 X82.379 Y133.974 E15.65354
G1 X79.831 Y133.704 E15.7542
G1 X77.958 Y133.55 E15.82804
G1 X76.738 Y133.464 E15.87609
G1 X76.395 Y133.434 E15.88962
G1 X75.803 Y133.373 E15.913
G1 X75.481 Y133.335 E15.92574
G1 X75.249 Y133.304 E15.93493
G1 X74.336 Y133.142 E15.97136
G1 X73.161 Y132.809 E16.01935
G1 X72.701 Y132.65 E16.03847
G1 X72.372 Y132.53 E16.05223
G1 X72.142 Y132.442 E16.0619
G1 X71.291 Y132.074 E16.09833
G1 X70.507 Y131.653 E16.13329
G1 X70.333 Y131.55 E16.14124
G1 X69.915 Y131.289 E16.1606
G1 X69.465 Y130.994 E16.18174
G1 X68.407 Y130.204 E16.23361
G1 X67.977 Y129.823 E16.25619
G1 X67.766 Y129.626 E16.26753
G1 X67.539 Y129.408 E16.27989
G1 X67.242 Y129.114 E16.29631
G1 X66.612 Y128.434 E16.33273
G1 X66.246 Y127.979 E16.35567
G1 X65.904 Y127.529 E16.37788
G1 X65.68 Y127.222 E16.39281
G1 X65.505 Y126.974 E16.40474
G1 X64.879 Y125.976 E16.45102
G1 X64.753 Y125.748 E16.46126
G1 X64.512 Y125.285 E16.48176
G1 X64.243 Y124.737 E16.50575
G1 X63.78 Y123.646 E16.55231
G1 X63.612 Y123.18 E16.57177
G1 X63.488 Y122.816 E16.58688
G1 X63.354 Y122.398 E16.60413
G1 X63.127 Y121.578 E16.63756
G1 X63.044 Y121.212 E16.6523
G1 X62.997 Y120.987 E16.66133
G1 X62.938 Y120.682 E16.67354
G1 X62.833 Y120.095 E16.69696
G1 X62.715 Y119.234 E16.73111
G1 X62.688 Y118.954 E16.74216
G1 X62.65 Y118.432 E16.76272
G1 X62.618 Y117.758 E16.78923
G1 X62.612 Y116.891 E16.8233
G1 X62.622 Y116.59 E16.83513
G1 X62.651 Y116.084 E16.85504
G1 X62.702 Y115.451 E16.87999
G1 X62.811 Y114.557 E16.91538
G1 X62.864 Y114.237 E16.92812
G1 X62.951 Y113.777 E16.94651
G1 X63.076 Y113.184 E16.97032
G1 X63.281 Y112.371 E17.00326
G1 X63.328 Y112.211 E17.00982
G1 X63.428 Y111.889 E17.02306
G1 X63.492 Y111.694 E17.03113
G1 X63.586 Y111.42 E17.04251
G1 X63.763 Y110.926 E17.06312
G1 X64.235 Y109.812 E17.11066
G1 X64.461 Y109.352 E17.13079
G1 X64.618 Y109.045 E17.14434
G1 X64.802 Y108.699 E17.15974
G1 X65.408 Y107.694 E17.20585
G1 X65.549 Y107.487 E17.21569
G1 X65.839 Y107.083 E17.23522
G1 X66.165 Y106.649 E17.25655
G1 X66.753 Y105.932 E17.29298
G1 X67.199 Y105.464 E17.31838
G1 X67.582 Y105.085 E17.33955
G1 X67.853 Y104.825 E17.35431
G1 X68.073 Y104.622 E17.36607
G1 X68.781 Y104.024 E17.40248
G1 X69.44 Y103.552 E17.43432
G0 F6000 X69.715 Y103.969
G1 F900 X69.977 Y103.796 E17.44666
G1 X70.219 Y103.642 E17.45793
G1 X70.575 Y103.421 E17.47439
G1 X71.364 Y102.978 E17.50994
G1 X72.15 Y102.622 E17.54384
G1 X72.356 Y102.539 E17.55257
G1 X72.788 Y102.376 E17.57071
G1 X73.229 Y102.221 E17.58907
G1 X74.096 Y101.959 E17.62466
G1 X74.65 Y101.834 E17.64697
G1 X76.138 Y101.541 E17.70656
G1 X78.703 Y101 E17.80955
G1 X81.163 Y100.408 E17.90896
G1 X83.637 Y99.737 E18.00967
G1 X86.062 Y99.004 E18.1092
G1 X88.465 Y98.204 E18.20871
G1 X90.88 Y97.324 E18.30969
G1 X93.203 Y96.401 E18.4079
G1 X95.549 Y95.392 E18.50823
G1 X97.847 Y94.326 E18.60776
G1 X100.111 Y93.196 E18.70717
G1 X101.335 Y92.534 E18.76184
G1 X101.466 Y92.47 E18.76757
G1 X102.666 Y91.835 E18.82091
G1 X103.484 Y91.447 E18.85648
G1 X104.333 Y91.133 E18.89205
G1 X104.789 Y90.998 E18.91073
G1 X105.085 Y90.918 E18.92278
G1 X105.409 Y90.836 E18.93591
G1 X105.617 Y90.787 E18.9443
G1 X106.173 Y90.672 E18.96661
G1 X107.507 Y90.436 E19.01983
G1 X107.546 Y90.43 E19.02139
G1 X110.03 Y89.954 E19.12075
G1 X112.521 Y89.404 E19.22098
G1 X114.943 Y88.795 E19.3191
G1 X118.023 Y87.921 E19.44488
G1 X118.186 Y87.872 E19.45157
G1 X119.063 Y87.649 E19.48712
G1 X120.348 Y87.467 E19.53811
G1 X120.438 Y87.46 E19.54166
G1 X121.106 Y87.43 E19.56793
G1 X121.796 Y87.422 E19.59504
G1 X124.448 Y87.422 E19.69923
G1 X125.293 Y87.433 E19.73244
G1 X126.098 Y87.476 E19.76411
G1 X126.366 Y87.501 E19.77468
G1 X126.661 Y87.533 E19.78634
G1 X127.084 Y87.585 E19.80309
G1 X127.218 Y87.596 E19.80837
G1 X127.723 Y87.66 E19.82837
G1 X128.051 Y87.709 E19.8414
G1 X128.887 Y87.829 E19.87458
G1 X129.777 Y87.998 E19.91017
G1 X130.382 Y88.162 E19.9348
G1 X131.614 Y88.536 E19.98538
