;FLAVOR:Marlin
;TIME:3690
;Filament used: 2.86691m
;Layer height: 0.22
;MINX:60.476
;MINY:66.62
;MINZ:0.2
;MAXX:128.24
;MAXY:158.367
;MAXZ:13.18
;POSTPROCESSED
;Generated with Cura_SteamEngine 4.13.1
;
;

M82 ;absolute extrusion mode
; Ender 3 Custom Start G-code
M117 Getting the bed up to temp!
M140 S55.0 ; Set Heat Bed temperature
M190 S55.0 ; Wait for Heat Bed temperature
M117 Pre-heating the extruder!
M104 S210; start warming extruder to 160
G28 ; Home all axes
M117 Auto bed-level GO!
G29 ; Auto bed-level (BL-Touch)
G92 E0 ; Reset Extruder
M117 Getting the extruder up to temp!
M104 S210 ; Set Extruder temperature
M109 S210 ; Wait for Extruder temperature
G1 Z2.0 F3000 ; move z up little to prevent scratching of surface
G1 X0.1 Y20 Z0.3 F5000.0 ; move to start-line position
M117 LET THE PURGE BEGIN!
SET_GCODE_OFFSET Z=-.005
G1 X0.1 Y200.0 Z0.3 F1500.0 E15 ; draw 1st line
G1 X0.4 Y200.0 Z0.3 F5000.0 ; move to side a little
G1 X0.4 Y20 Z0.3 F1500.0 E30 ; draw 2nd line
G92 E0 ; reset extruder
G1 Z1.0 F3000 ; move z up little to prevent scratching of surface
G1 X5 Y20 Z0.3 F5000.0 ; Move over to prevent blob squish
; SET_GCODE_OFFSET Z=+.075
M117 Autobots! Roll Out!
; End of custom start GCode
G92 E0
G92 E0
G1 F2700 E-3.5
;LAYER_COUNT:60
;LAYER:0
M107
G0 F9000 X64.379 Y69.369 Z0.2
;TYPE:SKIRT
G1 F2700 E0
G1 F2100 X65.122 Y68.779 E0.03728
G1 X65.912 Y68.254 E0.07454
G1 X66.743 Y67.798 E0.11178
G1 X67.61 Y67.413 E0.14905
G1 X68.507 Y67.103 E0.18634
G1 X69.426 Y66.87 E0.22359
G1 X70.361 Y66.714 E0.26083
G1 X71.45 Y66.634 E0.30373
G1 X71.845 Y66.624 E0.31926
G1 X72.13 Y66.62 E0.33045
G1 X90.914 Y66.62 E1.06845
G1 X100.463 Y66.63 E1.44362
G1 X101.194 Y66.641 E1.47234
G1 X101.827 Y66.669 E1.49723
G1 X102.107 Y66.689 E1.50826
G1 X102.409 Y66.714 E1.52017
G1 X102.693 Y66.742 E1.53138
G1 X103.56 Y66.862 E1.56577
G1 X103.796 Y66.904 E1.57519
G1 X104.422 Y67.034 E1.60031
G1 X104.755 Y67.113 E1.61375
G1 X105.684 Y67.376 E1.65169
G1 X106.19 Y67.543 E1.67262
G1 X107.47 Y68.054 E1.72677
G1 X107.652 Y68.14 E1.73468
G1 X108.126 Y68.378 E1.75552
G1 X108.538 Y68.597 E1.77385
G1 X109.333 Y69.062 E1.81003
G1 X109.506 Y69.173 E1.81811
G1 X109.955 Y69.477 E1.83941
G1 X110.302 Y69.724 E1.85615
G1 X111.341 Y70.561 E1.90856
G1 X111.526 Y70.729 E1.91838
G1 X111.879 Y71.063 E1.93748
G1 X112.188 Y71.369 E1.95456
G1 X112.848 Y72.082 E1.99273
G1 X112.983 Y72.241 E2.00093
G1 X113.317 Y72.654 E2.0218
G1 X113.586 Y73.003 E2.03911
G1 X114.288 Y74.026 E2.08785
G1 X114.468 Y74.322 E2.10146
G1 X114.926 Y75.152 E2.13871
G1 X115.155 Y75.639 E2.15985
G1 X115.483 Y76.385 E2.19187
G1 X115.619 Y76.71 E2.20571
G1 X115.677 Y76.854 E2.21181
G1 X116.009 Y77.797 E2.25109
G1 X116.257 Y78.617 E2.28475
G1 X117.057 Y81.124 E2.38814
G1 X117.876 Y83.466 E2.48561
G1 X118.781 Y85.838 E2.58536
G1 X119.735 Y88.134 E2.68304
G1 X120.775 Y90.456 E2.783
G1 X121.857 Y92.697 E2.88077
G1 X123.016 Y94.935 E2.97979
G1 X124.212 Y97.091 E3.07666
G1 X126.113 Y100.263 E3.22195
G1 X126.644 Y101.259 E3.26629
G1 X126.763 Y101.512 E3.27728
G1 X127.099 Y102.304 E3.31108
G1 X127.262 Y102.733 E3.32911
G1 X127.6 Y103.769 E3.37192
G1 X127.729 Y104.242 E3.39119
G1 X127.968 Y105.33 E3.43495
G1 X128.036 Y105.733 E3.45101
G1 X128.166 Y106.827 E3.49429
G1 X128.206 Y107.404 E3.51702
G1 X128.229 Y107.887 E3.53602
G1 X128.235 Y108.136 E3.5458
G1 X128.24 Y108.606 E3.56427
G1 X128.239 Y116.363 E3.86903
G1 X128.227 Y117.181 E3.90117
G1 X128.207 Y117.705 E3.92177
G1 X128.2 Y117.819 E3.92626
G1 X128.133 Y118.533 E3.95443
G1 X128.069 Y119.042 E3.97459
G1 X127.868 Y120.172 E4.01968
G1 X127.743 Y120.713 E4.0415
G1 X127.422 Y121.835 E4.08735
G1 X127.343 Y122.065 E4.0969
G1 X126.975 Y122.997 E4.13627
G1 X126.762 Y123.474 E4.1568
G1 X126.246 Y124.489 E4.20153
G1 X126.01 Y124.9 E4.22015
G1 X125.433 Y125.803 E4.26225
G1 X125.141 Y126.215 E4.28209
G1 X124.49 Y127.048 E4.32363
G1 X124.416 Y127.134 E4.32809
G1 X124.092 Y127.494 E4.34711
G1 X123.249 Y128.391 E4.39548
G1 X122.408 Y129.261 E4.44302
G1 X120.739 Y131.089 E4.54027
G1 X119.084 Y133.009 E4.63986
G1 X117.514 Y134.936 E4.73752
G1 X115.974 Y136.941 E4.83684
G1 X114.51 Y138.963 E4.93492
G1 X113.087 Y141.05 E5.03416
G1 X111.739 Y143.152 E5.13227
G1 X110.436 Y145.315 E5.23148
G1 X109.193 Y147.519 E5.33089
G1 X108.55 Y148.72 E5.38442
G1 X108.42 Y148.956 E5.395
G1 X108.292 Y149.182 E5.40521
G1 X108.069 Y149.558 E5.42238
G1 X107.931 Y149.781 E5.43268
G1 X107.512 Y150.41 E5.46238
G1 X107.091 Y150.998 E5.49079
G1 X106.403 Y151.866 E5.53431
G1 X105.933 Y152.402 E5.56231
G1 X105.166 Y153.194 E5.60563
G1 X104.674 Y153.655 E5.63212
G1 X103.852 Y154.355 E5.67454
G1 X103.319 Y154.766 E5.70098
G1 X102.426 Y155.388 E5.74374
G1 X101.844 Y155.753 E5.77073
G1 X100.865 Y156.301 E5.81481
G1 X100.264 Y156.599 E5.84116
G1 X99.274 Y157.032 E5.88362
G1 X98.558 Y157.305 E5.91372
G1 X98.25 Y157.418 E5.92661
G1 X97.454 Y157.669 E5.9594
G1 X97.258 Y157.723 E5.96739
G1 X96.797 Y157.839 E5.98607
G1 X96.476 Y157.913 E5.99901
G1 X95.809 Y158.046 E6.02573
G1 X95.123 Y158.161 E6.05306
G1 X94.026 Y158.29 E6.09646
G1 X93.246 Y158.343 E6.12717
G1 X92.298 Y158.367 E6.16443
G1 X91.581 Y158.333 E6.19263
G1 X90.773 Y158.268 E6.22448
G1 X90.422 Y158.234 E6.23833
G1 X89.86 Y158.171 E6.26055
G1 X88.565 Y157.949 E6.31217
G1 X88.036 Y157.826 E6.33351
G1 X87.619 Y157.72 E6.35042
G1 X87.425 Y157.667 E6.35832
G1 X86.903 Y157.511 E6.37972
G1 X86.676 Y157.437 E6.3891
G1 X86.221 Y157.278 E6.40804
G1 X85.951 Y157.177 E6.41936
G1 X85.292 Y156.906 E6.44736
G1 X84.607 Y156.599 E6.47685
G1 X84.077 Y156.345 E6.49994
G1 X83.997 Y156.304 E6.50347
G1 X83.617 Y156.1 E6.52042
G1 X83.407 Y155.982 E6.52988
G1 X83.001 Y155.742 E6.54841
G1 X82.773 Y155.601 E6.55894
G1 X82.178 Y155.206 E6.587
G1 X81.554 Y154.763 E6.61707
G1 X80.683 Y154.078 E6.66061
G1 X80.199 Y153.657 E6.68581
G1 X79.91 Y153.397 E6.70108
G1 X79.836 Y153.328 E6.70506
G1 X78.949 Y152.401 E6.75546
G1 X77.785 Y151.037 E6.82591
G1 X76.738 Y149.802 E6.88953
G1 X75.064 Y147.937 E6.98799
G1 X73.245 Y146.024 E7.0917
G1 X72.485 Y145.247 E7.1344
G1 X72.238 Y144.986 E7.14852
G1 X71.812 Y144.522 E7.17327
G1 X71.201 Y143.797 E7.21052
G1 X70.758 Y143.183 E7.24026
G1 X70.456 Y142.733 E7.26156
G1 X70.263 Y142.435 E7.2755
G1 X70.082 Y142.146 E7.2889
G1 X69.612 Y141.322 E7.32617
G1 X69.299 Y140.661 E7.35491
G1 X69.159 Y140.339 E7.3687
G1 X68.991 Y139.932 E7.386
G1 X68.8 Y139.441 E7.4067
G1 X67.779 Y136.69 E7.52199
G1 X66.845 Y134.377 E7.61999
G1 X65.839 Y132.076 E7.71865
G1 X64.77 Y129.809 E7.81713
G1 X63.637 Y127.57 E7.91572
G1 X62.109 Y124.775 E8.04087
G1 X61.963 Y124.517 E8.05251
G1 X61.53 Y123.673 E8.08978
G1 X61.17 Y122.795 E8.12706
G1 X60.885 Y121.891 E8.1643
G1 X60.677 Y120.965 E8.20159
G1 X60.548 Y120.026 E8.23883
G1 X60.506 Y119.395 E8.26368
G1 X60.501 Y119.264 E8.26883
G1 X60.494 Y118.949 E8.28121
G1 X60.489 Y118.442 E8.30113
G1 X60.489 Y107.275 E8.73986
G1 X60.476 Y86.87 E9.54154
G1 X60.476 Y78.393 E9.87459
G1 X60.486 Y77.714 E9.90127
G1 X60.54 Y76.767 E9.93854
G1 X60.674 Y75.828 E9.9758
G1 X60.886 Y74.904 E10.01305
G1 X61.175 Y74.001 E10.0503
G1 X61.539 Y73.125 E10.08757
G1 X61.976 Y72.283 E10.12484
G1 X62.482 Y71.481 E10.1621
G1 X63.054 Y70.724 E10.19938
G1 X63.688 Y70.018 E10.23666
G1 X64.379 Y69.369 E10.2739
G0 F9000 X64.865 Y69.612
G1 F2100 X65.603 Y69.051 E10.31032
G1 X66.386 Y68.555 E10.34674
G1 X67.209 Y68.129 E10.38315
G1 X68.067 Y67.775 E10.41961
G1 X68.951 Y67.497 E10.45602
G1 X69.856 Y67.296 E10.49244
G1 X70.775 Y67.173 E10.52887
G1 X71.463 Y67.133 E10.55595
G1 X71.858 Y67.123 E10.57147
G1 X72.13 Y67.12 E10.58216
G1 X90.913 Y67.12 E11.32012
G1 X100.456 Y67.13 E11.69505
G1 X101.187 Y67.141 E11.72377
G1 X101.791 Y67.167 E11.74752
G1 X102.071 Y67.187 E11.75855
G1 X102.36 Y67.212 E11.76995
G1 X102.644 Y67.24 E11.78116
G1 X103.473 Y67.354 E11.81404
G1 X103.709 Y67.396 E11.82345
G1 X104.306 Y67.52 E11.84741
G1 X104.639 Y67.599 E11.86086
G1 X105.527 Y67.851 E11.89712
G1 X106.033 Y68.018 E11.91806
G1 X107.257 Y68.506 E11.96983
G1 X107.439 Y68.592 E11.97774
G1 X107.892 Y68.82 E11.99766
G1 X108.304 Y69.039 E12.01599
G1 X109.063 Y69.483 E12.05054
G1 X109.236 Y69.594 E12.05862
G1 X109.665 Y69.884 E12.07896
G1 X110.012 Y70.131 E12.09569
G1 X111.005 Y70.931 E12.14579
G1 X111.19 Y71.099 E12.15561
G1 X111.527 Y71.419 E12.17387
G1 X111.836 Y71.725 E12.19096
G1 X112.467 Y72.405 E12.2274
G1 X112.602 Y72.564 E12.2356
G1 X112.921 Y72.959 E12.25554
G1 X113.19 Y73.308 E12.27286
G1 X113.861 Y74.286 E12.31946
G1 X114.041 Y74.582 E12.33307
G1 X114.488 Y75.394 E12.36948
G1 X114.697 Y75.84 E12.38883
G1 X115.025 Y76.586 E12.42085
G1 X115.156 Y76.897 E12.43411
G1 X115.214 Y77.041 E12.44021
G1 X115.531 Y77.942 E12.47773
G1 X115.797 Y78.819 E12.51374
G1 X116.579 Y81.272 E12.61489
G1 X117.404 Y83.63 E12.71304
G1 X118.324 Y86.04 E12.81439
G1 X119.278 Y88.338 E12.91215
G1 X120.309 Y90.639 E13.01121
G1 X121.417 Y92.935 E13.11137
G1 X122.567 Y95.156 E13.20964
G1 X123.787 Y97.356 E13.30847
G1 X125.684 Y100.52 E13.45341
G1 X126.192 Y101.472 E13.49581
G1 X126.311 Y101.725 E13.50679
G1 X126.632 Y102.482 E13.5391
G1 X126.795 Y102.911 E13.55713
G1 X127.117 Y103.9 E13.59799
G1 X127.246 Y104.373 E13.61725
G1 X127.475 Y105.413 E13.65909
G1 X127.543 Y105.816 E13.67515
G1 X127.667 Y106.862 E13.71653
G1 X127.707 Y107.439 E13.73926
G1 X127.73 Y107.904 E13.75755
G1 X127.739 Y108.478 E13.7801
G1 X127.74 Y116.198 E14.08341
G1 X127.727 Y117.174 E14.12176
G1 X127.708 Y117.675 E14.14146
G1 X127.701 Y117.789 E14.14594
G1 X127.637 Y118.471 E14.17286
G1 X127.573 Y118.98 E14.19301
G1 X127.381 Y120.059 E14.23607
G1 X127.256 Y120.6 E14.25788
G1 X126.949 Y121.672 E14.30169
G1 X126.87 Y121.902 E14.31125
G1 X126.519 Y122.793 E14.34887
G1 X126.306 Y123.27 E14.3694
G1 X125.812 Y124.24 E14.41217
G1 X125.576 Y124.651 E14.43079
G1 X125.025 Y125.514 E14.47101
G1 X124.733 Y125.926 E14.49085
G1 X124.111 Y126.722 E14.53054
G1 X124.037 Y126.808 E14.535
G1 X123.727 Y127.152 E14.55319
G1 X122.889 Y128.043 E14.60125
G1 X122.067 Y128.894 E14.64773
G1 X120.364 Y130.76 E14.74699
G1 X118.687 Y132.703 E14.84783
G1 X117.13 Y134.615 E14.9447
G1 X115.577 Y136.637 E15.04487
G1 X114.091 Y138.689 E15.14441
G1 X112.674 Y140.767 E15.24323
G1 X111.305 Y142.901 E15.34284
G1 X110.019 Y145.037 E15.4408
G1 X108.745 Y147.296 E15.54269
G1 X108.109 Y148.484 E15.59563
G1 X107.985 Y148.71 E15.60576
G1 X107.857 Y148.936 E15.61597
G1 X107.644 Y149.295 E15.63237
G1 X107.506 Y149.518 E15.64267
G1 X107.106 Y150.119 E15.67103
G1 X106.685 Y150.707 E15.69945
G1 X106.027 Y151.536 E15.74103
G1 X105.557 Y152.072 E15.76904
G1 X104.824 Y152.83 E15.81046
G1 X104.332 Y153.291 E15.83695
G1 X103.546 Y153.959 E15.87748
G1 X103.013 Y154.37 E15.90392
G1 X102.161 Y154.964 E15.94473
G1 X101.579 Y155.329 E15.97172
G1 X100.642 Y155.853 E16.0139
G1 X100.041 Y156.151 E16.04025
G1 X99.096 Y156.565 E16.08079
G1 X98.38 Y156.838 E16.1109
G1 X98.082 Y156.947 E16.12336
G1 X97.321 Y157.187 E16.15471
G1 X97.125 Y157.241 E16.1627
G1 X96.685 Y157.352 E16.18053
G1 X96.364 Y157.426 E16.19347
G1 X95.726 Y157.553 E16.21903
G1 X95.04 Y157.668 E16.24636
G1 X93.992 Y157.791 E16.28781
G1 X93.212 Y157.844 E16.31853
G1 X92.285 Y157.867 E16.35496
G1 X91.621 Y157.834 E16.38108
G1 X90.813 Y157.769 E16.41293
G1 X90.477 Y157.737 E16.42619
G1 X89.915 Y157.674 E16.44841
G1 X88.678 Y157.462 E16.49772
G1 X88.149 Y157.339 E16.51905
G1 X87.751 Y157.238 E16.53519
G1 X87.557 Y157.185 E16.54309
G1 X87.058 Y157.036 E16.56355
G1 X86.831 Y156.962 E16.57293
G1 X86.397 Y156.81 E16.59099
G1 X86.127 Y156.709 E16.60232
G1 X85.496 Y156.45 E16.62912
G1 X84.811 Y156.143 E16.65861
G1 X84.305 Y155.9 E16.68066
G1 X84.225 Y155.859 E16.6842
G1 X83.862 Y155.664 E16.70039
G1 X83.652 Y155.546 E16.70985
G1 X83.264 Y155.317 E16.72755
G1 X83.036 Y155.176 E16.73808
G1 X82.467 Y154.799 E16.7649
G1 X81.843 Y154.356 E16.79497
G1 X81.011 Y153.701 E16.83657
G1 X80.527 Y153.28 E16.86177
G1 X80.177 Y152.962 E16.88035
G1 X79.329 Y152.076 E16.92853
G1 X78.167 Y150.713 E16.9989
G1 X77.138 Y149.499 E17.06143
G1 X75.428 Y147.594 E17.162
G1 X73.612 Y145.684 E17.26555
G1 X72.842 Y144.897 E17.30881
G1 X72.606 Y144.648 E17.32229
G1 X72.18 Y144.184 E17.34703
G1 X71.583 Y143.475 E17.38345
G1 X71.173 Y142.904 E17.41107
G1 X70.871 Y142.454 E17.43236
G1 X70.686 Y142.17 E17.44568
G1 X70.505 Y141.881 E17.45907
G1 X70.048 Y141.075 E17.49548
G1 X69.757 Y140.461 E17.52217
G1 X69.617 Y140.139 E17.53597
G1 X69.457 Y139.75 E17.55249
G1 X69.266 Y139.259 E17.57319
G1 X68.257 Y136.539 E17.68717
G1 X67.299 Y134.169 E17.7876
G1 X66.295 Y131.873 E17.88606
G1 X65.208 Y129.565 E17.98629
G1 X64.089 Y127.354 E18.08365
G1 X62.534 Y124.51 E18.211
G1 X62.398 Y124.27 E18.22183
G1 X61.975 Y123.445 E18.25826
G1 X61.626 Y122.586 E18.29469
G1 X61.352 Y121.7 E18.33112
G1 X61.155 Y120.794 E18.36755
G1 X61.036 Y119.875 E18.40396
G1 X61.006 Y119.376 E18.4236
G1 X60.994 Y118.944 E18.44058
G1 X60.989 Y118.442 E18.4603
G1 X60.989 Y107.275 E18.89904
G1 X60.976 Y86.87 E19.70072
G1 X60.976 Y78.401 E20.03345
G1 X60.986 Y77.722 E20.06013
G1 X61.04 Y76.796 E20.09658
G1 X61.173 Y75.879 E20.13298
G1 X61.385 Y74.976 E20.16942
G1 X61.673 Y74.095 E20.20584
G1 X62.037 Y73.242 E20.24228
G1 X62.473 Y72.424 E20.27869
G1 X62.977 Y71.646 E20.31511
G1 X63.547 Y70.914 E20.35156
G1 X64.178 Y70.235 E20.38798
G1 X64.865 Y69.612 E20.42442
G0 F9000 X65.349 Y69.862
G1 F2100 X66.082 Y69.33 E20.46
G1 X66.858 Y68.864 E20.49557
G1 X67.673 Y68.469 E20.53115
G1 X68.519 Y68.148 E20.5667
G1 X69.39 Y67.902 E20.60226
G1 X70.28 Y67.734 E20.63784
G1 X71.476 Y67.633 E20.685
G1 X71.871 Y67.623 E20.70052
G1 X72.13 Y67.62 E20.7107
G1 X90.913 Y67.62 E21.44865
G1 X100.448 Y67.63 E21.82327
G1 X101.179 Y67.641 E21.85199
G1 X101.755 Y67.666 E21.87465
G1 X102.035 Y67.686 E21.88567
G1 X102.311 Y67.709 E21.89656
G1 X102.595 Y67.737 E21.90777
G1 X103.385 Y67.847 E21.93911
G1 X103.621 Y67.889 E21.94852
G1 X104.191 Y68.007 E21.97139
G1 X104.524 Y68.086 E21.98484
G1 X105.37 Y68.325 E22.01938
G1 X105.876 Y68.492 E22.04031
G1 X107.043 Y68.959 E22.0897
G1 X107.225 Y69.045 E22.09761
G1 X107.657 Y69.261 E22.11658
G1 X108.069 Y69.48 E22.13491
G1 X108.793 Y69.904 E22.16788
G1 X108.966 Y70.015 E22.17595
G1 X109.375 Y70.291 E22.19534
G1 X109.722 Y70.538 E22.21207
G1 X110.669 Y71.301 E22.25985
G1 X110.854 Y71.469 E22.26967
G1 X111.175 Y71.774 E22.28707
G1 X111.484 Y72.08 E22.30415
G1 X112.086 Y72.729 E22.33893
G1 X112.221 Y72.888 E22.34713
G1 X112.525 Y73.265 E22.36615
G1 X112.794 Y73.614 E22.38347
G1 X113.434 Y74.545 E22.42785
G1 X113.614 Y74.841 E22.44146
G1 X114.239 Y76.041 E22.49462
G1 X114.567 Y76.787 E22.52664
G1 X114.692 Y77.083 E22.53926
G1 X114.75 Y77.227 E22.54536
G1 X115.052 Y78.086 E22.58113
G1 X115.309 Y78.935 E22.61599
G1 X116.108 Y81.442 E22.71936
G1 X116.943 Y83.826 E22.81861
G1 X117.849 Y86.2 E22.91844
G1 X118.819 Y88.537 E23.01785
G1 X119.869 Y90.881 E23.11876
G1 X120.955 Y93.131 E23.21692
G1 X122.126 Y95.392 E23.31696
G1 X123.343 Y97.585 E23.41549
G1 X125.256 Y100.777 E23.5617
G1 X125.739 Y101.684 E23.60207
G1 X125.858 Y101.937 E23.61306
G1 X126.165 Y102.659 E23.64388
G1 X126.328 Y103.088 E23.66191
G1 X126.635 Y104.032 E23.70091
G1 X126.764 Y104.505 E23.72017
G1 X126.982 Y105.497 E23.76008
G1 X127.05 Y105.9 E23.77614
G1 X127.168 Y106.896 E23.81554
G1 X127.208 Y107.473 E23.83827
G1 X127.23 Y107.921 E23.85589
G1 X127.239 Y108.484 E23.87801
G1 X127.24 Y116.198 E24.18108
G1 X127.227 Y117.166 E24.21912
G1 X127.209 Y117.644 E24.23791
G1 X127.202 Y117.758 E24.2424
G1 X127.141 Y118.409 E24.26809
G1 X127.077 Y118.918 E24.28824
G1 X126.894 Y119.947 E24.3293
G1 X126.769 Y120.488 E24.35112
G1 X126.476 Y121.51 E24.39289
G1 X126.397 Y121.74 E24.40244
G1 X126.062 Y122.589 E24.4383
G1 X125.849 Y123.066 E24.45883
G1 X125.379 Y123.991 E24.49959
G1 X125.143 Y124.402 E24.51821
G1 X124.617 Y125.225 E24.55659
G1 X124.325 Y125.637 E24.57643
G1 X123.732 Y126.395 E24.61424
G1 X123.658 Y126.481 E24.61869
G1 X123.362 Y126.81 E24.63608
G1 X122.53 Y127.696 E24.68383
G1 X121.692 Y128.563 E24.73121
G1 X119.97 Y130.45 E24.83157
G1 X118.34 Y132.34 E24.92963
G1 X116.72 Y134.329 E25.03042
G1 X115.175 Y136.339 E25.13002
